; generated by Slic3r 1.1.7 on 2015-05-26 at 17:20:58

; Andrea su Materia 101 per velocità e risoluzione

; perimeters extrusion width = 0.30mm
; infill extrusion width = 0.60mm
; solid infill extrusion width = 0.40mm
; top infill extrusion width = 0.25mm
; support material extrusion width = 0.25mm

G21 ; set units to millimeters
M107
M104 S230 ; set temperature
M204 S1800
G28 ;Home all axis
T0
M106 S127 ; EXTRUDER FAN ON
G1 Z10 F1000
G92 E0
M117 Printing...
M109 S230 ; wait for temperature to be reached
G90 ; use absolute coordinates
G92 E0
M82 ; use absolute distances for extrusion
G1 Z0.300 F6000.000
G1 F1800.000 E-2.00000
G92 E0
G1 X54.202 Y35.862 F6000.000
G1 E2.00000 F1800.000
G1 X55.944 Y34.450 E2.10887 F1200.000
G1 X59.000 Y33.664 E2.26208
G1 X79.000 Y33.664 E3.23312
G1 X81.207 Y34.061 E3.34199
G1 X83.138 Y35.202 E3.45087 F1200.000
G1 X84.550 Y36.944 E3.55974
G1 X85.336 Y40.000 E3.71295
G1 X85.336 Y60.000 E4.68398
G1 X84.939 Y62.207 E4.79286
G1 X83.798 Y64.138 E4.90173
G1 X82.056 Y65.550 E5.01061
G1 X79.000 Y66.336 E5.16381
G1 X59.000 Y66.336 E6.13485
G1 X56.793 Y65.939 E6.24372
G1 X54.862 Y64.798 E6.35260
G1 X53.450 Y63.056 E6.46147
G1 X52.664 Y60.000 E6.61468
G1 X52.664 Y40.000 E7.58571
G1 X53.061 Y37.793 E7.69459
G1 X54.175 Y35.908 E7.80091
G1 F1800.000 E5.80091
G92 E0
G1 X54.549 Y36.076 F6000.000
G1 E2.00000 F1800.000
G1 X54.587 Y36.014 E2.00351 F1200.000
G1 X56.313 Y34.695 E2.10896
G1 X59.000 Y34.054 E2.24309
G1 X79.000 Y34.054 E3.21413
G1 X81.135 Y34.450 E3.31958
G1 X82.986 Y35.587 E3.42503 F1200.000
G1 X84.305 Y37.313 E3.53048
G1 X84.946 Y40.000 E3.66461
G1 X84.946 Y60.000 E4.63565
G1 X84.550 Y62.135 E4.74110
G1 X83.413 Y63.986 E4.84654
G1 X81.687 Y65.305 E4.95199
G1 X79.000 Y65.946 E5.08612
G1 X59.000 Y65.946 E6.05716
G1 X56.865 Y65.550 E6.16261
G1 X55.014 Y64.413 E6.26806
G1 X53.695 Y62.687 E6.37351
G1 X53.054 Y60.000 E6.50764
G1 X53.054 Y40.000 E7.47868
G1 X53.450 Y37.865 E7.58413
G1 X54.522 Y36.121 E7.68351
G1 F1800.000 E5.68351
G92 E0
G1 X54.892 Y36.296 F6000.000
G1 E2.00000 F1800.000
G1 X54.972 Y36.172 E2.00715 F1200.000
G1 X56.679 Y34.951 E2.10906
G1 X59.000 Y34.443 E2.22440
G1 X79.000 Y34.443 E3.19544
G1 X81.061 Y34.839 E3.29735
G1 X82.828 Y35.972 E3.39926 F1200.000
G1 X84.049 Y37.679 E3.50117
G1 X84.557 Y40.000 E3.61651
G1 X84.557 Y60.000 E4.58755
G1 X84.161 Y62.061 E4.68946
G1 X83.028 Y63.828 E4.79136
G1 X81.321 Y65.049 E4.89327
G1 X79.000 Y65.557 E5.00861
G1 X59.000 Y65.557 E5.97965
G1 X56.939 Y65.161 E6.08156
G1 X55.172 Y64.028 E6.18347
G1 X53.951 Y62.321 E6.28538
G1 X53.443 Y60.000 E6.40072
G1 X53.443 Y40.000 E7.37176
G1 X53.839 Y37.939 E7.47367
G1 X54.864 Y36.340 E7.56587
G1 F1800.000 E5.56587
G92 E0
G1 X55.230 Y36.523 F6000.000
G1 E2.00000 F1800.000
G1 X55.356 Y36.336 E2.01093 F1200.000
G1 X57.042 Y35.217 E2.10917
G1 X59.000 Y34.832 E2.20605
G1 X79.000 Y34.832 E3.17708
G1 X80.984 Y35.228 E3.27532
G1 X82.664 Y36.356 E3.37357 F1200.000
G1 X83.783 Y38.042 E3.47181
G1 X84.168 Y40.000 E3.56868
G1 X84.168 Y60.000 E4.53972
G1 X83.772 Y61.984 E4.63796
G1 X82.644 Y63.664 E4.73620
G1 X80.958 Y64.783 E4.83444
G1 X79.000 Y65.168 E4.93131
G1 X59.000 Y65.168 E5.90235
G1 X57.016 Y64.772 E6.00059
G1 X55.336 Y63.644 E6.09883
G1 X54.217 Y61.958 E6.19707
G1 X53.832 Y60.000 E6.29395
G1 X53.832 Y40.000 E7.26498
G1 X54.228 Y38.016 E7.36323
G1 X55.201 Y36.566 E7.44799
G1 F1800.000 E5.44799
G92 E0
G1 X55.563 Y36.757 F6000.000
G1 E2.00000 F1800.000
G1 X55.739 Y36.507 E2.01487 F1200.000
G1 X57.401 Y35.497 E2.10930
G1 X59.000 Y35.221 E2.18806
G1 X79.000 Y35.221 E3.15910
G1 X80.904 Y35.617 E3.25353
G1 X82.493 Y36.739 E3.34796 F1200.000
G1 X83.503 Y38.401 E3.44239
G1 X83.779 Y40.000 E3.52116
G1 X83.779 Y60.000 E4.49220
G1 X83.383 Y61.904 E4.58663
G1 X82.261 Y63.493 E4.68106
G1 X80.599 Y64.503 E4.77549
G1 X79.000 Y64.779 E4.85426
G1 X59.000 Y64.779 E5.82530
G1 X57.096 Y64.383 E5.91973
G1 X55.507 Y63.261 E6.01416
G1 X54.497 Y61.599 E6.10859
G1 X54.221 Y60.000 E6.18736
G1 X54.221 Y40.000 E7.15839
G1 X54.617 Y38.096 E7.25282
G1 X55.532 Y36.800 E7.32984
G1 F1800.000 E5.32984
G92 E0
G1 X55.887 Y37.000 F6000.000
G1 E2.00000 F1800.000
G1 X56.121 Y36.687 E2.01898 F1200.000
G1 X57.755 Y35.791 E2.10944
G1 X59.000 Y35.611 E2.17051
G1 X79.000 Y35.611 E3.14155
G1 X80.821 Y36.006 E3.23201
G1 X82.313 Y37.121 E3.32247 F1200.000
G1 X83.209 Y38.755 E3.41293
G1 X83.389 Y40.000 E3.47401
G1 X83.389 Y60.000 E4.44504
G1 X82.994 Y61.821 E4.53550
G1 X81.879 Y63.313 E4.62597
G1 X80.245 Y64.209 E4.71643
G1 X79.000 Y64.389 E4.77750
G1 X59.000 Y64.389 E5.74854
G1 X57.179 Y63.994 E5.83900
G1 X55.687 Y62.879 E5.92946
G1 X54.791 Y61.245 E6.01992
G1 X54.611 Y60.000 E6.08100
G1 X54.611 Y40.000 E7.05203
G1 X55.006 Y38.179 E7.14250
G1 X55.856 Y37.042 E7.21143
G1 F1800.000 E5.21143
G92 E0
G1 X77.632 Y58.632 F6000.000
G1 E2.00000 F1800.000
G1 X60.368 Y58.632 E2.83822 F1200.000
G1 X60.368 Y41.368 E3.67644
G1 X77.632 Y41.368 E4.51466
G1 X77.632 Y58.580 E5.35032
G1 F1800.000 E3.35032
G92 E0
G1 X78.021 Y59.021 F6000.000
G1 E2.00000 F1800.000
G1 X59.979 Y59.021 E2.87602 F1200.000
G1 X59.979 Y40.979 E3.75204
G1 X78.021 Y40.979 E4.62805
G1 X78.021 Y58.969 E5.50152
G1 F1800.000 E3.50152
G92 E0
G1 X78.411 Y59.411 F6000.000
G1 E2.00000 F1800.000
G1 X59.589 Y59.411 E2.91382 F1200.000
G1 X59.589 Y40.589 E3.82763
G1 X78.411 Y40.589 E4.74145
G1 X78.411 Y59.358 E5.65272
G1 F1800.000 E3.65272
G92 E0
G1 X78.800 Y59.800 F6000.000
G1 E2.00000 F1800.000
G1 X59.200 Y59.800 E2.95162 F1200.000
G1 X59.200 Y40.200 E3.90323
G1 X78.800 Y40.200 E4.85485
G1 X78.800 Y59.748 E5.80392
G1 F1800.000 E3.80392
G92 E0
G1 X78.497 Y59.625 F6000.000
G1 X76.956 Y58.350 F6000.000
G1 E2.00000 F1800.000
G1 X77.350 Y57.515 E2.04483 F1200.000
G1 F1800.000 E0.04483
G92 E0
G1 X77.350 Y56.618 F6000.000
G1 E2.00000 F1800.000
G1 X76.527 Y58.350 E2.09309 F1200.000
G1 F1800.000 E0.09309
G92 E0
G1 X76.098 Y58.350 F6000.000
G1 E2.00000 F1800.000
G1 X77.350 Y55.736 E2.14071 F1200.000
G1 F1800.000 E0.14071
G92 E0
G1 X77.350 Y54.868 F6000.000
G1 E2.00000 F1800.000
G1 X76.545 Y56.492 E2.08798 F1200.000
G1 X75.670 Y58.350 E2.18770
G1 F1800.000 E0.18770
G92 E0
G1 X75.242 Y58.350 F6000.000
G1 E2.00000 F1800.000
G1 X76.217 Y56.278 E2.11118 F1200.000
G1 X77.350 Y54.014 E2.23412
G1 F1800.000 E0.23412
G92 E0
G1 X77.350 Y53.171 F6000.000
G1 E2.00000 F1800.000
G1 X76.010 Y55.813 E2.14381 F1200.000
G1 X74.814 Y58.350 E2.28000
G1 F1800.000 E0.28000
G92 E0
G1 X74.387 Y58.350 F6000.000
G1 E2.00000 F1800.000
G1 X75.080 Y56.850 E2.08024 F1200.000
G1 X75.756 Y55.447 E2.15584
G1 X76.453 Y54.055 E2.23144
G1 X77.350 Y52.340 E2.32539
G1 F1800.000 E0.32539
G92 E0
G1 X77.350 Y51.521 F6000.000
G1 E2.00000 F1800.000
G1 X76.510 Y53.097 E2.08674 F1200.000
G1 X75.626 Y54.832 E2.18124
G1 X74.776 Y56.582 E2.27574
G1 X73.959 Y58.350 E2.37027
G1 F1800.000 E0.37027
G92 E0
G1 X73.533 Y58.350 F6000.000
G1 E2.00000 F1800.000
G1 X74.425 Y56.415 E2.10346 F1200.000
G1 X75.275 Y54.664 E2.19796
G1 X76.339 Y52.585 E2.31135
G1 X77.350 Y50.712 E2.41469
G1 F1800.000 E0.41469
G92 E0
G1 X77.350 Y49.913 F6000.000
G1 E2.00000 F1800.000
G1 X76.117 Y52.170 E2.12487 F1200.000
G1 X75.048 Y54.246 E2.23826
G1 X74.026 Y56.347 E2.35166
G1 X73.106 Y58.350 E2.45869
G1 F1800.000 E0.45869
G92 E0
G1 X72.680 Y58.350 F6000.000
G1 E2.00000 F1800.000
G1 X73.747 Y56.026 E2.12414 F1200.000
G1 X74.948 Y53.580 E2.25644
G1 X76.213 Y51.167 E2.38873
G1 X77.350 Y49.123 E2.50229
G1 F1800.000 E0.50229
G92 E0
G1 X77.350 Y48.343 F6000.000
G1 E2.00000 F1800.000
G1 X75.889 Y50.948 E2.14498 F1200.000
G1 X74.623 Y53.360 E2.27727
G1 X73.421 Y55.806 E2.40957
G1 X72.254 Y58.350 E2.54547
G1 F1800.000 E0.54547
G92 E0
G1 X71.829 Y58.350 F6000.000
G1 E2.00000 F1800.000
G1 X73.048 Y55.685 E2.14230 F1200.000
G1 X74.425 Y52.892 E2.29349
G1 X75.886 Y50.142 E2.44468
G1 X77.350 Y47.572 E2.58829
G1 F1800.000 E0.58829
G92 E0
G1 X77.350 Y46.808 F6000.000
G1 E2.00000 F1800.000
G1 X76.408 Y48.418 E2.09054 F1200.000
G1 X75.644 Y49.775 E2.16614
G1 X74.177 Y52.522 E2.31733
G1 X72.794 Y55.312 E2.46853
G1 X72.134 Y56.722 E2.54413
G1 X71.404 Y58.350 E2.63076
G1 F1800.000 E0.63076
G92 E0
G1 X70.979 Y58.350 F6000.000
G1 E2.00000 F1800.000
G1 X71.669 Y56.801 E2.08232 F1200.000
G1 X72.326 Y55.390 E2.15792
G1 X73.003 Y53.988 E2.23352
G1 X73.880 Y52.250 E2.32801
G1 X74.604 Y50.871 E2.40361
G1 X75.538 Y49.164 E2.49811
G1 X76.504 Y47.474 E2.59261
G1 X77.350 Y46.053 E2.67290
G1 F1800.000 E0.67290
G92 E0
G1 X77.350 Y45.305 F6000.000
G1 E2.00000 F1800.000
G1 X76.352 Y46.964 E2.09398 F1200.000
G1 X75.380 Y48.650 E2.18848
G1 X74.625 Y50.012 E2.26408
G1 X73.710 Y51.730 E2.35858
G1 X73.002 Y53.117 E2.43417
G1 X72.145 Y54.864 E2.52867
G1 X71.321 Y56.627 E2.62317
G1 X70.554 Y58.350 E2.71471
G1 F1800.000 E0.71471
G92 E0
G1 X70.130 Y58.350 F6000.000
G1 E2.00000 F1800.000
G1 X70.927 Y56.554 E2.09541 F1200.000
G1 X71.749 Y54.790 E2.18991
G1 X72.604 Y53.041 E2.28440
G1 X73.491 Y51.309 E2.37890
G1 X74.411 Y49.593 E2.47340
G1 X75.362 Y47.895 E2.56790
G1 X76.344 Y46.215 E2.66239
G1 X77.350 Y44.565 E2.75621
G1 F1800.000 E0.75621
G92 E0
G1 X77.350 Y43.832 F6000.000
G1 E2.00000 F1800.000
G1 X76.282 Y45.562 E2.09870 F1200.000
G1 X75.291 Y47.237 E2.19319
G1 X74.332 Y48.931 E2.28769
G1 X73.221 Y50.985 E2.40109
G1 X72.331 Y52.716 E2.49558
G1 X71.474 Y54.463 E2.59008
G1 X70.648 Y56.226 E2.68458
G1 X69.706 Y58.350 E2.79739
G1 F1800.000 E0.79739
G92 E0
G1 X69.282 Y58.350 F6000.000
G1 E2.00000 F1800.000
G1 X70.163 Y56.353 E2.10596 F1200.000
G1 X71.151 Y54.237 E2.21936
G1 X72.185 Y52.143 E2.33275
G1 X73.082 Y50.416 E2.42725
G1 X74.201 Y48.365 E2.54065
G1 X75.167 Y46.676 E2.63514
G1 X76.165 Y45.005 E2.72964
G1 X77.350 Y43.106 E2.83830
G1 F1800.000 E0.83830
G92 E0
G1 X77.350 Y42.386 F6000.000
G1 E2.00000 F1800.000
G1 X76.196 Y44.210 E2.10481 F1200.000
G1 X74.989 Y46.210 E2.21820
G1 X73.827 Y48.236 E2.33160
G1 X72.710 Y50.287 E2.44499
G1 X71.638 Y52.362 E2.55839
G1 X70.780 Y54.109 E2.65289
G1 X69.793 Y56.226 E2.76628
G1 X68.859 Y58.350 E2.87894
G1 F1800.000 E0.87894
G92 E0
G1 X68.436 Y58.350 F6000.000
G1 E2.00000 F1800.000
G1 X69.378 Y56.200 E2.11399 F1200.000
G1 X70.362 Y54.081 E2.22738
G1 X71.392 Y51.985 E2.34078
G1 X72.468 Y49.912 E2.45418
G1 X73.590 Y47.864 E2.56757
G1 X74.756 Y45.840 E2.68097
G1 X75.966 Y43.842 E2.79436
G1 X77.350 Y41.673 E2.91931
G1 F1800.000 E0.91931
G92 E0
G1 X76.900 Y41.650 F6000.000
G1 E2.00000 F1800.000
G1 X75.678 Y43.568 E2.11042 F1200.000
G1 X74.466 Y45.565 E2.22382
G1 X73.298 Y47.587 E2.33721
G1 X72.175 Y49.635 E2.45061
G1 X71.097 Y51.707 E2.56401
G1 X70.064 Y53.802 E2.67740
G1 X69.078 Y55.919 E2.79080
G1 X68.013 Y58.350 E2.91966
G1 F1800.000 E0.91966
G92 E0
G1 X67.591 Y58.350 F6000.000
G1 E2.00000 F1800.000
G1 X68.572 Y56.093 E2.11948 F1200.000
G1 X69.551 Y53.973 E2.23287
G1 X70.576 Y51.874 E2.34627
G1 X71.647 Y49.799 E2.45967
G1 X72.763 Y47.747 E2.57306
G1 X73.923 Y45.720 E2.68646
G1 X75.127 Y43.719 E2.79985
G1 X76.436 Y41.650 E2.91869
G1 F1800.000 E0.91869
G92 E0
G1 X75.972 Y41.650 F6000.000
G1 E2.00000 F1800.000
G1 X74.723 Y43.632 E2.11373 F1200.000
G1 X73.522 Y45.635 E2.22712
G1 X72.364 Y47.663 E2.34052
G1 X71.250 Y49.716 E2.45391
G1 X70.182 Y51.793 E2.56731
G1 X69.158 Y53.892 E2.68071
G1 X68.181 Y56.014 E2.79410
G1 X67.168 Y58.350 E2.91774
G1 F1800.000 E0.91774
G92 E0
G1 X66.746 Y58.350 F6000.000
G1 E2.00000 F1800.000
G1 X67.745 Y56.034 E2.12244 F1200.000
G1 X68.719 Y53.911 E2.23584
G1 X69.738 Y51.810 E2.34923
G1 X70.802 Y49.731 E2.46263
G1 X71.912 Y47.676 E2.57603
G1 X73.065 Y45.645 E2.68942
G1 X74.262 Y43.639 E2.80282
G1 X75.509 Y41.650 E2.91680
G1 F1800.000 E0.91680
G92 E0
G1 X75.047 Y41.650 F6000.000
G1 E2.00000 F1800.000
G1 X73.744 Y43.741 E2.11962 F1200.000
G1 X72.554 Y45.751 E2.23301
G1 X71.407 Y47.785 E2.34641
G1 X70.304 Y49.844 E2.45981
G1 X69.246 Y51.926 E2.57320
G1 X68.233 Y54.031 E2.68660
G1 X67.265 Y56.156 E2.80000
G1 X66.324 Y58.350 E2.91589
G1 F1800.000 E0.91589
G92 E0
G1 X65.903 Y58.350 F6000.000
G1 E2.00000 F1800.000
G1 X66.899 Y56.023 E2.12288 F1200.000
G1 X67.865 Y53.897 E2.23627
G1 X68.878 Y51.792 E2.34967
G1 X69.935 Y49.710 E2.46307
G1 X71.037 Y47.650 E2.57646
G1 X72.182 Y45.615 E2.68986
G1 X73.371 Y43.605 E2.80325
G1 X74.585 Y41.650 E2.91497
G1 F1800.000 E0.91497
G92 E0
G1 X74.124 Y41.650 F6000.000
G1 E2.00000 F1800.000
G1 X72.942 Y43.563 E2.10919 F1200.000
G1 X71.756 Y45.575 E2.22258
G1 X70.614 Y47.612 E2.33598
G1 X69.515 Y49.673 E2.44938
G1 X68.461 Y51.757 E2.56277
G1 X67.451 Y53.864 E2.67617
G1 X66.487 Y55.991 E2.78957
G1 X65.482 Y58.350 E2.91407
G1 F1800.000 E0.91407
G92 E0
G1 X65.061 Y58.350 F6000.000
G1 E2.00000 F1800.000
G1 X66.032 Y56.060 E2.12078 F1200.000
G1 X66.991 Y53.930 E2.23418
G1 X67.996 Y51.822 E2.34758
G1 X69.045 Y49.735 E2.46097
G1 X70.138 Y47.671 E2.57437
G1 X71.275 Y45.631 E2.68777
G1 X72.456 Y43.616 E2.80116
G1 X73.664 Y41.650 E2.91319
G1 F1800.000 E0.91319
G92 E0
G1 X73.204 Y41.650 F6000.000
G1 E2.00000 F1800.000
G1 X71.914 Y43.764 E2.12023 F1200.000
G1 X70.741 Y45.783 E2.23363
G1 X69.611 Y47.827 E2.34703
G1 X68.525 Y49.895 E2.46042
G1 X67.483 Y51.985 E2.57382
G1 X66.486 Y54.097 E2.68722
G1 X65.533 Y56.230 E2.80061
G1 X64.640 Y58.350 E2.91232
G1 F1800.000 E0.91232
G92 E0
G1 X64.220 Y58.350 F6000.000
G1 E2.00000 F1800.000
G1 X65.146 Y56.144 E2.11617 F1200.000
G1 X66.097 Y54.011 E2.22956
G1 X67.093 Y51.898 E2.34296
G1 X68.133 Y49.807 E2.45635
G1 X69.217 Y47.738 E2.56975
G1 X70.345 Y45.693 E2.68315
G1 X71.515 Y43.672 E2.79654
G1 X72.745 Y41.650 E2.91145
G1 F1800.000 E0.91145
G92 E0
G1 X72.287 Y41.650 F6000.000
G1 E2.00000 F1800.000
G1 X71.061 Y43.675 E2.11495 F1200.000
G1 X69.894 Y45.699 E2.22835
G1 X68.771 Y47.746 E2.34175
G1 X67.691 Y49.817 E2.45514
G1 X66.654 Y51.910 E2.56854
G1 X65.663 Y54.025 E2.68193
G1 X64.716 Y56.160 E2.79533
G1 X63.799 Y58.350 E2.91060
G1 F1800.000 E0.91060
G92 E0
G1 X63.380 Y58.350 F6000.000
G1 E2.00000 F1800.000
G1 X64.242 Y56.277 E2.10902 F1200.000
G1 X65.183 Y54.139 E2.22241
G1 X66.169 Y52.022 E2.33581
G1 X67.199 Y49.926 E2.44921
G1 X68.273 Y47.852 E2.56260
G1 X69.391 Y45.801 E2.67600
G1 X70.551 Y43.774 E2.78940
G1 X71.829 Y41.650 E2.90976
G1 F1800.000 E0.90976
G92 E0
G1 X71.372 Y41.650 F6000.000
G1 E2.00000 F1800.000
G1 X70.183 Y43.633 E2.11225 F1200.000
G1 X69.024 Y45.660 E2.22564
G1 X67.907 Y47.711 E2.33904
G1 X66.834 Y49.786 E2.45244
G1 X65.804 Y51.882 E2.56583
G1 X64.819 Y54.000 E2.67923
G1 X63.878 Y56.137 E2.79262
G1 X62.960 Y58.350 E2.90893
G1 F1800.000 E0.90893
G92 E0
G1 X62.540 Y58.350 F6000.000
G1 E2.00000 F1800.000
G1 X63.471 Y56.099 E2.11824 F1200.000
G1 X64.409 Y53.961 E2.23164
G1 X65.392 Y51.842 E2.34504
G1 X66.419 Y49.744 E2.45843
G1 X67.489 Y47.668 E2.57183
G1 X68.603 Y45.615 E2.68523
G1 X69.759 Y43.586 E2.79862
G1 X70.916 Y41.650 E2.90812
G1 F1800.000 E0.90812
G92 E0
G1 X70.460 Y41.650 F6000.000
G1 E2.00000 F1800.000
G1 X69.280 Y43.635 E2.11211 F1200.000
G1 X68.129 Y45.667 E2.22551
G1 X67.021 Y47.723 E2.33890
G1 X65.955 Y49.801 E2.45230
G1 X64.933 Y51.901 E2.56570
G1 X63.955 Y54.022 E2.67909
G1 X63.021 Y56.163 E2.79249
G1 X62.121 Y58.350 E2.90731
G1 F1800.000 E0.90731
G92 E0
G1 X61.702 Y58.350 F6000.000
G1 E2.00000 F1800.000
G1 X62.529 Y56.328 E2.10604 F1200.000
G1 X63.456 Y54.185 E2.21944
G1 X64.427 Y52.061 E2.33284
G1 X65.442 Y49.957 E2.44623
G1 X66.501 Y47.875 E2.55963
G1 X67.603 Y45.816 E2.67303
G1 X68.747 Y43.780 E2.78642
G1 X70.005 Y41.650 E2.90652
G1 F1800.000 E0.90652
G92 E0
G1 X69.550 Y41.650 F6000.000
G1 E2.00000 F1800.000
G1 X68.354 Y43.683 E2.11454 F1200.000
G1 X67.211 Y45.721 E2.22794
G1 X66.111 Y47.781 E2.34133
G1 X65.054 Y49.864 E2.45473
G1 X64.041 Y51.968 E2.56813
G1 X63.071 Y54.092 E2.68152
G1 X62.145 Y56.237 E2.79492
G1 X61.283 Y58.350 E2.90573
G1 F1800.000 E0.90573
G92 E0
G1 X60.865 Y58.350 F6000.000
G1 E2.00000 F1800.000
G1 X61.719 Y56.247 E2.11022 F1200.000
G1 X62.641 Y54.101 E2.22362
G1 X63.608 Y51.975 E2.33701
G1 X64.618 Y49.869 E2.45041
G1 X65.671 Y47.784 E2.56381
G1 X66.767 Y45.722 E2.67720
G1 X67.905 Y43.682 E2.79060
G1 X69.096 Y41.650 E2.90495
G1 F1800.000 E0.90495
G92 E0
G1 X68.642 Y41.650 F6000.000
G1 E2.00000 F1800.000
G1 X67.596 Y43.439 E2.10064 F1200.000
