; generated by Slic3r 1.1.7 on 2015-05-30 at 02:21:26

; Profile for Sharebot !

; perimeters extrusion width = 0.40mm
; infill extrusion width = 0.70mm
; solid infill extrusion width = 0.50mm
; top infill extrusion width = 0.40mm
; support material extrusion width = 0.40mm

G21 ; set units to millimeters
M107
;M99 Y0.5 (X Y Z BACKSLASH)
G28 ;Home all axis
T0
M106 S127 ;EXTRUDER FAN ON
G1 Z10 F1000
G1 X200 Y200 F3000
M104 S 0
M109 S 0
G92 E0
G90 ; use absolute coordinates
G92 E0
M82 ; use absolute distances for extrusion
G1 Z0.300 F18000.000
G1 F1800.000 E-3.00000
G92 E0
G1 X15.639 Y0.000 F18000.000
G1 E3.00000 F1800.000
G1 X15.639 Y10.000 E3.68144 F1200.000
G1 X15.243 Y12.077 E3.82553
G1 X14.109 Y13.862 E3.96962
G1 X12.398 Y15.104 E4.11371
G1 X10.000 Y15.639 E4.28111
G1 X-10.000 Y15.639 E5.64399
G1 X-12.077 Y15.243 E5.78808
G1 X-13.862 Y14.109 E5.93217
G1 X-15.104 Y12.398 E6.07626
G1 X-15.639 Y10.000 E6.24367
G1 X-15.639 Y-10.000 E7.60654
G1 X-15.243 Y-12.077 E7.75063
G1 X-14.109 Y-13.862 E7.89472
G1 X-12.398 Y-15.104 E8.03882
G1 X-10.000 Y-15.639 E8.20622
G1 X10.000 Y-15.639 E9.56909
G1 X12.077 Y-15.243 E9.71318
G1 X13.862 Y-14.109 E9.85728 F1200.000
G1 X15.104 Y-12.398 E10.00137
G1 X15.639 Y-10.000 E10.16877
G1 X15.639 Y-0.052 E10.84663
G1 F1800.000 E7.84663
G92 E0
G1 X15.093 Y0.000 F18000.000
G1 E3.00000 F1800.000
G1 X15.093 Y10.000 E3.68144 F1200.000
G1 X14.697 Y11.969 E3.81831
G1 X13.570 Y13.632 E3.95517
G1 X11.888 Y14.730 E4.09204
G1 X10.000 Y15.093 E4.22306
G1 X-10.000 Y15.093 E5.58593
G1 X-11.969 Y14.697 E5.72280
G1 X-13.632 Y13.570 E5.85967
G1 X-14.730 Y11.888 E5.99654
G1 X-15.093 Y10.000 E6.12756
G1 X-15.093 Y-10.000 E7.49043
G1 X-14.697 Y-11.969 E7.62730
G1 X-13.570 Y-13.632 E7.76417
G1 X-11.888 Y-14.730 E7.90104
G1 X-10.000 Y-15.093 E8.03205
G1 X10.000 Y-15.093 E9.39493
G1 X11.969 Y-14.697 E9.53180
G1 X13.632 Y-13.570 E9.66866 F1200.000
G1 X14.730 Y-11.888 E9.80553
G1 X15.093 Y-10.000 E9.93655
G1 X15.093 Y-0.052 E10.61441
G1 F1800.000 E7.61441
G92 E0
G1 X14.546 Y0.000 F18000.000
G1 E3.00000 F1800.000
G1 X14.546 Y10.000 E3.68144 F1200.000
G1 X14.151 Y11.855 E3.81068
G1 X13.033 Y13.387 E3.93992
G1 X11.387 Y14.330 E4.06916
G1 X10.000 Y14.546 E4.16483
G1 X-10.000 Y14.546 E5.52770
G1 X-11.855 Y14.151 E5.65694
G1 X-13.387 Y13.033 E5.78618
G1 X-14.330 Y11.387 E5.91542
G1 X-14.546 Y10.000 E6.01109
G1 X-14.546 Y-10.000 E7.37396
G1 X-14.151 Y-11.855 E7.50320
G1 X-13.033 Y-13.387 E7.63245
G1 X-11.387 Y-14.330 E7.76169
G1 X-10.000 Y-14.546 E7.85735
G1 X10.000 Y-14.546 E9.22023
G1 X11.855 Y-14.151 E9.34947
G1 X13.387 Y-13.033 E9.47871 F1200.000
G1 X14.330 Y-11.387 E9.60795
G1 X14.546 Y-10.000 E9.70362
G1 X14.546 Y-0.052 E10.38148
G1 F1800.000 E7.38148
G92 E0
G1 X-9.700 Y-9.700 F18000.000
G1 E3.00000 F1800.000
G1 X9.700 Y-9.700 E4.32199 F1200.000
G1 X9.700 Y9.700 E5.64398
G1 X-9.700 Y9.700 E6.96596
G1 X-9.700 Y-9.648 E8.28438
G1 F1800.000 E5.28438
G92 E0
G1 X-9.284 Y9.324 F18000.000
G1 E3.00000 F1800.000
G1 X-9.324 Y9.284 E3.00385 F1200.000
G1 X-9.324 Y8.509 E3.05669
G1 X-8.509 Y9.324 E3.13526
G1 X-7.733 Y9.324 E3.18809
G1 X-9.324 Y7.733 E3.34139
G1 X-9.324 Y6.958 E3.39422
G1 X-6.958 Y9.324 E3.62223
G1 X-6.183 Y9.324 E3.67506
G1 X-9.324 Y6.183 E3.97779
G1 X-9.324 Y5.407 E4.03062
G1 X-5.407 Y9.324 E4.40807
G1 X-4.632 Y9.324 E4.46090
G1 X-9.324 Y4.632 E4.91306
G1 X-9.324 Y3.857 E4.96590
G1 X-3.857 Y9.324 E5.49278
G1 X-3.081 Y9.324 E5.54561
G1 X-9.324 Y3.081 E6.14721
G1 X-9.324 Y2.306 E6.20004
G1 X-2.306 Y9.324 E6.87636
G1 X-1.531 Y9.324 E6.92920
G1 X-9.324 Y1.531 E7.68023
G1 X-9.324 Y0.755 E7.73306
G1 X-0.755 Y9.324 E8.55882
G1 X0.020 Y9.324 E8.61165
G1 X-9.324 Y-0.020 E9.51212
G1 X-9.324 Y-0.795 E9.56496
G1 X0.795 Y9.324 E10.54015
G1 X1.571 Y9.324 E10.59298
G1 X-9.324 Y-1.571 E11.64289
G1 X-9.324 Y-2.346 E11.69572
G1 X2.346 Y9.324 E12.82035
G1 X3.121 Y9.324 E12.87318
G1 X-9.324 Y-3.121 E14.07252
G1 X-9.324 Y-3.897 E14.12536
G1 X3.897 Y9.324 E15.39942
G1 X4.672 Y9.324 E15.45225
G1 X-9.324 Y-4.672 E16.80103
G1 X-9.324 Y-5.447 E16.85386
G1 X5.447 Y9.324 E18.27736
G1 X6.223 Y9.324 E18.33020
G1 X-9.324 Y-6.223 E19.82841
G1 X-9.324 Y-6.998 E19.88124
G1 X6.998 Y9.324 E21.45418
G1 X7.773 Y9.324 E21.50701
G1 X-9.324 Y-7.773 E23.15466
G1 X-9.324 Y-8.549 E23.20750
G1 X8.549 Y9.324 E24.92987
G1 X9.304 Y9.304 E24.98135
G1 X-9.304 Y-9.304 E26.77459
G1 X-8.549 Y-9.324 E26.82608
G1 X9.324 Y8.549 E28.54845
G1 X9.324 Y7.773 E28.60128
G1 X-7.773 Y-9.324 E30.24893
G1 X-6.998 Y-9.324 E30.30177
G1 X9.324 Y6.998 E31.87470
G1 X9.324 Y6.223 E31.92753
G1 X-6.223 Y-9.324 E33.42575
G1 X-5.447 Y-9.324 E33.47858
G1 X9.324 Y5.447 E34.90208
G1 X9.324 Y4.672 E34.95491
G1 X-4.672 Y-9.324 E36.30369
G1 X-3.897 Y-9.324 E36.35653
G1 X9.324 Y3.897 E37.63059
G1 X9.324 Y3.121 E37.68342
G1 X-3.121 Y-9.324 E38.88276
G1 X-2.346 Y-9.324 E38.93560
G1 X9.324 Y2.346 E40.06022
G1 X9.324 Y1.571 E40.11306
G1 X-1.571 Y-9.324 E41.16296
G1 X-0.795 Y-9.324 E41.21580
G1 X9.324 Y0.795 E42.19099
G1 X9.324 Y0.020 E42.24382
G1 X-0.020 Y-9.324 E43.14429
G1 X0.755 Y-9.324 E43.19713
G1 X9.324 Y-0.755 E44.02288
G1 X9.324 Y-1.531 E44.07571
G1 X1.531 Y-9.324 E44.82675
G1 X2.306 Y-9.324 E44.87958
G1 X9.324 Y-2.306 E45.55590
G1 X9.324 Y-3.081 E45.60873
G1 X3.081 Y-9.324 E46.21033
G1 X3.857 Y-9.324 E46.26316
G1 X9.324 Y-3.857 E46.79005
G1 X9.324 Y-4.632 E46.84288
G1 X4.632 Y-9.324 E47.29504
G1 X5.407 Y-9.324 E47.34788
G1 X9.324 Y-5.407 E47.72532
G1 X9.324 Y-6.183 E47.77815
G1 X6.183 Y-9.324 E48.08088
G1 X6.958 Y-9.324 E48.13372
G1 X9.324 Y-6.958 E48.36172
G1 X9.324 Y-7.733 E48.41456
G1 X7.733 Y-9.324 E48.56785
G1 X8.509 Y-9.324 E48.62068
G1 X9.324 Y-8.509 E48.69926
G1 X9.324 Y-9.284 E48.75209
G1 X9.284 Y-9.324 E48.75594
G1 Z0.400 F18000.000
G1 F1800.000 E45.75594
G92 E0
G1 X-9.800 Y-9.800 F18000.000
G1 E3.00000 F1800.000
G1 X9.800 Y-9.800 E3.31721 F900.000
G1 X9.800 Y9.800 E3.63441
G1 X-9.800 Y9.800 E3.95162
G1 X-9.800 Y-9.748 E4.26797
M106 S255
G1 Z0.500 F18000.000
G1 F1800.000 E1.26797
G92 E0
G1 X-9.800 Y-9.800 F18000.000
G1 E3.00000 F1800.000
G1 X9.800 Y-9.800 E3.31721 F900.000
G1 X9.800 Y9.800 E3.63441
G1 X-9.800 Y9.800 E3.95162
G1 X-9.800 Y-9.748 E4.26797
G1 Z0.600 F18000.000
G1 F1800.000 E1.26797
G92 E0
G1 X-9.800 Y-9.800 F18000.000
G1 E3.00000 F1800.000
G1 X9.800 Y-9.800 E3.31721 F900.000
G1 X9.800 Y9.800 E3.63441
G1 X-9.800 Y9.800 E3.95162
G1 X-9.800 Y-9.748 E4.26797
G1 Z0.700 F18000.000
G1 F1800.000 E1.26797
G92 E0
G1 X-9.800 Y-9.800 F18000.000
G1 E3.00000 F1800.000
G1 X9.800 Y-9.800 E3.31721 F900.000
G1 X9.800 Y9.800 E3.63441
G1 X-9.800 Y9.800 E3.95162
G1 X-9.800 Y-9.748 E4.26797
G1 Z0.800 F18000.000
G1 F1800.000 E1.26797
G92 E0
G1 X-9.800 Y-9.800 F18000.000
G1 E3.00000 F1800.000
G1 X9.800 Y-9.800 E3.31721 F900.000
G1 X9.800 Y9.800 E3.63441
G1 X-9.800 Y9.800 E3.95162
G1 X-9.800 Y-9.748 E4.26797
G1 Z0.900 F18000.000
G1 F1800.000 E1.26797
G92 E0
G1 X-9.800 Y-9.800 F18000.000
G1 E3.00000 F1800.000
G1 X9.800 Y-9.800 E3.31721 F900.000
G1 X9.800 Y9.800 E3.63441
G1 X-9.800 Y9.800 E3.95162
G1 X-9.800 Y-9.748 E4.26797
G1 Z1.000 F18000.000
G1 F1800.000 E1.26797
G92 E0
G1 X-9.800 Y-9.800 F18000.000
G1 E3.00000 F1800.000
G1 X9.800 Y-9.800 E3.31721 F900.000
G1 X9.800 Y9.800 E3.63441
G1 X-9.800 Y9.800 E3.95162
G1 X-9.800 Y-9.748 E4.26797
G1 Z1.100 F18000.000
G1 F1800.000 E1.26797
G92 E0
G1 X-9.800 Y-9.800 F18000.000
G1 E3.00000 F1800.000
G1 X9.800 Y-9.800 E3.31721 F900.000
G1 X9.800 Y9.800 E3.63441
G1 X-9.800 Y9.800 E3.95162
G1 X-9.800 Y-9.748 E4.26797
G1 Z1.200 F18000.000
G1 F1800.000 E1.26797
G92 E0
G1 X-9.800 Y-9.800 F18000.000
G1 E3.00000 F1800.000
G1 X9.800 Y-9.800 E3.31721 F900.000
G1 X9.800 Y9.800 E3.63441
G1 X-9.800 Y9.800 E3.95162
G1 X-9.800 Y-9.748 E4.26797
G1 Z1.300 F18000.000
G1 F1800.000 E1.26797
G92 E0
G1 X-9.800 Y-9.800 F18000.000
G1 E3.00000 F1800.000
G1 X9.800 Y-9.800 E3.31721 F900.000
G1 X9.800 Y9.800 E3.63441
G1 X-9.800 Y9.800 E3.95162
G1 X-9.800 Y-9.748 E4.26797
G1 Z1.400 F18000.000
G1 F1800.000 E1.26797
G92 E0
G1 X-9.800 Y-9.800 F18000.000
G1 E3.00000 F1800.000
G1 X9.800 Y-9.800 E3.31721 F900.000
G1 X9.800 Y9.800 E3.63441
G1 X-9.800 Y9.800 E3.95162
G1 X-9.800 Y-9.748 E4.26797
G1 Z1.500 F18000.000
G1 F1800.000 E1.26797
G92 E0
G1 X-9.800 Y-9.800 F18000.000
G1 E3.00000 F1800.000
G1 X9.800 Y-9.800 E3.31721 F900.000
G1 X9.800 Y9.800 E3.63441
G1 X-9.800 Y9.800 E3.95162
G1 X-9.800 Y-9.748 E4.26797
G1 Z1.600 F18000.000
G1 F1800.000 E1.26797
G92 E0
G1 X-9.800 Y-9.800 F18000.000
G1 E3.00000 F1800.000
G1 X9.800 Y-9.800 E3.31721 F900.000
G1 X9.800 Y9.800 E3.63441
G1 X-9.800 Y9.800 E3.95162
G1 X-9.800 Y-9.748 E4.26797
G1 Z1.700 F18000.000
G1 F1800.000 E1.26797
G92 E0
G1 X-9.800 Y-9.800 F18000.000
G1 E3.00000 F1800.000
G1 X9.800 Y-9.800 E3.31721 F900.000
G1 X9.800 Y9.800 E3.63441
G1 X-9.800 Y9.800 E3.95162
G1 X-9.800 Y-9.748 E4.26797
G1 Z1.800 F18000.000
G1 F1800.000 E1.26797
G92 E0
G1 X-9.800 Y-9.800 F18000.000
G1 E3.00000 F1800.000
G1 X9.800 Y-9.800 E3.31721 F900.000
G1 X9.800 Y9.800 E3.63441
G1 X-9.800 Y9.800 E3.95162
G1 X-9.800 Y-9.748 E4.26797
G1 Z1.900 F18000.000
G1 F1800.000 E1.26797
G92 E0
G1 X-9.800 Y-9.800 F18000.000
G1 E3.00000 F1800.000
G1 X9.800 Y-9.800 E3.31721 F900.000
G1 X9.800 Y9.800 E3.63441
G1 X-9.800 Y9.800 E3.95162
G1 X-9.800 Y-9.748 E4.26797
G1 Z2.000 F18000.000
G1 F1800.000 E1.26797
G92 E0
G1 X-9.800 Y-9.800 F18000.000
G1 E3.00000 F1800.000
G1 X9.800 Y-9.800 E3.31721 F900.000
G1 X9.800 Y9.800 E3.63441
G1 X-9.800 Y9.800 E3.95162
G1 X-9.800 Y-9.748 E4.26797
G1 Z2.100 F18000.000
G1 F1800.000 E1.26797
G92 E0
G1 X-9.800 Y-9.800 F18000.000
G1 E3.00000 F1800.000
G1 X9.800 Y-9.800 E3.31721 F900.000
G1 X9.800 Y9.800 E3.63441
G1 X-9.800 Y9.800 E3.95162
G1 X-9.800 Y-9.748 E4.26797
G1 Z2.200 F18000.000
G1 F1800.000 E1.26797
G92 E0
G1 X-9.800 Y-9.800 F18000.000
G1 E3.00000 F1800.000
G1 X9.800 Y-9.800 E3.31721 F900.000
G1 X9.800 Y9.800 E3.63441
G1 X-9.800 Y9.800 E3.95162
G1 X-9.800 Y-9.748 E4.26797
G1 Z2.300 F18000.000
G1 F1800.000 E1.26797
G92 E0
G1 X-9.800 Y-9.800 F18000.000
G1 E3.00000 F1800.000
G1 X9.800 Y-9.800 E3.31721 F900.000
G1 X9.800 Y9.800 E3.63441
G1 X-9.800 Y9.800 E3.95162
G1 X-9.800 Y-9.748 E4.26797
G1 Z2.400 F18000.000
G1 F1800.000 E1.26797
G92 E0
G1 X-9.800 Y-9.800 F18000.000
G1 E3.00000 F1800.000
G1 X9.800 Y-9.800 E3.31721 F900.000
G1 X9.800 Y9.800 E3.63441
G1 X-9.800 Y9.800 E3.95162
G1 X-9.800 Y-9.748 E4.26797
G1 Z2.500 F18000.000
G1 F1800.000 E1.26797
G92 E0
G1 X-9.800 Y-9.800 F18000.000
G1 E3.00000 F1800.000
G1 X9.800 Y-9.800 E3.31721 F900.000
G1 X9.800 Y9.800 E3.63441
G1 X-9.800 Y9.800 E3.95162
G1 X-9.800 Y-9.748 E4.26797
G1 Z2.600 F18000.000
G1 F1800.000 E1.26797
G92 E0
G1 X-9.800 Y-9.800 F18000.000
G1 E3.00000 F1800.000
G1 X9.800 Y-9.800 E3.31721 F900.000
G1 X9.800 Y9.800 E3.63441
G1 X-9.800 Y9.800 E3.95162
G1 X-9.800 Y-9.748 E4.26797
G1 Z2.700 F18000.000
G1 F1800.000 E1.26797
G92 E0
G1 X-9.800 Y-9.800 F18000.000
G1 E3.00000 F1800.000
G1 X9.800 Y-9.800 E3.31721 F900.000
G1 X9.800 Y9.800 E3.63441
G1 X-9.800 Y9.800 E3.95162
G1 X-9.800 Y-9.748 E4.26797
G1 Z2.800 F18000.000
G1 F1800.000 E1.26797
G92 E0
G1 X-9.800 Y-9.800 F18000.000
G1 E3.00000 F1800.000
G1 X9.800 Y-9.800 E3.31721 F900.000
G1 X9.800 Y9.800 E3.63441
G1 X-9.800 Y9.800 E3.95162
G1 X-9.800 Y-9.748 E4.26797
G1 Z2.900 F18000.000
G1 F1800.000 E1.26797
G92 E0
G1 X-9.800 Y-9.800 F18000.000
G1 E3.00000 F1800.000
G1 X9.800 Y-9.800 E3.31721 F900.000
G1 X9.800 Y9.800 E3.63441
G1 X-9.800 Y9.800 E3.95162
G1 X-9.800 Y-9.748 E4.26797
G1 Z3.000 F18000.000
G1 F1800.000 E1.26797
G92 E0
G1 X-9.800 Y-9.800 F18000.000
G1 E3.00000 F1800.000
G1 X9.800 Y-9.800 E3.31721 F900.000
G1 X9.800 Y9.800 E3.63441
G1 X-9.800 Y9.800 E3.95162
G1 X-9.800 Y-9.748 E4.26797
G1 Z3.100 F18000.000
G1 F1800.000 E1.26797
G92 E0
G1 X-9.800 Y-9.800 F18000.000
G1 E3.00000 F1800.000
G1 X9.800 Y-9.800 E3.31721 F900.000
G1 X9.800 Y9.800 E3.63441
G1 X-9.800 Y9.800 E3.95162
G1 X-9.800 Y-9.748 E4.26797
G1 Z3.200 F18000.000
G1 F1800.000 E1.26797
G92 E0
G1 X-9.800 Y-9.800 F18000.000
G1 E3.00000 F1800.000
G1 X9.800 Y-9.800 E3.31721 F900.000
G1 X9.800 Y9.800 E3.63441
G1 X-9.800 Y9.800 E3.95162
G1 X-9.800 Y-9.748 E4.26797
G1 Z3.300 F18000.000
G1 F1800.000 E1.26797
G92 E0
G1 X-9.800 Y-9.800 F18000.000
G1 E3.00000 F1800.000
G1 X9.800 Y-9.800 E3.31721 F900.000
G1 X9.800 Y9.800 E3.63441
G1 X-9.800 Y9.800 E3.95162
G1 X-9.800 Y-9.748 E4.26797
G1 Z3.400 F18000.000
G1 F1800.000 E1.26797
G92 E0
G1 X-9.800 Y-9.800 F18000.000
G1 E3.00000 F1800.000
G1 X9.800 Y-9.800 E3.31721 F900.000
G1 X9.800 Y9.800 E3.63441
G1 X-9.800 Y9.800 E3.95162
G1 X-9.800 Y-9.748 E4.26797
G1 Z3.500 F18000.000
G1 F1800.000 E1.26797
G92 E0
G1 X-9.800 Y-9.800 F18000.000
G1 E3.00000 F1800.000
G1 X9.800 Y-9.800 E3.31721 F900.000
G1 X9.800 Y9.800 E3.63441
G1 X-9.800 Y9.800 E3.95162
G1 X-9.800 Y-9.748 E4.26797
G1 Z3.600 F18000.000
G1 F1800.000 E1.26797
G92 E0
G1 X-9.800 Y-9.800 F18000.000
G1 E3.00000 F1800.000
G1 X9.800 Y-9.800 E3.31721 F900.000
G1 X9.800 Y9.800 E3.63441
G1 X-9.800 Y9.800 E3.95162
G1 X-9.800 Y-9.748 E4.26797
G1 Z3.700 F18000.000
G1 F1800.000 E1.26797
G92 E0
G1 X-9.800 Y-9.800 F18000.000
G1 E3.00000 F1800.000
G1 X9.800 Y-9.800 E3.31721 F900.000
G1 X9.800 Y9.800 E3.63441
G1 X-9.800 Y9.800 E3.95162
G1 X-9.800 Y-9.748 E4.26797
G1 Z3.800 F18000.000
G1 F1800.000 E1.26797
G92 E0
G1 X-9.800 Y-9.800 F18000.000
G1 E3.00000 F1800.000
G1 X9.800 Y-9.800 E3.31721 F900.000
G1 X9.800 Y9.800 E3.63441
G1 X-9.800 Y9.800 E3.95162
G1 X-9.800 Y-9.748 E4.26797
G1 Z3.900 F18000.000
G1 F1800.000 E1.26797
G92 E0
G1 X-9.800 Y-9.800 F18000.000
G1 E3.00000 F1800.000
G1 X9.800 Y-9.800 E3.31721 F900.000
G1 X9.800 Y9.800 E3.63441
G1 X-9.800 Y9.800 E3.95162
G1 X-9.800 Y-9.748 E4.26797
G1 Z4.000 F18000.000
G1 F1800.000 E1.26797
G92 E0
G1 X-9.800 Y-9.800 F18000.000
G1 E3.00000 F1800.000
G1 X9.800 Y-9.800 E3.31721 F900.000
G1 X9.800 Y9.800 E3.63441
G1 X-9.800 Y9.800 E3.95162
G1 X-9.800 Y-9.748 E4.26797
G1 Z4.100 F18000.000
G1 F1800.000 E1.26797
G92 E0
G1 X-9.800 Y-9.800 F18000.000
G1 E3.00000 F1800.000
G1 X9.800 Y-9.800 E3.31721 F900.000
G1 X9.800 Y9.800 E3.63441
G1 X-9.800 Y9.800 E3.95162
G1 X-9.800 Y-9.748 E4.26797
G1 Z4.200 F18000.000
G1 F1800.000 E1.26797
G92 E0
G1 X-9.800 Y-9.800 F18000.000
G1 E3.00000 F1800.000
G1 X9.800 Y-9.800 E3.31721 F900.000
G1 X9.800 Y9.800 E3.63441
G1 X-9.800 Y9.800 E3.95162
G1 X-9.800 Y-9.748 E4.26797
G1 Z4.300 F18000.000
G1 F1800.000 E1.26797
G92 E0
G1 X-9.800 Y-9.800 F18000.000
G1 E3.00000 F1800.000
G1 X9.800 Y-9.800 E3.31721 F900.000
G1 X9.800 Y9.800 E3.63441
G1 X-9.800 Y9.800 E3.95162
G1 X-9.800 Y-9.748 E4.26797
G1 Z4.400 F18000.000
G1 F1800.000 E1.26797
G92 E0
G1 X-9.800 Y-9.800 F18000.000
G1 E3.00000 F1800.000
G1 X9.800 Y-9.800 E3.31721 F900.000
G1 X9.800 Y9.800 E3.63441
G1 X-9.800 Y9.800 E3.95162
G1 X-9.800 Y-9.748 E4.26797
G1 Z4.500 F18000.000
G1 F1800.000 E1.26797
G92 E0
G1 X-9.800 Y-9.800 F18000.000
G1 E3.00000 F1800.000
G1 X9.800 Y-9.800 E3.31721 F900.000
G1 X9.800 Y9.800 E3.63441
G1 X-9.800 Y9.800 E3.95162
G1 X-9.800 Y-9.748 E4.26797
G1 Z4.600 F18000.000
G1 F1800.000 E1.26797
G92 E0
G1 X-9.800 Y-9.800 F18000.000
G1 E3.00000 F1800.000
G1 X9.800 Y-9.800 E3.31721 F900.000
G1 X9.800 Y9.800 E3.63441
G1 X-9.800 Y9.800 E3.95162
G1 X-9.800 Y-9.748 E4.26797
G1 Z4.700 F18000.000
G1 F1800.000 E1.26797
G92 E0
G1 X-9.800 Y-9.800 F18000.000
G1 E3.00000 F1800.000
G1 X9.800 Y-9.800 E3.31721 F900.000
G1 X9.800 Y9.800 E3.63441
G1 X-9.800 Y9.800 E3.95162
G1 X-9.800 Y-9.748 E4.26797
G1 Z4.800 F18000.000
G1 F1800.000 E1.26797
G92 E0
G1 X-9.800 Y-9.800 F18000.000
G1 E3.00000 F1800.000
G1 X9.800 Y-9.800 E3.31721 F900.000
G1 X9.800 Y9.800 E3.63441
G1 X-9.800 Y9.800 E3.95162
G1 X-9.800 Y-9.748 E4.26797
G1 Z4.900 F18000.000
G1 F1800.000 E1.26797
G92 E0
G1 X-9.800 Y-9.800 F18000.000
G1 E3.00000 F1800.000
G1 X9.800 Y-9.800 E3.31721 F900.000
G1 X9.800 Y9.800 E3.63441
G1 X-9.800 Y9.800 E3.95162
G1 X-9.800 Y-9.748 E4.26797
G1 Z5.000 F18000.000
G1 F1800.000 E1.26797
G92 E0
G1 X-9.800 Y-9.800 F18000.000
G1 E3.00000 F1800.000
G1 X9.800 Y-9.800 E3.31721 F900.000
G1 X9.800 Y9.800 E3.63441
G1 X-9.800 Y9.800 E3.95162
G1 X-9.800 Y-9.748 E4.26797
G1 Z5.100 F18000.000
