; generated by Slic3r 1.1.7 on 2015-05-30 at 02:24:18

; Profile for Sharebot !

; perimeters extrusion width = 0.40mm
; infill extrusion width = 0.70mm
; solid infill extrusion width = 0.50mm
; top infill extrusion width = 0.40mm
; support material extrusion width = 0.40mm

G21 ; set units to millimeters
M107
;M99 Y0.5 (X Y Z BACKSLASH)
G28 ;Home all axis
T0
M106 S127 ;EXTRUDER FAN ON
G1 Z10 F1000
G1 X200 Y200 F3000
M104 S 0
M109 S 0
G92 E0
G90 ; use absolute coordinates
G92 E0
M82 ; use absolute distances for extrusion
G1 Z0.300 F18000.000
G1 F1800.000 E-3.00000
G92 E0
G1 X20.871 Y-11.822 F18000.000
G1 E3.00000 F1800.000
G1 X34.230 Y11.761 E4.84696 F1200.000
G1 X34.662 Y12.633 E4.91327
G1 X35.037 Y13.651 E4.98720
G1 X35.220 Y14.736 E5.06223
G1 X35.276 Y15.649 E5.12452
G1 X35.183 Y16.977 E5.21530
G1 X34.837 Y18.209 E5.30245
G1 X34.387 Y19.299 E5.38286
G1 X33.838 Y20.295 E5.46035
G1 X32.583 Y21.982 E5.60360
G1 X31.574 Y23.016 E5.70207
G1 X29.525 Y24.776 E5.88612
G1 X27.547 Y26.168 E6.05097
G1 X23.314 Y28.586 E6.38316
G1 X19.435 Y30.162 E6.66842
G1 X18.538 Y30.505 E6.73388
G1 X17.033 Y31.014 E6.84218
G1 X16.333 Y31.215 E6.89175
G1 X14.034 Y31.726 E7.05224
G1 X9.531 Y32.207 E7.36083
G1 X8.545 Y32.247 E7.42807
G1 X-7.215 Y32.446 E8.50214
G1 X-8.439 Y32.453 E8.58556
G1 X-9.621 Y32.423 E8.66608
G1 X-10.635 Y32.341 E8.73546
G1 X-14.447 Y31.973 E8.99643
G1 X-16.388 Y31.550 E9.13175
G1 X-17.026 Y31.373 E9.17689
G1 X-18.550 Y30.890 E9.28583
G1 X-19.327 Y30.609 E9.34216
G1 X-23.832 Y28.850 E9.67171
G1 X-27.861 Y26.596 E9.98631
G1 X-29.861 Y25.207 E10.15224
G1 X-31.922 Y23.462 E10.33623
G1 X-33.063 Y22.241 E10.45013
G1 X-33.891 Y21.130 E10.54453
G1 X-34.467 Y20.144 E10.62238
G1 X-35.250 Y18.144 E10.76873
G1 X-35.319 Y17.842 E10.78983
G1 X-35.445 Y16.522 E10.88022
G1 X-35.291 Y14.671 E11.00673
G1 X-35.256 Y14.516 E11.01759
G1 X-34.903 Y13.482 E11.09204
G1 X-34.368 Y12.352 E11.17722
G1 X-13.479 Y-26.707 E14.19558
G1 X-12.756 Y-27.807 E14.28530
G1 X-11.939 Y-28.839 E14.37499
G1 X-11.036 Y-29.797 E14.46470
G1 X-10.052 Y-30.672 E14.55440
G1 X-8.996 Y-31.457 E14.64410
G1 X-7.875 Y-32.148 E14.73381
G1 X-6.699 Y-32.739 E14.82351
G1 X-5.475 Y-33.225 E14.91322
G1 X-4.214 Y-33.602 E15.00292
G1 X-2.925 Y-33.868 E15.09262
G1 X-1.618 Y-34.021 E15.18233
G1 X-0.302 Y-34.059 E15.27203
G1 X1.012 Y-33.982 E15.36173
G1 X2.315 Y-33.791 E15.45144 F1200.000
G1 X3.596 Y-33.487 E15.54114
G1 X4.845 Y-33.073 E15.63084
G1 X6.054 Y-32.551 E15.72055
G1 X7.212 Y-31.926 E15.81025
G1 X8.312 Y-31.203 E15.89996
G1 X9.345 Y-30.386 E15.98966
G1 X10.302 Y-29.482 E16.07937
G1 X11.177 Y-28.499 E16.16906
G1 X11.963 Y-27.443 E16.25877
G1 X12.567 Y-26.482 E16.33614
G1 X20.845 Y-11.868 E17.48062
G1 F1800.000 E14.48062
G92 E0
G1 X20.396 Y-11.553 F18000.000
G1 E3.00000 F1800.000
G1 X33.740 Y12.003 E4.84490 F1200.000
G1 X34.172 Y12.875 E4.91121
G1 X34.507 Y13.784 E4.97720
G1 X34.675 Y14.770 E5.04534
G1 X34.731 Y15.682 E5.10764
G1 X34.648 Y16.868 E5.18867
G1 X34.333 Y18.000 E5.26874
G1 X33.882 Y19.091 E5.34914
G1 X33.392 Y19.980 E5.41832
G1 X32.185 Y21.607 E5.55633
G1 X31.214 Y22.605 E5.65124
G1 X29.206 Y24.332 E5.83173
G1 X27.271 Y25.697 E5.99312
G1 X23.108 Y28.080 E6.31998
G1 X19.237 Y29.653 E6.60467
G1 X18.362 Y29.988 E6.66856
G1 X16.877 Y30.491 E6.77537
G1 X16.206 Y30.683 E6.82298
G1 X13.974 Y31.183 E6.97880
G1 X9.508 Y31.661 E7.28486
G1 X8.536 Y31.701 E7.35118
G1 X-7.219 Y31.900 E8.42487
G1 X-8.430 Y31.907 E8.50737
G1 X-9.577 Y31.878 E8.58556
G1 X-14.333 Y31.439 E8.91104
G1 X-16.245 Y31.023 E9.04438
G1 X-16.862 Y30.852 E9.08804
G1 X-18.365 Y30.376 E9.19542
G1 X-19.134 Y30.098 E9.25117
G1 X-23.568 Y28.372 E9.57539
G1 X-27.554 Y26.145 E9.88654
G1 X-29.511 Y24.787 E10.04890
G1 X-31.534 Y23.077 E10.22933
G1 X-32.625 Y21.914 E10.33802
G1 X-33.453 Y20.804 E10.43242
G1 X-33.967 Y19.923 E10.50191
G1 X-34.717 Y18.022 E10.64118
G1 X-34.787 Y17.720 E10.66228
G1 X-34.899 Y16.541 E10.74298
G1 X-34.758 Y14.791 E10.86259
G1 X-34.723 Y14.636 E10.87345
G1 X-34.408 Y13.713 E10.93991
G1 X-33.886 Y12.610 E11.02307
G1 X-13.019 Y-26.413 E14.03859
G1 X-12.322 Y-27.474 E14.12506
G1 X-11.536 Y-28.470 E14.21151
G1 X-10.666 Y-29.394 E14.29797
G1 X-9.719 Y-30.238 E14.38442
G1 X-8.702 Y-30.997 E14.47088
G1 X-7.623 Y-31.664 E14.55734
G1 X-6.490 Y-32.234 E14.64379
G1 X-5.311 Y-32.704 E14.73025
G1 X-4.096 Y-33.069 E14.81671
G1 X-2.854 Y-33.326 E14.90316
G1 X-1.594 Y-33.475 E14.98962
G1 X-0.326 Y-33.513 E15.07608
G1 X0.941 Y-33.440 E15.16254
G1 X2.197 Y-33.257 E15.24900 F1200.000
G1 X3.431 Y-32.966 E15.33545
G1 X4.636 Y-32.568 E15.42191
G1 X5.802 Y-32.066 E15.50837
G1 X6.919 Y-31.465 E15.59482
G1 X7.980 Y-30.769 E15.68128
G1 X8.975 Y-29.983 E15.76774
G1 X9.899 Y-29.113 E15.85420
G1 X10.743 Y-28.166 E15.94065
G1 X11.502 Y-27.149 E16.02711
G1 X12.092 Y-26.212 E16.10255
G1 X20.370 Y-11.599 E17.24703
G1 F1800.000 E14.24703
G92 E0
G1 X-13.792 Y1.076 F18000.000
G1 E3.00000 F1800.000
G1 X-13.256 Y0.821 E3.04040 F1200.000
G1 X-12.835 Y0.495 E3.07667
G1 X-12.146 Y0.147 E3.12929
G1 X-11.839 Y-0.097 E3.15600
G1 X-11.208 Y-0.457 E3.20552
G1 X-10.969 Y-0.654 E3.22659
G1 X-10.406 Y-1.000 E3.27166
G1 X-10.207 Y-1.163 E3.28919
G1 X-9.700 Y-1.481 E3.32999
G1 X-9.522 Y-1.617 E3.34525
G1 X-8.887 Y-1.997 E3.39565
G1 X-8.247 Y-2.314 E3.44435
G1 X-7.587 Y-2.580 E3.49280
G1 X-6.887 Y-2.806 E3.54293
G1 X-6.126 Y-3.005 E3.59655
G1 X-5.302 Y-3.186 E3.65402
G1 X-3.578 Y-3.503 E3.77351
G1 X-2.008 Y-3.752 E3.88181
G1 X-0.989 Y-3.866 E3.95171
G1 X-0.330 Y-3.897 E3.99666
G1 X-0.038 Y-3.891 E4.01656
G1 X0.329 Y-3.882 E4.04158 F1200.000
G1 X1.349 Y-3.793 E4.11137
G1 X3.787 Y-3.453 E4.27906
G1 X5.487 Y-3.148 E4.39677
G1 X6.253 Y-2.967 E4.45039
G1 X6.958 Y-2.759 E4.50048
G1 X7.623 Y-2.509 E4.54892
G1 X8.272 Y-2.208 E4.59765
G1 X8.916 Y-1.843 E4.64809
G1 X9.097 Y-1.711 E4.66334
G1 X9.612 Y-1.407 E4.70410
G1 X9.814 Y-1.248 E4.72163
G1 X10.386 Y-0.915 E4.76673
G1 X10.630 Y-0.725 E4.78781
G1 X11.270 Y-0.381 E4.83732
G1 X11.582 Y-0.145 E4.86400
G1 X12.279 Y0.187 E4.91659
G1 X12.709 Y0.502 E4.95289
G1 X13.250 Y0.744 E4.99333
G1 X13.380 Y1.259 E5.02952
G1 X14.093 Y1.920 E5.09582
G1 X15.025 Y2.331 E5.16520
G1 X15.407 Y2.609 E5.19737
G1 X16.190 Y2.946 E5.25550
G1 X16.755 Y3.406 E5.30516
G1 X17.137 Y3.573 E5.33354
G1 X17.207 Y3.911 E5.35708
G1 X18.232 Y4.876 E5.45299
G1 X18.921 Y5.158 E5.50372
G1 X19.646 Y5.764 E5.56809
G1 X19.775 Y5.816 E5.57756
G1 X19.797 Y5.913 E5.58437
G1 X20.478 Y6.676 E5.65404
G1 X21.224 Y7.231 E5.71738
G1 X21.564 Y7.353 E5.74202
G1 X22.343 Y8.045 E5.81303
G1 X23.132 Y8.807 E5.88780
G1 X23.691 Y9.223 E5.93528
G1 X24.256 Y9.759 E5.98833
G1 X24.824 Y10.187 E6.03676
G1 X25.729 Y10.986 E6.11908
G1 X26.464 Y11.527 E6.18121
G1 X27.144 Y12.115 E6.24252
G1 X27.483 Y12.348 E6.27056
G1 X28.072 Y12.819 E6.32194
G1 X28.467 Y13.237 E6.36111
G1 X28.827 Y13.501 E6.39154
G1 X29.172 Y13.875 E6.42623
G1 X29.407 Y14.176 E6.45222
G1 X29.682 Y14.801 E6.49875
G1 X29.819 Y15.014 E6.51603
G1 X29.839 Y15.094 E6.52163
G1 X29.891 Y15.939 E6.57933
G1 X29.843 Y16.175 E6.59578
G1 X29.416 Y17.208 E6.67193
G1 X28.647 Y18.295 E6.76262
G1 X28.023 Y18.955 E6.82455
G1 X27.512 Y19.329 E6.86767
G1 X27.430 Y19.455 E6.87794
G1 X27.221 Y19.656 E6.89772
G1 X26.623 Y20.140 E6.95011
G1 X26.385 Y20.383 E6.97333
G1 X25.746 Y20.640 E7.02028
G1 X24.877 Y21.453 E7.10134
G1 X23.794 Y21.783 E7.17850
G1 X23.045 Y22.429 E7.24588
G1 X22.569 Y22.785 E7.28640
G1 X21.361 Y23.537 E7.38337
G1 X21.310 Y23.518 E7.38706
G1 X20.167 Y23.796 E7.46718
G1 X19.327 Y24.276 E7.53308
G1 X18.506 Y24.678 E7.59537
G1 X17.476 Y25.138 E7.67230
G1 X16.792 Y25.403 E7.72225
G1 X15.492 Y25.846 E7.81583
G1 X15.065 Y25.973 E7.84622
G1 X13.433 Y26.366 E7.96059
G1 X12.153 Y26.417 E8.04791
G1 X11.259 Y26.589 E8.10994
G1 X9.295 Y26.820 E8.24470
G1 X7.362 Y26.874 E8.37645
G1 X6.707 Y26.841 E8.42116
G1 X5.050 Y26.706 E8.53441
G1 X3.640 Y26.536 E8.63120
G1 X3.629 Y26.513 E8.63295
G1 X1.820 Y26.192 E8.75814
G1 X0.039 Y26.122 E8.87964
G1 X-1.740 Y26.236 E9.00112
G1 X-3.541 Y26.601 E9.12633
G1 X-3.551 Y26.624 E9.12807
G1 X-4.957 Y26.828 E9.22482
G1 X-6.610 Y27.005 E9.33811
G1 X-7.264 Y27.054 E9.38282
G1 X-9.197 Y27.047 E9.51456
G1 X-11.166 Y26.865 E9.64930
G1 X-12.064 Y26.715 E9.71133
G1 X-13.346 Y26.694 E9.79870
G1 X-14.987 Y26.342 E9.91306
G1 X-15.417 Y26.226 E9.94344
G1 X-16.728 Y25.815 E10.03702
G1 X-17.417 Y25.566 E10.08697
G1 X-18.459 Y25.132 E10.16388
G1 X-19.289 Y24.750 E10.22616
G1 X-20.140 Y24.292 E10.29204
G1 X-21.290 Y24.041 E10.37221
G1 X-21.340 Y24.061 E10.37590
G1 X-22.566 Y23.339 E10.47286
G1 X-23.052 Y22.996 E10.51337
G1 X-23.815 Y22.368 E10.58074
G1 X-24.907 Y22.064 E10.65792
G1 X-25.794 Y21.274 E10.73891
G1 X-26.440 Y21.033 E10.78588
G1 X-26.684 Y20.795 E10.80911
G1 X-27.293 Y20.325 E10.86151
G1 X-27.508 Y20.129 E10.88131
G1 X-27.593 Y20.005 E10.89158
G1 X-28.113 Y19.644 E10.93469
G1 X-28.753 Y18.999 E10.99662
G1 X-29.548 Y17.933 E11.08727
G1 X-30.000 Y16.911 E11.16343
G1 X-30.054 Y16.675 E11.17989
G1 X-30.024 Y15.828 E11.23764
G1 X-30.006 Y15.749 E11.24322
G1 X-29.873 Y15.532 E11.26049
G1 X-29.613 Y14.901 E11.30701
G1 X-29.386 Y14.594 E11.33302
G1 X-29.051 Y14.211 E11.36769
G1 X-28.697 Y13.939 E11.39813
G1 X-28.313 Y13.511 E11.43731
G1 X-27.740 Y13.030 E11.48828
G1 X-27.395 Y12.779 E11.51736
G1 X-26.737 Y12.180 E11.57800
G1 X-26.016 Y11.622 E11.64012
G1 X-25.130 Y10.801 E11.72243
G1 X-24.573 Y10.359 E11.77089
G1 X-24.021 Y9.809 E11.82395
G1 X-23.473 Y9.380 E11.87143
G1 X-22.703 Y8.599 E11.94616
G1 X-21.940 Y7.887 E12.01724
G1 X-21.603 Y7.757 E12.04188
G1 X-20.873 Y7.184 E12.10516
G1 X-20.210 Y6.404 E12.17488
G1 X-20.189 Y6.306 E12.18170
G1 X-20.062 Y6.251 E12.19117
G1 X-19.353 Y5.628 E12.25550
G1 X-18.671 Y5.329 E12.30624
G1 X-17.670 Y4.339 E12.40217
G1 X-17.608 Y3.999 E12.42571
G1 X-17.230 Y3.824 E12.45410
G1 X-16.677 Y3.350 E12.50374
G1 X-15.902 Y2.994 E12.56186
G1 X-15.527 Y2.707 E12.59403
G1 X-14.606 Y2.273 E12.66343
G1 X-13.908 Y1.594 E12.72973
G1 X-13.803 Y1.127 E12.76235
G1 F1800.000 E9.76235
G92 E0
G1 X-29.645 Y16.777 F18000.000
G1 E3.00000 F1800.000
G1 X-24.688 Y21.735 E3.47773 F1200.000
G1 X-23.544 Y22.104 E3.55963
G1 X-29.653 Y15.994 E4.14840
G1 X-29.430 Y15.443 E4.18893
G1 X-21.196 Y23.677 E4.98238
G1 X-20.206 Y23.893 E5.05145
G1 X-29.167 Y14.931 E5.91505
G1 X-28.801 Y14.523 E5.95242
G1 X-18.731 Y24.593 E6.92280
G1 F1800.000 E3.92280
G92 E0
G1 X-17.372 Y25.178 F18000.000
G1 E3.00000 F1800.000
G1 X-28.390 Y14.160 E4.06181 F1200.000
G1 X-28.019 Y13.756 E4.09917
G1 X-16.184 Y25.591 E5.23973
G1 X-15.070 Y25.930 E5.31904
G1 X-27.598 Y13.402 E6.52634
G1 X-27.156 Y13.070 E6.56403
G1 X-14.072 Y26.154 E7.82489
G1 X-13.130 Y26.321 E7.89010
G1 X-26.750 Y12.701 E9.20267
G1 X-26.334 Y12.344 E9.24010
G1 X-12.343 Y26.334 E10.58836
G1 X-11.470 Y26.433 E10.64822
G1 X-25.897 Y12.005 E12.03856
G1 X-25.485 Y11.643 E12.07595
G1 X-10.588 Y26.540 E13.51163
G1 X-9.734 Y26.619 E13.57003
G1 X-25.083 Y11.270 E15.04922
G1 X-24.666 Y10.913 E15.08665
G1 X-8.907 Y26.672 E16.60532
G1 X-8.130 Y26.674 E16.65829
G1 X-24.243 Y10.561 E18.21112
G1 X-23.855 Y10.175 E18.24844
G1 X-7.353 Y26.677 E19.83877
G1 X-6.627 Y26.628 E19.88833
G1 X-23.431 Y9.825 E21.50768
G1 X-23.022 Y9.459 E21.54505
G1 X-5.927 Y26.554 E23.19249
G1 X-5.227 Y26.479 E23.24046
G1 X-22.638 Y9.069 E24.91830
G1 X-22.246 Y8.686 E24.95563
G1 X-4.544 Y26.388 E26.66156
G1 X-3.867 Y26.290 E26.70814
G1 X-21.845 Y8.313 E28.44063
G1 X-21.348 Y8.035 E28.47942
G1 X-3.229 Y26.154 E30.22553
G1 X-2.585 Y26.023 E30.27031
G1 X-20.914 Y7.694 E32.03667
G1 X-20.504 Y7.330 E32.07406
G1 X-1.941 Y25.893 E33.86293
G1 X-1.233 Y25.827 E33.91140
G1 X-20.148 Y6.912 E35.73424
G1 X-19.780 Y6.505 E35.77161
G1 X-0.505 Y25.780 E37.62920
G1 X0.244 Y25.754 E37.68022
G1 X-19.368 Y6.142 E39.57022
G1 X-18.897 Y5.839 E39.60841
G1 X1.050 Y25.785 E41.53067
G1 X1.855 Y25.817 E41.58563
G1 X-18.385 Y5.576 E43.53625
G1 X-17.996 Y5.191 E43.57357
G1 X2.796 Y25.983 E45.57734
G1 X3.738 Y26.151 E45.64253
G1 X-17.607 Y4.806 E47.69954
G1 X-17.289 Y4.349 E47.73746
G1 X4.640 Y26.278 E49.85080
G1 X5.502 Y26.366 E49.90986
G1 X-16.861 Y4.003 E52.06499
G1 X-16.436 Y3.653 E52.10249
G1 X6.346 Y26.434 E54.29792
G1 X7.174 Y26.488 E54.35448
G1 X-15.905 Y3.409 E56.57859
G1 X-15.432 Y3.108 E56.61681
G1 X7.942 Y26.482 E58.86934
G1 X8.695 Y26.460 E58.92069
G1 X-14.926 Y2.839 E61.19704
G1 X-14.399 Y2.591 E61.23670
G1 X9.434 Y26.425 E63.53352
G1 X10.127 Y26.343 E63.58107
G1 X-14.004 Y2.212 E65.90658
G1 X-13.611 Y1.830 E65.94391
G1 X10.820 Y26.262 E68.29838
G1 X11.494 Y26.161 E68.34479
G1 X-13.374 Y1.293 E70.74126
G1 X-12.884 Y1.008 E70.77986
G1 X12.148 Y26.041 E73.19223
G1 X12.893 Y26.011 E73.24300
G1 X-12.414 Y0.704 E75.68184
G1 X-11.907 Y0.437 E75.72091
G1 X13.596 Y25.940 E78.17862
G1 X14.220 Y25.789 E78.22238
G1 X-11.453 Y0.116 E80.69654
G1 X-10.965 Y-0.170 E80.73512
G1 X14.845 Y25.639 E83.22237
G1 X15.445 Y25.465 E83.26497
G1 X-10.513 Y-0.493 E85.76652
G1 X-10.051 Y-0.805 E85.80453
G1 X16.023 Y25.268 E88.31722
G1 X16.600 Y25.071 E88.35881
G1 X-9.582 Y-1.111 E90.88198
G1 X-9.117 Y-1.421 E90.92003
G1 X17.160 Y24.857 E93.45240
G1 X17.703 Y24.625 E93.49260
G1 X-8.628 Y-1.706 E96.03004
G1 X-8.110 Y-1.962 E96.06943
G1 X18.238 Y24.386 E98.60858
G1 X18.761 Y24.134 E98.64813
G1 X-7.559 Y-2.186 E101.18457
G1 X-6.979 Y-2.381 E101.22622
G1 X19.274 Y23.873 E103.75630
G1 X19.768 Y23.591 E103.79499
G1 X-6.375 Y-2.551 E106.31435
G1 X-5.748 Y-2.699 E106.35825
G1 X20.322 Y23.372 E108.87064
G1 X20.945 Y23.220 E108.91433
G1 X-5.105 Y-2.831 E111.42482
G1 X-4.463 Y-2.962 E111.46952
G1 X21.504 Y23.004 E113.97195
G1 X21.981 Y22.707 E114.01026
G1 X-3.801 Y-3.075 E116.49493
G1 X-3.136 Y-3.185 E116.54085
G1 X22.452 Y22.403 E119.00675
G1 X22.890 Y22.067 E119.04439
G1 X-2.471 Y-3.295 E121.48845
G1 X-1.799 Y-3.397 E121.53477
G1 X23.305 Y21.708 E123.95412
G1 X23.769 Y21.397 E123.99217
G1 X-1.103 Y-3.475 E126.38910
G1 X-0.372 Y-3.519 E126.43899
G1 X24.363 Y21.216 E128.82271
G1 X24.868 Y20.947 E128.86171
G1 X0.425 Y-3.497 E131.21730
G1 X1.273 Y-3.423 E131.27534
G1 X25.268 Y20.572 E133.58772
G1 X25.717 Y20.247 E133.62551
G1 X2.171 Y-3.299 E135.89461
G1 X3.071 Y-3.174 E135.95654
G1 X26.239 Y19.995 E138.18924
G1 X26.652 Y19.633 E138.22664
G1 X3.983 Y-3.036 E140.41121
G1 X4.928 Y-2.866 E140.47658
G1 X27.072 Y19.278 E142.61060
G1 X27.466 Y18.897 E142.64793
G1 X5.906 Y-2.663 E144.72566
G1 X7.003 Y-2.340 E144.80358
G1 X27.880 Y18.537 E146.81554
G1 X28.267 Y18.150 E146.85286
G1 X8.433 Y-1.684 E148.76426
G1 F1800.000 E145.76426
G92 E0
G1 X10.553 Y-0.339 F18000.000
G1 E3.00000 F1800.000
G1 X28.601 Y17.709 E4.73929 F1200.000
G1 X28.922 Y17.255 E4.77715
G1 X13.922 Y2.256 E6.22268
G1 F1800.000 E3.22268
G92 E0
G1 X13.014 Y1.348 F18000.000
G1 E3.00000 F1800.000
G1 X12.431 Y0.765 E3.05620 F1200.000
G1 F1800.000 E0.05620
G92 E0
G1 X15.499 Y3.058 F18000.000
G1 E3.00000 F1800.000
G1 X29.196 Y16.755 E4.32002 F1200.000
G1 X29.423 Y16.207 E4.36042
G1 X18.682 Y5.466 E5.39555
G1 F1800.000 E2.39555
G92 E0
G1 X24.109 Y10.119 F18000.000
G1 E3.00000 F1800.000
G1 X29.487 Y15.497 E3.51832 F1200.000
G1 F1800.000 E0.51832
G92 E0
G1 X28.890 Y14.125 F18000.000
G1 E3.00000 F1800.000
G1 X28.470 Y13.705 E3.04051 F1200.000
G1 F1800.000 E0.04051
G92 E0
G1 X-27.778 Y19.419 F18000.000
G1 E3.00000 F1800.000
G1 X-28.537 Y18.660 E3.07312 F1200.000
G1 F1800.000 E0.07312
G92 E0
G1 X-6.084 Y-11.023 F18000.000
G1 E3.00000 F1800.000
G1 X-6.759 Y-11.540 E3.05795 F1200.000
G1 X-7.383 Y-12.112 E3.11562
G1 X-7.954 Y-12.736 E3.17328
G1 X-8.469 Y-13.407 E3.23094
G1 X-8.924 Y-14.121 E3.28860
G1 X-9.315 Y-14.871 E3.34627
G1 X-9.639 Y-15.653 E3.40393
G1 X-9.893 Y-16.460 E3.46159
G1 X-10.076 Y-17.286 E3.51925
G1 X-10.187 Y-18.125 E3.57692
G1 X-10.224 Y-18.971 E3.63458
G1 X-10.187 Y-19.816 E3.69224
G1 X-10.076 Y-20.655 E3.74991
G1 X-9.893 Y-21.481 E3.80757
G1 X-9.639 Y-22.288 E3.86523
G1 X-9.315 Y-23.070 E3.92289
G1 X-8.924 Y-23.821 E3.98056
G1 X-8.469 Y-24.534 E4.03822
G1 X-7.954 Y-25.206 E4.09588
G1 X-7.383 Y-25.829 E4.15354
G1 X-6.759 Y-26.401 E4.21121
G1 X-6.087 Y-26.916 E4.26887
G1 X-5.374 Y-27.371 E4.32653
G1 X-4.623 Y-27.762 E4.38419
G1 X-3.841 Y-28.085 E4.44186
