; generated by Slic3r 1.1.7 on 2015-05-30 at 00:57:51

; Profile for Sharebot !

; perimeters extrusion width = 0.40mm
; infill extrusion width = 0.70mm
; solid infill extrusion width = 0.50mm
; top infill extrusion width = 0.40mm
; support material extrusion width = 0.40mm

G21 ; set units to millimeters
M107
;M99 Y0.5 (X Y Z BACKSLASH)
G28 ;Home all axis
T0
M106 S127 ;EXTRUDER FAN ON
G1 Z10 F1000
G1 X200 Y200 F3000
M104 S 0
M109 S 0
G92 E0
G90 ; use absolute coordinates
G92 E0
M82 ; use absolute distances for extrusion
G1 Z0.300 F18000.000
G1 F1800.000 E-3.00000
G92 E0
G1 X105.093 Y0.000 F18000.000
G1 E3.00000 F1800.000
G1 X105.093 Y100.000 E9.81437 F1200.000
G1 X104.697 Y101.969 E9.95124
G1 X103.570 Y103.632 E10.08811
G1 X101.888 Y104.730 E10.22498
G1 X100.000 Y105.093 E10.35599
G1 X-100.000 Y105.093 E23.98474
G1 X-101.969 Y104.697 E24.12161
G1 X-103.632 Y103.570 E24.25848
G1 X-104.730 Y101.888 E24.39534
G1 X-105.093 Y100.000 E24.52636
G1 X-105.093 Y-100.000 E38.15511
G1 X-104.697 Y-101.969 E38.29198
G1 X-103.570 Y-103.632 E38.42884
G1 X-101.888 Y-104.730 E38.56571
G1 X-100.000 Y-105.093 E38.69673
G1 X100.000 Y-105.093 E52.32548
G1 X101.969 Y-104.697 E52.46234
G1 X103.632 Y-103.570 E52.59921 F1200.000
G1 X104.730 Y-101.888 E52.73608
G1 X105.093 Y-100.000 E52.86710
G1 X105.093 Y-0.052 E59.67789
G1 F1800.000 E56.67789
G92 E0
G1 X104.546 Y0.000 F18000.000
G1 E3.00000 F1800.000
G1 X104.546 Y100.000 E9.81437 F1200.000
G1 X104.151 Y101.855 E9.94361
G1 X103.033 Y103.387 E10.07285
G1 X101.387 Y104.330 E10.20210
G1 X100.000 Y104.546 E10.29776
G1 X-100.000 Y104.546 E23.92651
G1 X-101.855 Y104.151 E24.05575
G1 X-103.387 Y103.033 E24.18499
G1 X-104.330 Y101.387 E24.31423
G1 X-104.546 Y100.000 E24.40990
G1 X-104.546 Y-100.000 E38.03864
G1 X-104.151 Y-101.855 E38.16788
G1 X-103.033 Y-103.387 E38.29712
G1 X-101.387 Y-104.330 E38.42636
G1 X-100.000 Y-104.546 E38.52203
G1 X100.000 Y-104.546 E52.15077
G1 X101.855 Y-104.151 E52.28002
G1 X103.387 Y-103.033 E52.40926 F1200.000
G1 X104.330 Y-101.387 E52.53850
G1 X104.546 Y-100.000 E52.63416
G1 X104.546 Y-0.052 E59.44496
G1 F1800.000 E56.44496
G92 E0
G1 X99.700 Y-99.700 F18000.000
G1 E3.00000 F1800.000
G1 X99.700 Y99.700 E16.58786 F1200.000
G1 X-99.700 Y99.700 E30.17572
G1 X-99.700 Y-99.700 E43.76358
G1 X99.647 Y-99.700 E57.34786
G1 F1800.000 E54.34786
G92 E0
G1 X99.284 Y-99.324 F18000.000
G1 E3.00000 F1800.000
G1 X99.324 Y-99.284 E3.00385 F1200.000
G1 X99.324 Y-98.511 E3.05652
G1 X98.511 Y-99.324 E3.13484
G1 X97.738 Y-99.324 E3.18751
G1 X99.324 Y-97.738 E3.34031
G1 X99.324 Y-96.966 E3.39297
G1 X96.966 Y-99.324 E3.62025
G1 X96.193 Y-99.324 E3.67291
G1 X99.324 Y-96.193 E3.97466
G1 X99.324 Y-95.420 E4.02732
G1 X95.420 Y-99.324 E4.40354
G1 X94.647 Y-99.324 E4.45620
G1 X99.324 Y-94.647 E4.90690
G1 X99.324 Y-93.874 E4.95956
G1 X93.874 Y-99.324 E5.48474
G1 X93.102 Y-99.324 E5.53740
G1 X99.324 Y-93.102 E6.13704
G1 X99.324 Y-92.329 E6.18970
G1 X92.329 Y-99.324 E6.86382
G1 X91.556 Y-99.324 E6.91648
G1 X99.324 Y-91.556 E7.66508
G1 X99.324 Y-90.783 E7.71774
G1 X90.783 Y-99.324 E8.54081
G1 X90.010 Y-99.324 E8.59347
G1 X99.324 Y-90.010 E9.49101
G1 X99.324 Y-89.238 E9.54367
G1 X89.238 Y-99.324 E10.51569
G1 X88.465 Y-99.324 E10.56835
G1 X99.324 Y-88.465 E11.61484
G1 X99.324 Y-87.692 E11.66750
G1 X87.692 Y-99.324 E12.78846
G1 X86.919 Y-99.324 E12.84112
G1 X99.324 Y-86.919 E14.03656
G1 X99.324 Y-86.146 E14.08922
G1 X86.146 Y-99.324 E15.35913
G1 X85.374 Y-99.324 E15.41179
G1 X99.324 Y-85.374 E16.75618
G1 X99.324 Y-84.601 E16.80884
G1 X84.601 Y-99.324 E18.22770
G1 X83.828 Y-99.324 E18.28036
G1 X99.324 Y-83.828 E19.77369
G1 X99.324 Y-83.055 E19.82635
G1 X83.055 Y-99.324 E21.39416
G1 X82.282 Y-99.324 E21.44682
G1 X99.324 Y-82.282 E23.08910
G1 X99.324 Y-81.510 E23.14176
G1 X81.510 Y-99.324 E24.85852
G1 X80.737 Y-99.324 E24.91118
G1 X99.324 Y-80.737 E26.70241
G1 X99.324 Y-79.964 E26.75507
G1 X79.964 Y-99.324 E28.62077
G1 X79.191 Y-99.324 E28.67343
G1 X99.324 Y-79.191 E30.61361
G1 X99.324 Y-78.419 E30.66627
G1 X78.419 Y-99.324 E32.68092
G1 X77.646 Y-99.324 E32.73358
G1 X99.324 Y-77.646 E34.82270
G1 X99.324 Y-76.873 E34.87537
G1 X76.873 Y-99.324 E37.03896
G1 X76.100 Y-99.324 E37.09162
G1 X99.324 Y-76.100 E39.32970
G1 X99.324 Y-75.327 E39.38236
G1 X75.327 Y-99.324 E41.69490
G1 X74.555 Y-99.324 E41.74756
G1 X99.324 Y-74.555 E44.13458
G1 X99.324 Y-73.782 E44.18724
G1 X73.782 Y-99.324 E46.64874
G1 X73.009 Y-99.324 E46.70140
G1 X99.324 Y-73.009 E49.23737
G1 X99.324 Y-72.236 E49.29003
G1 X72.236 Y-99.324 E51.90047
G1 X71.463 Y-99.324 E51.95313
G1 X99.324 Y-71.463 E54.63805
G1 X99.324 Y-70.691 E54.69071
G1 X70.691 Y-99.324 E57.45010
G1 X69.918 Y-99.324 E57.50276
G1 X99.324 Y-69.918 E60.33662
G1 X99.324 Y-69.145 E60.38928
G1 X69.145 Y-99.324 E63.29762
G1 X68.372 Y-99.324 E63.35028
G1 X99.324 Y-68.372 E66.33309
G1 X99.324 Y-67.599 E66.38575
G1 X67.599 Y-99.324 E69.44304
G1 X66.827 Y-99.324 E69.49570
G1 X99.324 Y-66.827 E72.62746
G1 X99.324 Y-66.054 E72.68012
G1 X66.054 Y-99.324 E75.88635
G1 X65.281 Y-99.324 E75.93901
G1 X99.324 Y-65.281 E79.21972
G1 X99.324 Y-64.508 E79.27238
G1 X64.508 Y-99.324 E82.62756
G1 X63.735 Y-99.324 E82.68022
G1 X99.324 Y-63.735 E86.10988
G1 X99.324 Y-62.963 E86.16254
G1 X62.963 Y-99.324 E89.66666
G1 X62.190 Y-99.324 E89.71933
G1 X99.324 Y-62.190 E93.29793
G1 X99.324 Y-61.417 E93.35059
G1 X61.417 Y-99.324 E97.00367
G1 X60.644 Y-99.324 E97.05633
G1 X99.324 Y-60.644 E100.78388
G1 X99.324 Y-59.871 E100.83654
G1 X59.871 Y-99.324 E104.63856
G1 X59.099 Y-99.324 E104.69122
G1 X99.324 Y-59.099 E108.56772
G1 X99.324 Y-58.326 E108.62038
G1 X58.326 Y-99.324 E112.57135
G1 X57.553 Y-99.324 E112.62401
G1 X99.324 Y-57.553 E116.64946
G1 X99.324 Y-56.780 E116.70212
G1 X56.780 Y-99.324 E120.80204
G1 X56.008 Y-99.324 E120.85470
G1 X99.324 Y-56.008 E125.02909
G1 X99.324 Y-55.235 E125.08176
G1 X55.235 Y-99.324 E129.33062
G1 X54.462 Y-99.324 E129.38328
G1 X99.324 Y-54.462 E133.70663
G1 X99.324 Y-53.689 E133.75929
G1 X53.689 Y-99.324 E138.15710
G1 X52.916 Y-99.324 E138.20976
G1 X99.324 Y-52.916 E142.68205
G1 X99.324 Y-52.144 E142.73471
G1 X52.144 Y-99.324 E147.28148
G1 X51.371 Y-99.324 E147.33414
G1 X99.324 Y-51.371 E151.95537
G1 X99.324 Y-50.598 E152.00803
G1 X50.598 Y-99.324 E156.70375
G1 X49.825 Y-99.324 E156.75641
G1 X99.324 Y-49.825 E161.52659
G1 X99.324 Y-49.052 E161.57925
G1 X49.052 Y-99.324 E166.42391
G1 X48.280 Y-99.324 E166.47657
G1 X99.324 Y-48.280 E171.39570
G1 X99.324 Y-47.507 E171.44837
G1 X47.507 Y-99.324 E176.44197
G1 X46.734 Y-99.324 E176.49463
G1 X99.324 Y-46.734 E181.56271
G1 X99.324 Y-45.961 E181.61537
G1 X45.961 Y-99.324 E186.75793
G1 X45.188 Y-99.324 E186.81059
G1 X99.324 Y-45.188 E192.02762
G1 X99.324 Y-44.416 E192.08028
G1 X44.416 Y-99.324 E197.37178
G1 X43.643 Y-99.324 E197.42444
G1 X99.324 Y-43.643 E202.79042
G1 X99.324 Y-42.870 E202.84308
G1 X42.870 Y-99.324 E208.28353
G1 X42.097 Y-99.324 E208.33619
G1 X99.324 Y-42.097 E213.85111
G1 X99.324 Y-41.324 E213.90377
G1 X41.324 Y-99.324 E219.49317
G1 X40.552 Y-99.324 E219.54583
G1 X99.324 Y-40.552 E225.20971
G1 X99.324 Y-39.779 E225.26237
G1 X39.779 Y-99.324 E231.00071
G1 X39.006 Y-99.324 E231.05337
G1 X99.324 Y-39.006 E236.86619
G1 X99.324 Y-38.233 E236.91885
G1 X38.233 Y-99.324 E242.80615
G1 X37.460 Y-99.324 E242.85881
G1 X99.324 Y-37.460 E248.82057
G1 X99.324 Y-36.688 E248.87324
G1 X36.688 Y-99.324 E254.90948
G1 X35.915 Y-99.324 E254.96214
G1 X99.324 Y-35.915 E261.07285
G1 X99.324 Y-35.142 E261.12551
G1 X35.142 Y-99.324 E267.31070
G1 X34.369 Y-99.324 E267.36336
G1 X99.324 Y-34.369 E273.62303
G1 X99.324 Y-33.597 E273.67569
G1 X33.597 Y-99.324 E280.00982
G1 X32.824 Y-99.324 E280.06249
G1 X99.324 Y-32.824 E286.47110
G1 X99.324 Y-32.051 E286.52376
G1 X32.051 Y-99.324 E293.00684
G1 X31.278 Y-99.324 E293.05950
G1 X99.324 Y-31.278 E299.61706
G1 X99.324 Y-30.505 E299.66972
G1 X30.505 Y-99.324 E306.30175
G1 X29.733 Y-99.324 E306.35442
G1 X99.324 Y-29.733 E313.06092
G1 X99.324 Y-28.960 E313.11358
G1 X28.960 Y-99.324 E319.89456
G1 X28.187 Y-99.324 E319.94722
G1 X99.324 Y-28.187 E326.80268
G1 X99.324 Y-27.414 E326.85534
G1 X27.414 Y-99.324 E333.78527
G1 X26.641 Y-99.324 E333.83793
G1 X99.324 Y-26.641 E340.84233
G1 X99.324 Y-25.869 E340.89499
G1 X25.869 Y-99.324 E347.97387
G1 X25.096 Y-99.324 E348.02653
G1 X99.324 Y-25.096 E355.17988
G1 X99.324 Y-24.323 E355.23254
G1 X24.323 Y-99.324 E362.46036
G1 X23.550 Y-99.324 E362.51302
G1 X99.324 Y-23.550 E369.81532
G1 X99.324 Y-22.777 E369.86798
G1 X22.777 Y-99.324 E377.24475
G1 X22.005 Y-99.324 E377.29741
G1 X99.324 Y-22.005 E384.74866
G1 X99.324 Y-21.232 E384.80132
G1 X21.232 Y-99.324 E392.32704
G1 X20.459 Y-99.324 E392.37970
G1 X99.324 Y-20.459 E399.97989
G1 X99.324 Y-19.686 E400.03255
G1 X19.686 Y-99.324 E407.70722
G1 X18.913 Y-99.324 E407.75988
G1 X99.324 Y-18.913 E415.50902
G1 X99.324 Y-18.141 E415.56168
G1 X18.141 Y-99.324 E423.38530
G1 X17.368 Y-99.324 E423.43796
G1 X99.324 Y-17.368 E431.33605
G1 X99.324 Y-16.595 E431.38871
G1 X16.595 Y-99.324 E439.36127
G1 X15.822 Y-99.324 E439.41393
G1 X99.324 Y-15.822 E447.46097
G1 X99.324 Y-15.049 E447.51363
G1 X15.049 Y-99.324 E455.63514
G1 X14.277 Y-99.324 E455.68780
G1 X99.324 Y-14.277 E463.88379
G1 X99.324 Y-13.504 E463.93645
G1 X13.504 Y-99.324 E472.20691
G1 X12.731 Y-99.324 E472.25957
G1 X99.324 Y-12.731 E480.60450
G1 X99.324 Y-11.958 E480.65716
G1 X11.958 Y-99.324 E489.07657
G1 X11.185 Y-99.324 E489.12923
G1 X99.324 Y-11.185 E497.62311
G1 X99.324 Y-10.413 E497.67577
G1 X10.413 Y-99.324 E506.24412
G1 X9.640 Y-99.324 E506.29678
G1 X99.324 Y-9.640 E514.93961
G1 X99.324 Y-8.867 E514.99227
G1 X8.867 Y-99.324 E523.70957
G1 X8.094 Y-99.324 E523.76224
G1 X99.324 Y-8.094 E532.55401
G1 X99.324 Y-7.322 E532.60667
G1 X7.322 Y-99.324 E541.47292
G1 X6.549 Y-99.324 E541.52558
G1 X99.324 Y-6.549 E550.46631
G1 X99.324 Y-5.776 E550.51897
G1 X5.776 Y-99.324 E559.53416
G1 X5.003 Y-99.324 E559.58683
G1 X99.324 Y-5.003 E568.67650
G1 X99.324 Y-4.230 E568.72916
G1 X4.230 Y-99.324 E577.89330
G1 X3.458 Y-99.324 E577.94596
G1 X99.324 Y-3.458 E587.18458
G1 X99.324 Y-2.685 E587.23724
G1 X2.685 Y-99.324 E596.55034
G1 X1.912 Y-99.324 E596.60300
G1 X99.324 Y-1.912 E605.99056
G1 X99.324 Y-1.139 E606.04323
G1 X1.139 Y-99.324 E615.50527
G1 X0.366 Y-99.324 E615.55793
G1 X99.324 Y-0.366 E625.09444
G1 X99.324 Y0.406 E625.14710
G1 X-0.406 Y-99.324 E634.75809
G1 X-1.179 Y-99.324 E634.81075
G1 X99.324 Y1.179 E644.49621
G1 X99.324 Y1.952 E644.54888
G1 X-1.952 Y-99.324 E654.30881
G1 X-2.725 Y-99.324 E654.36147
G1 X99.324 Y2.725 E664.19588
G1 X99.324 Y3.498 E664.24854
G1 X-3.498 Y-99.324 E674.15743
G1 X-4.270 Y-99.324 E674.21009
G1 X99.324 Y4.270 E684.19345
G1 X99.324 Y5.043 E684.24611
G1 X-5.043 Y-99.324 E694.30394
G1 X-5.816 Y-99.324 E694.35660
G1 X99.324 Y5.816 E704.48891
G1 X99.324 Y6.589 E704.54157
G1 X-6.589 Y-99.324 E714.74835
G1 X-7.362 Y-99.324 E714.80101
G1 X99.324 Y7.362 E725.08226
G1 X99.324 Y8.134 E725.13492
G1 X-8.134 Y-99.324 E735.49065
G1 X-8.907 Y-99.324 E735.54331
G1 X99.324 Y8.907 E745.97351
G1 X99.324 Y9.680 E746.02618
G1 X-9.680 Y-99.324 E756.53085
G1 X-10.453 Y-99.324 E756.58351
G1 X99.324 Y10.453 E767.16266
G1 X99.324 Y11.225 E767.21532
G1 X-11.226 Y-99.324 E777.86895
G1 X-11.998 Y-99.324 E777.92161
G1 X99.324 Y11.998 E788.64970
G1 X99.324 Y12.771 E788.70236
G1 X-12.771 Y-99.324 E799.50494
G1 X-13.544 Y-99.324 E799.55760
G1 X99.324 Y13.544 E810.43464
G1 X99.324 Y14.317 E810.48730
G1 X-14.317 Y-99.324 E821.43882
G1 X-15.089 Y-99.324 E821.49148
G1 X99.324 Y15.089 E832.51748
G1 X99.324 Y15.862 E832.57014
G1 X-15.862 Y-99.324 E843.67060
G1 X-16.635 Y-99.324 E843.72326
G1 X99.324 Y16.635 E854.89821
G1 X99.324 Y17.408 E854.95087
G1 X-17.408 Y-99.324 E866.20028
G1 X-18.181 Y-99.324 E866.25294
G1 X99.324 Y18.181 E877.57683
G1 X99.324 Y18.953 E877.62949
G1 X-18.953 Y-99.324 E889.02785
G1 X-19.726 Y-99.324 E889.08051
G1 X99.324 Y19.726 E900.55335
G1 X99.324 Y20.499 E900.60601
G1 X-20.499 Y-99.324 E912.15332
G1 X-21.272 Y-99.324 E912.20598
G1 X99.324 Y21.272 E923.82777
G1 X99.324 Y22.045 E923.88043
G1 X-22.045 Y-99.324 E935.57669
G1 X-22.817 Y-99.324 E935.62935
G1 X99.324 Y22.817 E947.40008
G1 X99.324 Y23.590 E947.45274
G1 X-23.590 Y-99.324 E959.29795
G1 X-24.363 Y-99.324 E959.35061
G1 X99.324 Y24.363 E971.27029
G1 X99.324 Y25.136 E971.32295
G1 X-25.136 Y-99.324 E983.31710
G1 X-25.909 Y-99.324 E983.36976
G1 X99.324 Y25.909 E995.43839
G1 X99.324 Y26.681 E995.49105
G1 X-26.681 Y-99.324 E1007.63415
G1 X-27.454 Y-99.324 E1007.68681
G1 X99.324 Y27.454 E1019.90439
G1 X99.324 Y28.227 E1019.95705
G1 X-28.227 Y-99.324 E1032.24910
G1 X-29.000 Y-99.324 E1032.30176
G1 X99.324 Y29.000 E1044.66828
G1 X99.324 Y29.773 E1044.72094
G1 X-29.773 Y-99.324 E1057.16194
G1 X-30.545 Y-99.324 E1057.21460
G1 X99.324 Y30.545 E1069.73007
G1 X99.324 Y31.318 E1069.78273
G1 X-31.318 Y-99.324 E1082.37268
G1 X-32.091 Y-99.324 E1082.42534
G1 X99.324 Y32.091 E1095.08976
G1 X99.324 Y32.864 E1095.14242
G1 X-32.864 Y-99.324 E1107.88131
G1 X-33.637 Y-99.324 E1107.93397
G1 X99.324 Y33.637 E1120.74734
G1 X99.324 Y34.409 E1120.80000
G1 X-34.409 Y-99.324 E1133.68784
G1 X-35.182 Y-99.324 E1133.74050
G1 X99.324 Y35.182 E1146.70282
G1 X99.324 Y35.955 E1146.75548
G1 X-35.955 Y-99.324 E1159.79226
G1 X-36.728 Y-99.324 E1159.84493
G1 X99.324 Y36.728 E1172.95619
G1 X99.324 Y37.500 E1173.00885
G1 X-37.500 Y-99.324 E1186.19458
G1 X-38.273 Y-99.324 E1186.24725
G1 X99.324 Y38.273 E1199.50746
G1 X99.324 Y39.046 E1199.56012
G1 X-39.046 Y-99.324 E1212.89480
G1 X-39.819 Y-99.324 E1212.94746
G1 X99.324 Y39.819 E1226.35662
G1 X99.324 Y40.592 E1226.40928
G1 X-40.592 Y-99.324 E1239.89291
G1 X-41.364 Y-99.324 E1239.94557
G1 X99.324 Y41.364 E1253.50368
G1 X99.324 Y42.137 E1253.55634
G1 X-42.137 Y-99.324 E1267.18892
G1 X-42.910 Y-99.324 E1267.24158
G1 X99.324 Y42.910 E1280.94863
G1 X99.324 Y43.683 E1281.00129
G1 X-43.683 Y-99.324 E1294.78282
G1 X-44.456 Y-99.324 E1294.83548
G1 X99.324 Y44.456 E1308.69148
G1 X99.324 Y45.228 E1308.74414
G1 X-45.228 Y-99.324 E1322.67462
G1 X-46.001 Y-99.324 E1322.72728
G1 X99.324 Y46.001 E1336.73223
G1 X99.324 Y46.774 E1336.78489
G1 X-46.774 Y-99.324 E1350.86431
G1 X-47.547 Y-99.324 E1350.91697
G1 X99.324 Y47.547 E1365.07087
G1 X99.324 Y48.320 E1365.12353
G1 X-48.320 Y-99.324 E1379.35190
G1 X-49.092 Y-99.324 E1379.40456
G1 X99.324 Y49.092 E1393.70741
G1 X99.324 Y49.865 E1393.76007
G1 X-49.865 Y-99.324 E1408.13739
G1 X-50.638 Y-99.324 E1408.19005
G1 X99.324 Y50.638 E1422.64184
G1 X99.324 Y51.411 E1422.69450
G1 X-51.411 Y-99.324 E1437.22077
G1 X-52.184 Y-99.324 E1437.27343
G1 X99.324 Y52.184 E1451.87417
G1 X99.324 Y52.956 E1451.92683
G1 X-52.956 Y-99.324 E1466.60205
G1 X-53.729 Y-99.324 E1466.65471
G1 X99.324 Y53.729 E1481.40439
G1 X99.324 Y54.502 E1481.45706
G1 X-54.502 Y-99.324 E1496.28122
G1 X-55.275 Y-99.324 E1496.33388
G1 X99.324 Y55.275 E1511.23251
G1 X99.324 Y56.048 E1511.28517
G1 X-56.048 Y-99.324 E1526.25828
G1 X-56.820 Y-99.324 E1526.31095
G1 X99.324 Y56.820 E1541.35853
G1 X99.324 Y57.593 E1541.41119
G1 X-57.593 Y-99.324 E1556.53325
G1 X-58.366 Y-99.324 E1556.58591
G1 X99.324 Y58.366 E1571.78244
G1 X99.324 Y59.139 E1571.83510
G1 X-59.139 Y-99.324 E1587.10611
G1 X-59.911 Y-99.324 E1587.15877
G1 X99.324 Y59.911 E1602.50425
G1 X99.324 Y60.684 E1602.55691
G1 X-60.684 Y-99.324 E1617.97686
G1 X-61.457 Y-99.324 E1618.02952
G1 X99.324 Y61.457 E1633.52395
G1 X99.324 Y62.230 E1633.57661
G1 X-62.230 Y-99.324 E1649.14551
G1 X-63.003 Y-99.324 E1649.19817
G1 X99.324 Y63.003 E1664.84155
G1 X99.324 Y63.775 E1664.89421
G1 X-63.775 Y-99.324 E1680.61206
G1 X-64.548 Y-99.324 E1680.66472
G1 X99.324 Y64.548 E1696.45704
G1 X99.324 Y65.321 E1696.50970
G1 X-65.321 Y-99.324 E1712.37650
G1 X-66.094 Y-99.324 E1712.42916
G1 X99.324 Y66.094 E1728.37043
G1 X99.324 Y66.867 E1728.42309
G1 X-66.867 Y-99.324 E1744.43884
G1 X-67.639 Y-99.324 E1744.49150
G1 X99.324 Y67.639 E1760.58171
G1 X99.324 Y68.412 E1760.63438
G1 X-68.412 Y-99.324 E1776.79907
G1 X-69.185 Y-99.324 E1776.85173
G1 X99.324 Y69.185 E1793.09089
G1 X99.324 Y69.958 E1793.14356
G1 X-69.958 Y-99.324 E1809.45720
G1 X-70.731 Y-99.324 E1809.50986
