; generated by Slic3r 1.1.7 on 2015-05-30 at 00:57:51
; Profile for Sharebot !
; perimeters extrusion width = 0.40mm
; infill extrusion width = 0.70mm
; solid infill extrusion width = 0.50mm
; top infill extrusion width = 0.40mm
; support material extrusion width = 0.40mm
G21 ; set units to millimeters
;M99 Y0.5 (X Y Z BACKSLASH)
G28 ;Home all axis
G1 Z10 F1000
G1 X200 Y200 F3000
G92
G90 ; use absolute coordinates
G92
M82 ; use absolute distances for extrusion
G1 Z0.300 F18000.000
G1 F1800.000 
G92
G1 X105.093 Y0.000 F18000.000
G1  F1800.000
G1 X105.093 Y100.000  F1200.000
G1 X104.697 Y101.969 
G1 X103.570 Y103.632 
G1 X101.888 Y104.730 
G1 X100.000 Y105.093 
G1 X-100.000 Y105.093 
G1 X-101.969 Y104.697 
G1 X-103.632 Y103.570 
G1 X-104.730 Y101.888 
G1 X-105.093 Y100.000 
G1 X-105.093 Y-100.000 
G1 X-104.697 Y-101.969 
G1 X-103.570 Y-103.632 
G1 X-101.888 Y-104.730 
G1 X-100.000 Y-105.093 
G1 X100.000 Y-105.093 
G1 X101.969 Y-104.697 
G1 X103.632 Y-103.570  F1200.000
G1 X104.730 Y-101.888 
G1 X105.093 Y-100.000 
G1 X105.093 Y-0.052 
G1 F1800.000 
G92
G1 X104.546 Y0.000 F18000.000
G1  F1800.000
G1 X104.546 Y100.000  F1200.000
G1 X104.151 Y101.855 
G1 X103.033 Y103.387 
G1 X101.387 Y104.330 
G1 X100.000 Y104.546 
G1 X-100.000 Y104.546 
G1 X-101.855 Y104.151 
G1 X-103.387 Y103.033 
G1 X-104.330 Y101.387 
G1 X-104.546 Y100.000 
G1 X-104.546 Y-100.000 
G1 X-104.151 Y-101.855 
G1 X-103.033 Y-103.387 
G1 X-101.387 Y-104.330 
G1 X-100.000 Y-104.546 
G1 X100.000 Y-104.546 
G1 X101.855 Y-104.151 
G1 X103.387 Y-103.033  F1200.000
G1 X104.330 Y-101.387 
G1 X104.546 Y-100.000 
G1 X104.546 Y-0.052 
G1 F1800.000 
G92
G1 X99.700 Y-99.700 F18000.000
G1  F1800.000
G1 X99.700 Y99.700  F1200.000
G1 X-99.700 Y99.700 
G1 X-99.700 Y-99.700 
G1 X99.647 Y-99.700 
G1 F1800.000 
G92
G1 X99.284 Y-99.324 F18000.000
G1  F1800.000
G1 X99.324 Y-99.284  F1200.000
G1 X99.324 Y-98.511 
G1 X98.511 Y-99.324 
G1 X97.738 Y-99.324 
G1 X99.324 Y-97.738 
G1 X99.324 Y-96.966 
G1 X96.966 Y-99.324 
G1 X96.193 Y-99.324 
G1 X99.324 Y-96.193 
G1 X99.324 Y-95.420 
G1 X95.420 Y-99.324 
G1 X94.647 Y-99.324 
G1 X99.324 Y-94.647 
G1 X99.324 Y-93.874 
G1 X93.874 Y-99.324 
G1 X93.102 Y-99.324 
G1 X99.324 Y-93.102 
G1 X99.324 Y-92.329 
G1 X92.329 Y-99.324 
G1 X91.556 Y-99.324 
G1 X99.324 Y-91.556 
G1 X99.324 Y-90.783 
G1 X90.783 Y-99.324 
G1 X90.010 Y-99.324 
G1 X99.324 Y-90.010 
G1 X99.324 Y-89.238 
G1 X89.238 Y-99.324 
G1 X88.465 Y-99.324 
G1 X99.324 Y-88.465 
G1 X99.324 Y-87.692 
G1 X87.692 Y-99.324 
G1 X86.919 Y-99.324 
G1 X99.324 Y-86.919 
G1 X99.324 Y-86.146 
G1 X86.146 Y-99.324 
G1 X85.374 Y-99.324 
G1 X99.324 Y-85.374 
G1 X99.324 Y-84.601 
G1 X84.601 Y-99.324 
G1 X83.828 Y-99.324 
G1 X99.324 Y-83.828 
G1 X99.324 Y-83.055 
G1 X83.055 Y-99.324 
G1 X82.282 Y-99.324 
G1 X99.324 Y-82.282 
G1 X99.324 Y-81.510 
G1 X81.510 Y-99.324 
G1 X80.737 Y-99.324 
G1 X99.324 Y-80.737 
G1 X99.324 Y-79.964 
G1 X79.964 Y-99.324 
G1 X79.191 Y-99.324 
G1 X99.324 Y-79.191 
G1 X99.324 Y-78.419 
G1 X78.419 Y-99.324 
G1 X77.646 Y-99.324 
G1 X99.324 Y-77.646 
G1 X99.324 Y-76.873 
G1 X76.873 Y-99.324 
G1 X76.100 Y-99.324 
G1 X99.324 Y-76.100 
G1 X99.324 Y-75.327 
G1 X75.327 Y-99.324 
G1 X74.555 Y-99.324 
G1 X99.324 Y-74.555 
G1 X99.324 Y-73.782 
G1 X73.782 Y-99.324 
G1 X73.009 Y-99.324 
G1 X99.324 Y-73.009 
G1 X99.324 Y-72.236 
G1 X72.236 Y-99.324 
G1 X71.463 Y-99.324 
G1 X99.324 Y-71.463 
G1 X99.324 Y-70.691 
G1 X70.691 Y-99.324 
G1 X69.918 Y-99.324 
G1 X99.324 Y-69.918 
G1 X99.324 Y-69.145 
G1 X69.145 Y-99.324 
G1 X68.372 Y-99.324 
G1 X99.324 Y-68.372 
G1 X99.324 Y-67.599 
G1 X67.599 Y-99.324 
G1 X66.827 Y-99.324 
G1 X99.324 Y-66.827 
G1 X99.324 Y-66.054 
G1 X66.054 Y-99.324 
G1 X65.281 Y-99.324 
G1 X99.324 Y-65.281 
G1 X99.324 Y-64.508 
G1 X64.508 Y-99.324 
G1 X63.735 Y-99.324 
G1 X99.324 Y-63.735 
G1 X99.324 Y-62.963 
G1 X62.963 Y-99.324 
G1 X62.190 Y-99.324 
G1 X99.324 Y-62.190 
G1 X99.324 Y-61.417 
G1 X61.417 Y-99.324 
G1 X60.644 Y-99.324 
G1 X99.324 Y-60.644 
G1 X99.324 Y-59.871 
G1 X59.871 Y-99.324 
G1 X59.099 Y-99.324 
G1 X99.324 Y-59.099 
G1 X99.324 Y-58.326 
G1 X58.326 Y-99.324 
G1 X57.553 Y-99.324 
G1 X99.324 Y-57.553 
G1 X99.324 Y-56.780 
G1 X56.780 Y-99.324 
G1 X56.008 Y-99.324 
G1 X99.324 Y-56.008 
G1 X99.324 Y-55.235 
G1 X55.235 Y-99.324 
G1 X54.462 Y-99.324 
G1 X99.324 Y-54.462 
G1 X99.324 Y-53.689 
G1 X53.689 Y-99.324 
G1 X52.916 Y-99.324 
G1 X99.324 Y-52.916 
G1 X99.324 Y-52.144 
G1 X52.144 Y-99.324 
G1 X51.371 Y-99.324 
G1 X99.324 Y-51.371 
G1 X99.324 Y-50.598 
G1 X50.598 Y-99.324 
G1 X49.825 Y-99.324 
G1 X99.324 Y-49.825 
G1 X99.324 Y-49.052 
G1 X49.052 Y-99.324 
G1 X48.280 Y-99.324 
G1 X99.324 Y-48.280 
G1 X99.324 Y-47.507 
G1 X47.507 Y-99.324 
G1 X46.734 Y-99.324 
G1 X99.324 Y-46.734 
G1 X99.324 Y-45.961 
G1 X45.961 Y-99.324 
G1 X45.188 Y-99.324 
G1 X99.324 Y-45.188 
G1 X99.324 Y-44.416 
G1 X44.416 Y-99.324 
G1 X43.643 Y-99.324 
G1 X99.324 Y-43.643 
G1 X99.324 Y-42.870 
G1 X42.870 Y-99.324 
G1 X42.097 Y-99.324 
G1 X99.324 Y-42.097 
G1 X99.324 Y-41.324 
G1 X41.324 Y-99.324 
G1 X40.552 Y-99.324 
G1 X99.324 Y-40.552 
G1 X99.324 Y-39.779 
G1 X39.779 Y-99.324 
G1 X39.006 Y-99.324 
G1 X99.324 Y-39.006 
G1 X99.324 Y-38.233 
G1 X38.233 Y-99.324 
G1 X37.460 Y-99.324 
G1 X99.324 Y-37.460 
G1 X99.324 Y-36.688 
G1 X36.688 Y-99.324 
G1 X35.915 Y-99.324 
G1 X99.324 Y-35.915 
G1 X99.324 Y-35.142 
G1 X35.142 Y-99.324 
G1 X34.369 Y-99.324 
G1 X99.324 Y-34.369 
G1 X99.324 Y-33.597 
G1 X33.597 Y-99.324 
G1 X32.824 Y-99.324 
G1 X99.324 Y-32.824 
G1 X99.324 Y-32.051 
G1 X32.051 Y-99.324 
G1 X31.278 Y-99.324 
G1 X99.324 Y-31.278 
G1 X99.324 Y-30.505 
G1 X30.505 Y-99.324 
G1 X29.733 Y-99.324 
G1 X99.324 Y-29.733 
G1 X99.324 Y-28.960 
G1 X28.960 Y-99.324 
G1 X28.187 Y-99.324 
G1 X99.324 Y-28.187 
G1 X99.324 Y-27.414 
G1 X27.414 Y-99.324 
G1 X26.641 Y-99.324 
G1 X99.324 Y-26.641 
G1 X99.324 Y-25.869 
G1 X25.869 Y-99.324 
G1 X25.096 Y-99.324 
G1 X99.324 Y-25.096 
G1 X99.324 Y-24.323 
G1 X24.323 Y-99.324 
G1 X23.550 Y-99.324 
G1 X99.324 Y-23.550 
G1 X99.324 Y-22.777 
G1 X22.777 Y-99.324 
G1 X22.005 Y-99.324 
G1 X99.324 Y-22.005 
G1 X99.324 Y-21.232 
G1 X21.232 Y-99.324 
G1 X20.459 Y-99.324 
G1 X99.324 Y-20.459 
G1 X99.324 Y-19.686 
G1 X19.686 Y-99.324 
G1 X18.913 Y-99.324 
G1 X99.324 Y-18.913 
G1 X99.324 Y-18.141 
G1 X18.141 Y-99.324 
G1 X17.368 Y-99.324 
G1 X99.324 Y-17.368 
G1 X99.324 Y-16.595 
G1 X16.595 Y-99.324 
G1 X15.822 Y-99.324 
G1 X99.324 Y-15.822 
G1 X99.324 Y-15.049 
G1 X15.049 Y-99.324 
G1 X14.277 Y-99.324 
G1 X99.324 Y-14.277 
G1 X99.324 Y-13.504 
G1 X13.504 Y-99.324 
G1 X12.731 Y-99.324 
G1 X99.324 Y-12.731 
G1 X99.324 Y-11.958 
G1 X11.958 Y-99.324 
G1 X11.185 Y-99.324 
G1 X99.324 Y-11.185 
G1 X99.324 Y-10.413 
G1 X10.413 Y-99.324 
G1 X9.640 Y-99.324 
G1 X99.324 Y-9.640 
G1 X99.324 Y-8.867 
G1 X8.867 Y-99.324 
G1 X8.094 Y-99.324 
G1 X99.324 Y-8.094 
G1 X99.324 Y-7.322 
G1 X7.322 Y-99.324 
G1 X6.549 Y-99.324 
G1 X99.324 Y-6.549 
G1 X99.324 Y-5.776 
G1 X5.776 Y-99.324 
G1 X5.003 Y-99.324 
G1 X99.324 Y-5.003 
G1 X99.324 Y-4.230 
G1 X4.230 Y-99.324 
G1 X3.458 Y-99.324 
G1 X99.324 Y-3.458 
G1 X99.324 Y-2.685 
G1 X2.685 Y-99.324 
G1 X1.912 Y-99.324 
G1 X99.324 Y-1.912 
G1 X99.324 Y-1.139 
G1 X1.139 Y-99.324 
G1 X0.366 Y-99.324 
G1 X99.324 Y-0.366 
G1 X99.324 Y0.406 
G1 X-0.406 Y-99.324 
G1 X-1.179 Y-99.324 
G1 X99.324 Y1.179 
G1 X99.324 Y1.952 
G1 X-1.952 Y-99.324 
G1 X-2.725 Y-99.324 
G1 X99.324 Y2.725 
G1 X99.324 Y3.498 
G1 X-3.498 Y-99.324 
G1 X-4.270 Y-99.324 
G1 X99.324 Y4.270 
G1 X99.324 Y5.043 
G1 X-5.043 Y-99.324 
G1 X-5.816 Y-99.324 
G1 X99.324 Y5.816 
G1 X99.324 Y6.589 
G1 X-6.589 Y-99.324 
G1 X-7.362 Y-99.324 
G1 X99.324 Y7.362 
G1 X99.324 Y8.134 
G1 X-8.134 Y-99.324 
G1 X-8.907 Y-99.324 
G1 X99.324 Y8.907 
G1 X99.324 Y9.680 
G1 X-9.680 Y-99.324 
G1 X-10.453 Y-99.324 
G1 X99.324 Y10.453 
G1 X99.324 Y11.225 
G1 X-11.226 Y-99.324 
G1 X-11.998 Y-99.324 
G1 X99.324 Y11.998 
G1 X99.324 Y12.771 
G1 X-12.771 Y-99.324 
G1 X-13.544 Y-99.324 
G1 X99.324 Y13.544 
G1 X99.324 Y14.317 
G1 X-14.317 Y-99.324 
G1 X-15.089 Y-99.324 
G1 X99.324 Y15.089 
G1 X99.324 Y15.862 
G1 X-15.862 Y-99.324 
G1 X-16.635 Y-99.324 
G1 X99.324 Y16.635 
G1 X99.324 Y17.408 
G1 X-17.408 Y-99.324 
G1 X-18.181 Y-99.324 
G1 X99.324 Y18.181 
G1 X99.324 Y18.953 
G1 X-18.953 Y-99.324 
G1 X-19.726 Y-99.324 
G1 X99.324 Y19.726 
G1 X99.324 Y20.499 
G1 X-20.499 Y-99.324 
G1 X-21.272 Y-99.324 
G1 X99.324 Y21.272 
G1 X99.324 Y22.045 
G1 X-22.045 Y-99.324 
G1 X-22.817 Y-99.324 
G1 X99.324 Y22.817 
G1 X99.324 Y23.590 
G1 X-23.590 Y-99.324 
G1 X-24.363 Y-99.324 
G1 X99.324 Y24.363 
G1 X99.324 Y25.136 
G1 X-25.136 Y-99.324 
G1 X-25.909 Y-99.324 
G1 X99.324 Y25.909 
G1 X99.324 Y26.681 
G1 X-26.681 Y-99.324 
G1 X-27.454 Y-99.324 
G1 X99.324 Y27.454 
G1 X99.324 Y28.227 
G1 X-28.227 Y-99.324 
G1 X-29.000 Y-99.324 
G1 X99.324 Y29.000 
G1 X99.324 Y29.773 
G1 X-29.773 Y-99.324 
G1 X-30.545 Y-99.324 
G1 X99.324 Y30.545 
G1 X99.324 Y31.318 
G1 X-31.318 Y-99.324 
G1 X-32.091 Y-99.324 
G1 X99.324 Y32.091 
G1 X99.324 Y32.864 
G1 X-32.864 Y-99.324 
G1 X-33.637 Y-99.324 
G1 X99.324 Y33.637 
G1 X99.324 Y34.409 
G1 X-34.409 Y-99.324 
G1 X-35.182 Y-99.324 
G1 X99.324 Y35.182 
G1 X99.324 Y35.955 
G1 X-35.955 Y-99.324 
G1 X-36.728 Y-99.324 
G1 X99.324 Y36.728 
G1 X99.324 Y37.500 
G1 X-37.500 Y-99.324 
G1 X-38.273 Y-99.324 
G1 X99.324 Y38.273 
G1 X99.324 Y39.046 
G1 X-39.046 Y-99.324 
G1 X-39.819 Y-99.324 
G1 X99.324 Y39.819 
G1 X99.324 Y40.592 
G1 X-40.592 Y-99.324 
G1 X-41.364 Y-99.324 
G1 X99.324 Y41.364 
G1 X99.324 Y42.137 
G1 X-42.137 Y-99.324 
G1 X-42.910 Y-99.324 
G1 X99.324 Y42.910 
G1 X99.324 Y43.683 
G1 X-43.683 Y-99.324 
G1 X-44.456 Y-99.324 
G1 X99.324 Y44.456 
G1 X99.324 Y45.228 
G1 X-45.228 Y-99.324 
G1 X-46.001 Y-99.324 
G1 X99.324 Y46.001 
G1 X99.324 Y46.774 
G1 X-46.774 Y-99.324 
G1 X-47.547 Y-99.324 
G1 X99.324 Y47.547 
G1 X99.324 Y48.320 
G1 X-48.320 Y-99.324 
G1 X-49.092 Y-99.324 
G1 X99.324 Y49.092 
G1 X99.324 Y49.865 
G1 X-49.865 Y-99.324 
G1 X-50.638 Y-99.324 
G1 X99.324 Y50.638 
G1 X99.324 Y51.411 
G1 X-51.411 Y-99.324 
G1 X-52.184 Y-99.324 
G1 X99.324 Y52.184 
G1 X99.324 Y52.956 
G1 X-52.956 Y-99.324 
G1 X-53.729 Y-99.324 
G1 X99.324 Y53.729 
G1 X99.324 Y54.502 
G1 X-54.502 Y-99.324 
G1 X-55.275 Y-99.324 
G1 X99.324 Y55.275 
G1 X99.324 Y56.048 
G1 X-56.048 Y-99.324 
G1 X-56.820 Y-99.324 
G1 X99.324 Y56.820 
G1 X99.324 Y57.593 
G1 X-57.593 Y-99.324 
G1 X-58.366 Y-99.324 
G1 X99.324 Y58.366 
G1 X99.324 Y59.139 
G1 X-59.139 Y-99.324 
G1 X-59.911 Y-99.324 
G1 X99.324 Y59.911 
G1 X99.324 Y60.684 
G1 X-60.684 Y-99.324 
G1 X-61.457 Y-99.324 
G1 X99.324 Y61.457 
G1 X99.324 Y62.230 
G1 X-62.230 Y-99.324 
G1 X-63.003 Y-99.324 
G1 X99.324 Y63.003 
G1 X99.324 Y63.775 
G1 X-63.775 Y-99.324 
G1 X-64.548 Y-99.324 
G1 X99.324 Y64.548 
G1 X99.324 Y65.321 
G1 X-65.321 Y-99.324 
G1 X-66.094 Y-99.324 
G1 X99.324 Y66.094 
G1 X99.324 Y66.867 
G1 X-66.867 Y-99.324 
G1 X-67.639 Y-99.324 
G1 X99.324 Y67.639 
G1 X99.324 Y68.412 
G1 X-68.412 Y-99.324 
G1 X-69.185 Y-99.324 
G1 X99.324 Y69.185 
G1 X99.324 Y69.958 
G1 X-69.958 Y-99.324 
G1 X-70.731 Y-99.324 
G1 X99.324 Y70.731 
G1 X99.324 Y71.503 
G1 X-71.503 Y-99.324 
G1 X-72.276 Y-99.324 
G1 X99.324 Y72.276 
G1 X99.324 Y73.049 
G1 X-73.049 Y-99.324 
G1 X-73.822 Y-99.324 
G1 X99.324 Y73.822 
G1 X99.324 Y74.595 
G1 X-74.595 Y-99.324 
G1 X-75.367 Y-99.324 
G1 X99.324 Y75.367 
G1 X99.324 Y76.140 
G1 X-76.140 Y-99.324 
G1 X-76.913 Y-99.324 
G1 X99.324 Y76.913 
G1 X99.324 Y77.686 
G1 X-77.686 Y-99.324 
G1 X-78.459 Y-99.324 
G1 X99.324 Y78.459 
G1 X99.324 Y79.231 
G1 X-79.231 Y-99.324 
G1 X-80.004 Y-99.324 
G1 X99.324 Y80.004 
G1 X99.324 Y80.777 
G1 X-80.777 Y-99.324 
G1 X-81.550 Y-99.324 
G1 X99.324 Y81.550 
G1 X99.324 Y82.322 
G1 X-82.322 Y-99.324 
G1 X-83.095 Y-99.324 
G1 X99.324 Y83.095 
G1 X99.324 Y83.868 
G1 X-83.868 Y-99.324 
G1 X-84.641 Y-99.324 
G1 X99.324 Y84.641 
G1 X99.324 Y85.414 
G1 X-85.414 Y-99.324 
G1 X-86.186 Y-99.324 
G1 X99.324 Y86.186 
G1 X99.324 Y86.959 
G1 X-86.959 Y-99.324 
G1 X-87.732 Y-99.324 
G1 X99.324 Y87.732 
G1 X99.324 Y88.505 
G1 X-88.505 Y-99.324 
G1 X-89.278 Y-99.324 
G1 X99.324 Y89.278 
G1 X99.324 Y90.050 
G1 X-90.050 Y-99.324 
G1 X-90.823 Y-99.324 
G1 X99.324 Y90.823 
G1 X99.324 Y91.596 
G1 X-91.596 Y-99.324 
G1 X-92.369 Y-99.324 
G1 X99.324 Y92.369 
G1 X99.324 Y93.142 
G1 X-93.142 Y-99.324 
G1 X-93.914 Y-99.324 
G1 X99.324 Y93.914 
G1 X99.324 Y94.687 
G1 X-94.687 Y-99.324 
G1 X-95.460 Y-99.324 
G1 X99.324 Y95.460 
G1 X99.324 Y96.233 
G1 X-96.233 Y-99.324 
G1 X-97.006 Y-99.324 
G1 X99.324 Y97.006 
G1 X99.324 Y97.778 
G1 X-97.778 Y-99.324 
G1 X-98.551 Y-99.324 
G1 X99.324 Y98.551 
G1 X99.304 Y99.304 
G1 X-99.304 Y-99.304 
G1 X-99.324 Y-98.551 
G1 X98.551 Y99.324 
G1 X97.778 Y99.324 
G1 X-99.324 Y-97.778 
G1 X-99.324 Y-97.006 
G1 X97.006 Y99.324 
G1 X96.233 Y99.324 
G1 X-99.324 Y-96.233 
G1 X-99.324 Y-95.460 
G1 X95.460 Y99.324 
G1 X94.687 Y99.324 
G1 X-99.324 Y-94.687 
G1 X-99.324 Y-93.914 
G1 X93.914 Y99.324 
G1 X93.142 Y99.324 
G1 X-99.324 Y-93.142 
G1 X-99.324 Y-92.369 
G1 X92.369 Y99.324 
G1 X91.596 Y99.324 
G1 X-99.324 Y-91.596 
G1 X-99.324 Y-90.823 
G1 X90.823 Y99.324 
G1 X90.050 Y99.324 
G1 X-99.324 Y-90.050 
G1 X-99.324 Y-89.278 
G1 X89.278 Y99.324 
G1 X88.505 Y99.324 
G1 X-99.324 Y-88.505 
G1 X-99.324 Y-87.732 
G1 X87.732 Y99.324 
G1 X86.959 Y99.324 
G1 X-99.324 Y-86.959 
G1 X-99.324 Y-86.186 
G1 X86.186 Y99.324 
G1 X85.414 Y99.324 
G1 X-99.324 Y-85.414 
G1 X-99.324 Y-84.641 
G1 X84.641 Y99.324 
G1 X83.868 Y99.324 
G1 X-99.324 Y-83.868 
G1 X-99.324 Y-83.095 
G1 X83.095 Y99.324 
G1 X82.322 Y99.324 
G1 X-99.324 Y-82.322 
G1 X-99.324 Y-81.550 
G1 X81.550 Y99.324 
G1 X80.777 Y99.324 
G1 X-99.324 Y-80.777 
G1 X-99.324 Y-80.004 
G1 X80.004 Y99.324 
G1 X79.231 Y99.324 
G1 X-99.324 Y-79.231 
G1 X-99.324 Y-78.459 
G1 X78.459 Y99.324 
G1 X77.686 Y99.324 
G1 X-99.324 Y-77.686 
G1 X-99.324 Y-76.913 
G1 X76.913 Y99.324 
G1 X76.140 Y99.324 
G1 X-99.324 Y-76.140 
G1 X-99.324 Y-75.367 
G1 X75.367 Y99.324 
G1 X74.595 Y99.324 
G1 X-99.324 Y-74.595 
G1 X-99.324 Y-73.822 
G1 X73.822 Y99.324 
G1 X73.049 Y99.324 
G1 X-99.324 Y-73.049 
G1 X-99.324 Y-72.276 
G1 X72.276 Y99.324 
G1 X71.503 Y99.324 
G1 X-99.324 Y-71.503 
G1 X-99.324 Y-70.731 
G1 X70.731 Y99.324 
G1 X69.958 Y99.324 
G1 X-99.324 Y-69.958 
G1 X-99.324 Y-69.185 
G1 X69.185 Y99.324 
G1 X68.412 Y99.324 
G1 X-99.324 Y-68.412 
G1 X-99.324 Y-67.639 
G1 X67.639 Y99.324 
G1 X66.867 Y99.324 
G1 X-99.324 Y-66.867 
G1 X-99.324 Y-66.094 
G1 X66.094 Y99.324 
G1 X65.321 Y99.324 
G1 X-99.324 Y-65.321 
G1 X-99.324 Y-64.548 
G1 X64.548 Y99.324 
G1 X63.775 Y99.324 
G1 X-99.324 Y-63.775 
G1 X-99.324 Y-63.003 
G1 X63.003 Y99.324 
G1 X62.230 Y99.324 
G1 X-99.324 Y-62.230 
G1 X-99.324 Y-61.457 
G1 X61.457 Y99.324 
G1 X60.684 Y99.324 
G1 X-99.324 Y-60.684 
G1 X-99.324 Y-59.911 
G1 X59.911 Y99.324 
G1 X59.139 Y99.324 
G1 X-99.324 Y-59.139 
G1 X-99.324 Y-58.366 
G1 X58.366 Y99.324 
G1 X57.593 Y99.324 
G1 X-99.324 Y-57.593 
G1 X-99.324 Y-56.820 
G1 X56.820 Y99.324 
G1 X56.048 Y99.324 
G1 X-99.324 Y-56.048 
G1 X-99.324 Y-55.275 
G1 X55.275 Y99.324 
G1 X54.502 Y99.324 
G1 X-99.324 Y-54.502 
G1 X-99.324 Y-53.729 
G1 X53.729 Y99.324 
G1 X52.956 Y99.324 
G1 X-99.324 Y-52.956 
G1 X-99.324 Y-52.184 
G1 X52.184 Y99.324 
G1 X51.411 Y99.324 
G1 X-99.324 Y-51.411 
G1 X-99.324 Y-50.638 
G1 X50.638 Y99.324 
G1 X49.865 Y99.324 
G1 X-99.324 Y-49.865 
G1 X-99.324 Y-49.092 
G1 X49.092 Y99.324 
G1 X48.320 Y99.324 
G1 X-99.324 Y-48.320 
G1 X-99.324 Y-47.547 
G1 X47.547 Y99.324 
G1 X46.774 Y99.324 
G1 X-99.324 Y-46.774 
G1 X-99.324 Y-46.001 
G1 X46.001 Y99.324 
G1 X45.228 Y99.324 
G1 X-99.324 Y-45.228 
G1 X-99.324 Y-44.456 
G1 X44.456 Y99.324 
G1 X43.683 Y99.324 
G1 X-99.324 Y-43.683 
G1 X-99.324 Y-42.910 
G1 X42.910 Y99.324 
G1 X42.137 Y99.324 
G1 X-99.324 Y-42.137 
G1 X-99.324 Y-41.364 
G1 X41.364 Y99.324 
G1 X40.592 Y99.324 
G1 X-99.324 Y-40.592 
G1 X-99.324 Y-39.819 
G1 X39.819 Y99.324 
G1 X39.046 Y99.324 
G1 X-99.324 Y-39.046 
G1 X-99.324 Y-38.273 
G1 X38.273 Y99.324 
G1 X37.500 Y99.324 
G1 X-99.324 Y-37.500 
G1 X-99.324 Y-36.728 
