; generated by Slic3r 1.1.7 on 2015-05-30 at 00:57:51
; Profile for Sharebot !
; perimeters extrusion width = 0.40mm
; infill extrusion width = 0.70mm
; solid infill extrusion width = 0.50mm
; top infill extrusion width = 0.40mm
; support material extrusion width = 0.40mm
G21 ; set units to millimeters
;M99 Y0.5 (X Y Z BACKSLASH)
G28 ;Home all axis
G1 Z10 F2000
G1 X100 Y100 F3000
G92
G90 ; use absolute coordinates
G92
M82 ; use absolute distances for extrusion
G1 Z0.200 F1800.000
G1 F1800.000
G1 X-60 Y60
G1 X-60 Y-60
G1 X60 Y-60
G1 X60 Y60
G1 X-60 Y60
G1 X-60 Y-60
G1 X60 Y-60
G1 X60 Y60
G1 X-60 Y60
G1 X-60 Y-60
G1 X60 Y-60
G1 X60 Y60
G1 X-60 Y60
G1 X-60 Y-60
G1 X60 Y-60
G1 X60 Y60
G1 X-60 Y60
G1 X-60 Y-60
G1 X60 Y-60
G1 X60 Y60
G1 X-60 Y60
G1 X-60 Y-60
G1 X60 Y-60
G1 X60 Y60
G1 X-60 Y60
G1 X-60 Y-60
G1 X60 Y-60
G1 X60 Y60
G1 X-60 Y60
G1 X-60 Y-60
G1 X60 Y-60
G1 X60 Y60
G1 X-60 Y60
G1 X-60 Y-60
G1 X60 Y-60
G1 X60 Y60
G1 X-60 Y60
G1 X-60 Y-60
G1 X60 Y-60
G1 X60 Y60
G1 X-60 Y60
G1 X-60 Y-60
G1 X60 Y-60
G1 X60 Y60
G1 X-60 Y60
G1 X-60 Y-60
G1 X60 Y-60
G1 X60 Y60
G1 X-60 Y60
G1 X-60 Y-60
G1 X60 Y-60
G1 X60 Y60
G1 X-60 Y60
G1 X-60 Y-60
G1 X60 Y-60
G1 X60 Y60
G1 X-60 Y60
G1 X-60 Y-60
G1 X60 Y-60
G1 X60 Y60
G1 X-60 Y60
G1 X-60 Y-60
G1 X60 Y-60
G1 X60 Y60
G1 X-60 Y60
G1 X-60 Y-60
G1 X60 Y-60
G1 X60 Y60
G1 X-60 Y60
G1 X-60 Y-60
G1 X60 Y-60
G1 X60 Y60
G1 X-60 Y60
G1 X-60 Y-60
G1 X60 Y-60
G1 X60 Y60
G1 X-60 Y60
G1 X-60 Y-60
G1 X60 Y-60
G1 X60 Y60
G1 X-60 Y60
G1 X-60 Y-60
G1 X60 Y-60
G1 X60 Y60
G1 X-60 Y60
G1 X-60 Y-60
G1 X60 Y-60
G1 X60 Y60
G1 X-60 Y60
G1 X-60 Y-60
G1 X60 Y-60
G1 X60 Y60
G1 X-60 Y60
G1 X-60 Y-60
G1 X60 Y-60
G1 X60 Y60
G1 X-60 Y60
G1 X-60 Y-60
G1 X60 Y-60
G1 X60 Y60
G1 X-60 Y60
G1 X-60 Y-60
G1 X60 Y-60
G1 X60 Y60
G1 X-60 Y60
G1 X-60 Y-60
G1 X60 Y-60
G1 X60 Y60
G1 X-60 Y60
G1 X-60 Y-60
G1 X60 Y-60
G1 X60 Y60
G1 X-60 Y60
G1 X-60 Y-60
G1 X60 Y-60
G1 X60 Y60
G1 X-60 Y60
G1 X-60 Y-60
G1 X60 Y-60
G1 X60 Y60
G1 X-60 Y60
G1 X-60 Y-60
G1 X60 Y-60
G1 X60 Y60
G1 X-60 Y60
G1 X-60 Y-60
G1 X60 Y-60
G1 X60 Y60
G1 X-60 Y60
G1 X-60 Y-60
G1 X60 Y-60
G1 X60 Y60
G1 X-60 Y60
G1 X-60 Y-60
G1 X60 Y-60
G1 X60 Y60
G1 X-60 Y60
G1 X-60 Y-60
G1 X60 Y-60
G1 X60 Y60
G1 X-60 Y60
G1 X-60 Y-60
G1 X60 Y-60
G1 X60 Y60
G1 X-60 Y60
G1 X-60 Y-60
G1 X60 Y-60
G1 X60 Y60
G1 X-60 Y60
G1 X-60 Y-60
G1 X60 Y-60
G1 X60 Y60
G1 X-60 Y60
G1 X-60 Y-60
G1 X60 Y-60
G1 X60 Y60
G1 X-60 Y60
G1 X-60 Y-60
G1 X60 Y-60
G1 X60 Y60
G1 X-60 Y60
G1 X-60 Y-60
G1 X60 Y-60
G1 X60 Y60
G1 X-60 Y60
G1 X-60 Y-60
G1 X60 Y-60
G1 X60 Y60
G1 X-60 Y60
G1 X-60 Y-60
G1 X60 Y-60
G1 X60 Y60
G1 X-60 Y60
G1 X-60 Y-60
G1 X60 Y-60
G1 X60 Y60
G1 X-60 Y60
G1 X-60 Y-60
G1 X60 Y-60
G1 X60 Y60
G1 X-60 Y60
G1 X-60 Y-60
G1 X60 Y-60
G1 X60 Y60
G1 X-60 Y60
G1 X-60 Y-60
G1 X60 Y-60
G1 X60 Y60
G1 X-60 Y60
G1 X-60 Y-60
G1 X60 Y-60
G1 X60 Y60
G1 X-60 Y60
G1 X-60 Y-60
G1 X60 Y-60
G1 X60 Y60
G1 X-60 Y60
G1 X-60 Y-60
G1 X60 Y-60
G1 X60 Y60
G1 X-60 Y60
G1 X-60 Y-60
G1 X60 Y-60
G1 X60 Y60
G1 X-60 Y60
G1 X-60 Y-60
G1 X60 Y-60
G1 X60 Y60
G1 X-60 Y60
G1 X-60 Y-60
G1 X60 Y-60
G1 X60 Y60
G1 X-60 Y60
G1 X-60 Y-60
G1 X60 Y-60
G1 X60 Y60
G1 X-60 Y60
G1 X-60 Y-60
G1 X60 Y-60
G1 X60 Y60
G1 X-60 Y60
G1 X-60 Y-60
G1 X60 Y-60
G1 X60 Y60
G1 X-60 Y60
G1 X-60 Y-60
G1 X60 Y-60
G1 X60 Y60
G1 X-60 Y60
G1 X-60 Y-60
G1 X60 Y-60
G1 X60 Y60
G1 X-60 Y60
G1 X-60 Y-60
G1 X60 Y-60
G1 X60 Y60
G1 X-60 Y60
G1 X-60 Y-60
G1 X60 Y-60
G1 X60 Y60
G1 X-60 Y60
G1 X-60 Y-60
G1 X60 Y-60
G1 X60 Y60
G1 X-60 Y60
G1 X-60 Y-60
G1 X60 Y-60
G1 X60 Y60
G1 X-60 Y60
G1 X-60 Y-60
G1 X60 Y-60
G1 X60 Y60
G1 X-60 Y60
G1 X-60 Y-60
G1 X60 Y-60
G1 X60 Y60
G1 X-60 Y60
G1 X-60 Y-60
G1 X60 Y-60
G1 X60 Y60
G1 X-60 Y60
G1 X-60 Y-60
G1 X60 Y-60
G1 X60 Y60
G1 X-60 Y60
G1 X-60 Y-60
G1 X60 Y-60
G1 X60 Y60
G1 X-60 Y60
G1 X-60 Y-60
G1 X60 Y-60
G1 X60 Y60
G1 X-60 Y60
G1 X-60 Y-60
G1 X60 Y-60
G1 X60 Y60
G1 X-60 Y60
G1 X-60 Y-60
G1 X60 Y-60
G1 X60 Y60
G1 X-60 Y60
G1 X-60 Y-60
G1 X60 Y-60
G1 X60 Y60
G1 X-60 Y60
G1 X-60 Y-60
G1 X60 Y-60
G1 X60 Y60
G1 X-60 Y60
G1 X-60 Y-60
G1 X60 Y-60
G1 X60 Y60
G1 X-60 Y60
G1 X-60 Y-60
G1 X60 Y-60
G1 X60 Y60
G1 X-60 Y60
G1 X-60 Y-60
G1 X60 Y-60
G1 X60 Y60
G1 X-60 Y60
G1 X-60 Y-60
G1 X60 Y-60
G1 X60 Y60
G1 X-60 Y60
G1 X-60 Y-60
G1 X60 Y-60
G1 X60 Y60
G1 X-60 Y60
G1 X-60 Y-60
G1 X60 Y-60
G1 X60 Y60
G1 X-60 Y60
G1 X-60 Y-60
G1 X60 Y-60
G1 X60 Y60
G1 X-60 Y60
G1 X-60 Y-60
G1 X60 Y-60
G1 X60 Y60
G1 X-60 Y60
G1 X-60 Y-60
G1 X60 Y-60
G1 X60 Y60
G1 X-60 Y60
G1 X-60 Y-60
G1 X60 Y-60
G1 X60 Y60
G1 X-60 Y60
G1 X-60 Y-60
G1 X60 Y-60
G1 X60 Y60
G1 X-60 Y60
G1 X-60 Y-60
G1 X60 Y-60
G1 X60 Y60
G1 X-60 Y60
G1 X-60 Y-60
G1 X60 Y-60
G1 X60 Y60
G1 X-60 Y60
G1 X-60 Y-60
G1 X60 Y-60
G1 X60 Y60
G1 X-60 Y60
G1 X-60 Y-60
G1 X60 Y-60
G1 X60 Y60
G1 X-60 Y60
G1 X-60 Y-60
G1 X60 Y-60
G1 X60 Y60
G1 X-60 Y60
G1 X-60 Y-60
G1 X60 Y-60
G1 X60 Y60
G1 X-60 Y60
G1 X-60 Y-60
G1 X60 Y-60
G1 X60 Y60
G1 X-60 Y60
G1 X-60 Y-60
G1 X60 Y-60
G1 X60 Y60
G1 X-60 Y60
G1 X-60 Y-60
G1 X60 Y-60
G1 X60 Y60
G1 X-60 Y60
G1 X-60 Y-60
G1 X60 Y-60
G1 X60 Y60
G1 X-60 Y60
G1 X-60 Y-60
G1 X60 Y-60
G1 X60 Y60
G1 X-60 Y60
G1 X-60 Y-60
G1 X60 Y-60
G1 X60 Y60
G1 X-60 Y60
G1 X-60 Y-60
G1 X60 Y-60
G1 X60 Y60
G1 X-60 Y60
G1 X-60 Y-60
G1 X60 Y-60
G1 X60 Y60
G1 X-60 Y60
G1 X-60 Y-60
G1 X60 Y-60
G1 X60 Y60
G1 X-60 Y60
G1 X-60 Y-60
G1 X60 Y-60
G1 X60 Y60
G1 X-60 Y60
G1 X-60 Y-60
G1 X60 Y-60
G1 X60 Y60
G1 X-60 Y60
G1 X-60 Y-60
G1 X60 Y-60
G1 X60 Y60
G1 X-60 Y60
G1 X-60 Y-60
G1 X60 Y-60
G1 X60 Y60
G1 X-60 Y60
G1 X-60 Y-60
G1 X60 Y-60
G1 X60 Y60
G1 X-60 Y60
G1 X-60 Y-60
G1 X60 Y-60
G1 X60 Y60
G1 X-60 Y60
G1 X-60 Y-60
G1 X60 Y-60
G1 X60 Y60
G1 X-60 Y60
G1 X-60 Y-60
G1 X60 Y-60
G1 X60 Y60
G1 X-60 Y60
G1 X-60 Y-60
G1 X60 Y-60
G1 X60 Y60
G1 X-60 Y60
G1 X-60 Y-60
G1 X60 Y-60
G1 X60 Y60
G1 X-60 Y60
G1 X-60 Y-60
G1 X60 Y-60
G1 X60 Y60
G1 X-60 Y60
G1 X-60 Y-60
G1 X60 Y-60
G1 X60 Y60
G1 X-60 Y60
G1 X-60 Y-60
G1 X60 Y-60
G1 X60 Y60
G1 X-60 Y60
G1 X-60 Y-60
G1 X60 Y-60
G1 X60 Y60
G1 X-60 Y60
G1 X-60 Y-60
G1 X60 Y-60
G1 X60 Y60
G1 X-60 Y60
G1 X-60 Y-60
G1 X60 Y-60
G1 X60 Y60
G1 X-60 Y60
G1 X-60 Y-60
G1 X60 Y-60
G1 X60 Y60
G1 X-60 Y60
G1 X-60 Y-60
G1 X60 Y-60
G1 X60 Y60
G1 X-60 Y60
G1 X-60 Y-60
G1 X60 Y-60
G1 X60 Y60
G1 X-60 Y60
G1 X-60 Y-60
G1 X60 Y-60
G1 X60 Y60
G1 X-60 Y60
G1 X-60 Y-60
G1 X60 Y-60
G1 X60 Y60
G1 X-60 Y60
G1 X-60 Y-60
G1 X60 Y-60
G1 X60 Y60
G1 X-60 Y60
G1 X-60 Y-60
G1 X60 Y-60
G1 X60 Y60
G1 X-60 Y60
G1 X-60 Y-60
G1 X60 Y-60
G1 X60 Y60
G1 X-60 Y60
G1 X-60 Y-60
G1 X60 Y-60
G1 X60 Y60
G1 X-60 Y60
G1 X-60 Y-60
G1 X60 Y-60
G1 X60 Y60
G1 X-60 Y60
G1 X-60 Y-60
G1 X60 Y-60
G1 X60 Y60
G1 X-60 Y60
G1 X-60 Y-60
G1 X60 Y-60
G1 X60 Y60
G1 X-60 Y60
G1 X-60 Y-60
G1 X60 Y-60
G1 X60 Y60
G1 X-60 Y60
G1 X-60 Y-60
G1 X60 Y-60
G1 X60 Y60
G1 X-60 Y60
G1 X-60 Y-60
G1 X60 Y-60
G1 X60 Y60
G1 X-60 Y60
G1 X-60 Y-60
G1 X60 Y-60
G1 X60 Y60
G1 X-60 Y60
G1 X-60 Y-60
G1 X60 Y-60
G1 X60 Y60
G1 X-60 Y60
G1 X-60 Y-60
G1 X60 Y-60
G1 X60 Y60
G1 X-60 Y60
G1 X-60 Y-60
G1 X60 Y-60
G1 X60 Y60
G1 X-60 Y60
G1 X-60 Y-60
G1 X60 Y-60
G1 X60 Y60
G1 X-60 Y60
G1 X-60 Y-60
G1 X60 Y-60
G1 X60 Y60
G1 X-60 Y60
G1 X-60 Y-60
G1 X60 Y-60
G1 X60 Y60
G1 X-60 Y60
G1 X-60 Y-60
G1 X60 Y-60
G1 X60 Y60
G1 X-60 Y60
G1 X-60 Y-60
G1 X60 Y-60
G1 X60 Y60
G1 X-60 Y60
G1 X-60 Y-60
G1 X60 Y-60
G1 X60 Y60
G1 X-60 Y60
G1 X-60 Y-60
G1 X60 Y-60
G1 X60 Y60
G1 X-60 Y60
G1 X-60 Y-60
G1 X60 Y-60
G1 X60 Y60
G1 X-60 Y60
G1 X-60 Y-60
G1 X60 Y-60
G1 X60 Y60
G1 X-60 Y60
G1 X-60 Y-60
G1 X60 Y-60
G1 X60 Y60
G1 X-60 Y60
G1 X-60 Y-60
G1 X60 Y-60
G1 X60 Y60
G1 X-60 Y60
G1 X-60 Y-60
G1 X60 Y-60
G1 X60 Y60
G1 X-60 Y60
G1 X-60 Y-60
G1 X60 Y-60
G1 X60 Y60
G1 X-60 Y60
G1 X-60 Y-60
G1 X60 Y-60
G1 X60 Y60
G1 X-60 Y60
G1 X-60 Y-60
G1 X60 Y-60
G1 X60 Y60
G1 X-60 Y60
G1 X-60 Y-60
G1 X60 Y-60
G1 X60 Y60
G1 X-60 Y60
G1 X-60 Y-60
G1 X60 Y-60
G1 X60 Y60
G1 X-60 Y60
G1 X-60 Y-60
G1 X60 Y-60
G1 X60 Y60
G1 X-60 Y60
G1 X-60 Y-60
G1 X60 Y-60
G1 X60 Y60
G1 X-60 Y60
G1 X-60 Y-60
G1 X60 Y-60
G1 X60 Y60
G1 X-60 Y60
G1 X-60 Y-60
G1 X60 Y-60
G1 X60 Y60
G1 X-60 Y60
G1 X-60 Y-60
G1 X60 Y-60
G1 X60 Y60
G1 X-60 Y60
G1 X-60 Y-60
G1 X60 Y-60
G1 X60 Y60
G1 X-60 Y60
G1 X-60 Y-60
G1 X60 Y-60
G1 X60 Y60
G1 X-60 Y60
G1 X-60 Y-60
G1 X60 Y-60
G1 X60 Y60
G1 X-60 Y60
G1 X-60 Y-60
G1 X60 Y-60
G1 X60 Y60
G1 X-60 Y60
G1 X-60 Y-60
G1 X60 Y-60
G1 X60 Y60
G1 X-60 Y60
G1 X-60 Y-60
G1 X60 Y-60
G1 X60 Y60
G1 X-60 Y60
G1 X-60 Y-60
G1 X60 Y-60
G1 X60 Y60
G1 X-60 Y60
G1 X-60 Y-60
G1 X60 Y-60
G1 X60 Y60
G1 X-60 Y60
G1 X-60 Y-60
G1 X60 Y-60
G1 X60 Y60
G1 X-60 Y60
G1 X-60 Y-60
G1 X60 Y-60
G1 X60 Y60
G1 X-60 Y60
G1 X-60 Y-60
G1 X60 Y-60
G1 X60 Y60
G1 X-60 Y60
G1 X-60 Y-60
G1 X60 Y-60
G1 X60 Y60
G1 X-60 Y60
G1 X-60 Y-60
G1 X60 Y-60
G1 X60 Y60
G1 X-60 Y60
G1 X-60 Y-60
G1 X60 Y-60
G1 X60 Y60
G1 X-60 Y60
G1 X-60 Y-60
G1 X60 Y-60
G1 X60 Y60
G1 X-60 Y60
G1 X-60 Y-60
G1 X60 Y-60
G1 X60 Y60
G1 X-60 Y60
G1 X-60 Y-60
G1 X60 Y-60
G1 X60 Y60
G1 X-60 Y60
G1 X-60 Y-60
G1 X60 Y-60
G1 X60 Y60
G1 X-60 Y60
G1 X-60 Y-60
G1 X60 Y-60
G1 X60 Y60
G1 X-60 Y60
G1 X-60 Y-60
G1 X60 Y-60
G1 X60 Y60
G1 X-60 Y60
G1 X-60 Y-60
G1 X60 Y-60
G1 X60 Y60
G1 X-60 Y60
G1 X-60 Y-60
G1 X60 Y-60
G1 X60 Y60
G1 X-60 Y60
G1 X-60 Y-60
G1 X60 Y-60
G1 X60 Y60
G1 X-60 Y60
G1 X-60 Y-60
G1 X60 Y-60
G1 X60 Y60
G1 X-60 Y60
G1 X-60 Y-60
G1 X60 Y-60
G1 X60 Y60
G1 X-60 Y60
G1 X-60 Y-60
G1 X60 Y-60
G1 X60 Y60
G1 X-60 Y60
G1 X-60 Y-60
G1 X60 Y-60
G1 X60 Y60
G1 X-60 Y60
G1 X-60 Y-60
G1 X60 Y-60
G1 X60 Y60
G1 X-60 Y60
G1 X-60 Y-60
G1 X60 Y-60
G1 X60 Y60
G1 X-60 Y60
G1 X-60 Y-60
G1 X60 Y-60
G1 X60 Y60
G1 X-60 Y60
G1 X-60 Y-60
G1 X60 Y-60
G1 X60 Y60
G1 X-60 Y60
G1 X-60 Y-60
G1 X60 Y-60
G1 X60 Y60
G1 X-60 Y60
G1 X-60 Y-60
G1 X60 Y-60
G1 X60 Y60
G1 X-60 Y60
G1 X-60 Y-60
G1 X60 Y-60
G1 X60 Y60
G1 X-60 Y60
G1 X-60 Y-60
G1 X60 Y-60
G1 X60 Y60
G1 X-60 Y60
G1 X-60 Y-60
G1 X60 Y-60
G1 X60 Y60
G1 X-60 Y60
G1 X-60 Y-60
G1 X60 Y-60
G1 X60 Y60
G1 X-60 Y60
G1 X-60 Y-60
G1 X60 Y-60
G1 X60 Y60
G1 X-60 Y60
G1 X-60 Y-60
G1 X60 Y-60
G1 X60 Y60
G1 X-60 Y60
G1 X-60 Y-60
G1 X60 Y-60
G1 X60 Y60
G1 X-60 Y60
G1 X-60 Y-60
G1 X60 Y-60
G1 X60 Y60
G1 X-60 Y60
G1 X-60 Y-60
G1 X60 Y-60
G1 X60 Y60
G1 X-60 Y60
G1 X-60 Y-60
G1 X60 Y-60
G1 X60 Y60
G1 X-60 Y60
G1 X-60 Y-60
G1 X60 Y-60
G1 X60 Y60
G1 X-60 Y60
G1 X-60 Y-60
G1 X60 Y-60
G1 X60 Y60
G1 X-60 Y60
G1 X-60 Y-60
G1 X60 Y-60
G1 X60 Y60
G1 X-60 Y60
G1 X-60 Y-60
G1 X60 Y-60
G1 X60 Y60
G1 X-60 Y60
G1 X-60 Y-60
G1 X60 Y-60
G1 X60 Y60
G1 X-60 Y60
G1 X-60 Y-60
G1 X60 Y-60
G1 X60 Y60
G1 X-60 Y60
G1 X-60 Y-60
G1 X60 Y-60
G1 X60 Y60
G1 X-60 Y60
G1 X-60 Y-60
G1 X60 Y-60
G1 X60 Y60
G1 X-60 Y60
G1 X-60 Y-60
G1 X60 Y-60
G1 X60 Y60
G1 X-60 Y60
G1 X-60 Y-60
G1 X60 Y-60
G1 X60 Y60
G1 X-60 Y60
G1 X-60 Y-60
G1 X60 Y-60
G1 X60 Y60
G1 X-60 Y60
G1 X-60 Y-60
G1 X60 Y-60
G1 X60 Y60
G1 X-60 Y60
G1 X-60 Y-60
G1 X60 Y-60
G1 X60 Y60
G1 X-60 Y60
G1 X-60 Y-60
G1 X60 Y-60
G1 X60 Y60
G1 X-60 Y60
G1 X-60 Y-60
G1 X60 Y-60
G1 X60 Y60
G1 X-60 Y60
G1 X-60 Y-60
G1 X60 Y-60
G1 X60 Y60
G1 X-60 Y60
G1 X-60 Y-60
G1 X60 Y-60
G1 X60 Y60
G1 X-60 Y60
G1 X-60 Y-60
G1 X60 Y-60
G1 X60 Y60
G1 X-60 Y60
G1 X-60 Y-60
G1 X60 Y-60
G1 X60 Y60
G1 X-60 Y60
G1 X-60 Y-60
G1 X60 Y-60
G1 X60 Y60
G1 X-60 Y60
G1 X-60 Y-60
G1 X60 Y-60
G1 X60 Y60
G1 X-60 Y60
G1 X-60 Y-60
G1 X60 Y-60
G1 X60 Y60
G1 X-60 Y60
G1 X-60 Y-60
G1 X60 Y-60
G1 X60 Y60
G1 X-60 Y60
G1 X-60 Y-60
G1 X60 Y-60
G1 X60 Y60
G1 X-60 Y60
G1 X-60 Y-60
G1 X60 Y-60
G1 X60 Y60
G1 X-60 Y60
G1 X-60 Y-60
G1 X60 Y-60
G1 X60 Y60
G1 X-60 Y60
G1 X-60 Y-60
G1 X60 Y-60
G1 X60 Y60
G1 X-60 Y60
G1 X-60 Y-60
G1 X60 Y-60
G1 X60 Y60
G1 X-60 Y60
G1 X-60 Y-60
G1 X60 Y-60
G1 X60 Y60
G1 X-60 Y60
G1 X-60 Y-60
G1 X60 Y-60
G1 X60 Y60
G1 X-60 Y60
G1 X-60 Y-60
G1 X60 Y-60
G1 X60 Y60
G1 X-60 Y60
G1 X-60 Y-60
G1 X60 Y-60
G1 X60 Y60
G1 X-60 Y60
G1 X-60 Y-60
G1 X60 Y-60
G1 X60 Y60
G1 X-60 Y60
G1 X-60 Y-60
G1 X60 Y-60
G1 X60 Y60
G1 X-60 Y60
G1 X-60 Y-60
G1 X60 Y-60
G1 X60 Y60
G1 X-60 Y60
G1 X-60 Y-60
G1 X60 Y-60
G1 X60 Y60
G1 X-60 Y60
G1 X-60 Y-60
G1 X60 Y-60
G1 X60 Y60
G1 X-60 Y60
G1 X-60 Y-60
G1 X60 Y-60
G1 X60 Y60
G1 X-60 Y60
G1 X-60 Y-60
G1 X60 Y-60
G1 X60 Y60
G1 X-60 Y60
G1 X-60 Y-60
G1 X60 Y-60
G1 X60 Y60
G1 X-60 Y60
G1 X-60 Y-60
G1 X60 Y-60
G1 X60 Y60
G1 X-60 Y60
G1 X-60 Y-60
G1 X60 Y-60
G1 X60 Y60
G1 X-60 Y60
G1 X-60 Y-60
G1 X60 Y-60
G1 X60 Y60
G1 X-60 Y60
G1 X-60 Y-60
G1 X60 Y-60
G1 X60 Y60
G1 X-60 Y60
G1 X-60 Y-60
G1 X60 Y-60
G1 X60 Y60
G1 X-60 Y60
G1 X-60 Y-60
G1 X60 Y-60
G1 X60 Y60
G1 X-60 Y60
G1 X-60 Y-60
G1 X60 Y-60
G1 X60 Y60
G1 X-60 Y60
G1 X-60 Y-60
G1 X60 Y-60
G1 X60 Y60
G1 X-60 Y60
G1 X-60 Y-60
G1 X60 Y-60
G1 X60 Y60
G1 X-60 Y60
G1 X-60 Y-60
G1 X60 Y-60
G1 X60 Y60
G1 X-60 Y60
G1 X-60 Y-60
G1 X60 Y-60
G1 X60 Y60
G1 X-60 Y60
G1 X-60 Y-60
G1 X60 Y-60
G1 X60 Y60
G1 X-60 Y60
G1 X-60 Y-60
G1 X60 Y-60
G1 X60 Y60
G1 X-60 Y60
G1 X-60 Y-60
G1 X60 Y-60
G1 X60 Y60
G1 X-60 Y60
G1 X-60 Y-60
G1 X60 Y-60
G1 X60 Y60
G1 X-60 Y60
G1 X-60 Y-60
G1 X60 Y-60
G1 X60 Y60
G1 X-60 Y60
G1 X-60 Y-60
G1 X60 Y-60
G1 X60 Y60
G1 X-60 Y60
G1 X-60 Y-60
G1 X60 Y-60
G1 X60 Y60
G1 X-60 Y60
G1 X-60 Y-60
G1 X60 Y-60
G1 X60 Y60
G1 X-60 Y60
G1 X-60 Y-60
G1 X60 Y-60
G1 X60 Y60
G1 X-60 Y60
G1 X-60 Y-60
G1 X60 Y-60
G1 X60 Y60
G1 X-60 Y60
G1 X-60 Y-60
G1 X60 Y-60
G1 X60 Y60
G1 X-60 Y60
G1 X-60 Y-60
G1 X60 Y-60
G1 X60 Y60
G1 X-60 Y60
G1 X-60 Y-60
G1 X60 Y-60
G1 X60 Y60
G1 X-60 Y60
G1 X-60 Y-60
G1 X60 Y-60
G1 X60 Y60
G1 X-60 Y60
G1 X-60 Y-60
G1 X60 Y-60
G1 X60 Y60
G1 X-60 Y60
G1 X-60 Y-60
G1 X60 Y-60
G1 X60 Y60
G1 X-60 Y60
G1 X-60 Y-60
G1 X60 Y-60
G1 X60 Y60
G1 X-60 Y60
G1 X-60 Y-60
G1 X60 Y-60
G1 X60 Y60
G1 X-60 Y60
G1 X-60 Y-60
G1 X60 Y-60
G1 X60 Y60
G1 X-60 Y60
G1 X-60 Y-60
G1 X60 Y-60
G1 X60 Y60
G1 X-60 Y60
G1 X-60 Y-60
G1 X60 Y-60
G1 X60 Y60
G1 X-60 Y60
G1 X-60 Y-60
G1 X60 Y-60
G1 X60 Y60
G1 X-60 Y60
G1 X-60 Y-60
G1 X60 Y-60
G1 X60 Y60
G1 X-60 Y60
G1 X-60 Y-60
G1 X60 Y-60
G1 X60 Y60
G1 X-60 Y60
G1 X-60 Y-60
G1 X60 Y-60
G1 X60 Y60
G1 X-60 Y60
G1 X-60 Y-60
G1 X60 Y-60
G1 X60 Y60
G1 X-60 Y60
G1 X-60 Y-60
G1 X60 Y-60
G1 X60 Y60
G1 X-60 Y60
G1 X-60 Y-60
G1 X60 Y-60
G1 X60 Y60
G1 X-60 Y60
G1 X-60 Y-60
G1 X60 Y-60
G1 X60 Y60
G1 X-60 Y60
G1 X-60 Y-60
G1 X60 Y-60
G1 X60 Y60
G1 X-60 Y60
G1 X-60 Y-60
G1 X60 Y-60
G1 X60 Y60
G1 X-60 Y60
G1 X-60 Y-60
G1 X60 Y-60
G1 X60 Y60
G1 X-60 Y60
G1 X-60 Y-60
G1 X60 Y-60
G1 X60 Y60
G1 X-60 Y60
G1 X-60 Y-60
G1 X60 Y-60
G1 X60 Y60
G1 X-60 Y60
G1 X-60 Y-60
G1 X60 Y-60
G1 X60 Y60
G1 X-60 Y60
G1 X-60 Y-60
G1 X60 Y-60
G1 X60 Y60
G1 X-60 Y60
G1 X-60 Y-60
G1 X60 Y-60
G1 X60 Y60
G1 X-60 Y60
G1 X-60 Y-60
G1 X60 Y-60
G1 X60 Y60
G1 X-60 Y60
G1 X-60 Y-60
G1 X60 Y-60
G1 X60 Y60
G1 X-60 Y60
G1 X-60 Y-60
G1 X60 Y-60
G1 X60 Y60
G1 X-60 Y60
G1 X-60 Y-60
G1 X60 Y-60
G1 X60 Y60
G1 X-60 Y60
G1 X-60 Y-60
G1 X60 Y-60
G1 X60 Y60
G1 X-60 Y60
G1 X-60 Y-60
G1 X60 Y-60
G1 X60 Y60
G1 X-60 Y60
G1 X-60 Y-60
G1 X60 Y-60
G1 X60 Y60
G1 X-60 Y60
G1 X-60 Y-60
G1 X60 Y-60
G1 X60 Y60
G1 X-60 Y60
G1 X-60 Y-60
G1 X60 Y-60
G1 X60 Y60
G1 X-60 Y60
G1 X-60 Y-60
G1 X60 Y-60
G1 X60 Y60
G1 X-60 Y60
G1 X-60 Y-60
G1 X60 Y-60
G1 X60 Y60
G1 X-60 Y60
G1 X-60 Y-60
G1 X60 Y-60
G1 X60 Y60
G1 X-60 Y60
G1 X-60 Y-60
G1 X60 Y-60
G1 X60 Y60
G1 X-60 Y60
G1 X-60 Y-60
G1 X60 Y-60
G1 X60 Y60
G1 X-60 Y60
G1 X-60 Y-60
G1 X60 Y-60
G1 X60 Y60
G1 X-60 Y60
G1 X-60 Y-60
G1 X60 Y-60
G1 X60 Y60
G1 X-60 Y60
G1 X-60 Y-60
G1 X60 Y-60
G1 X60 Y60
G1 X-60 Y60
G1 X-60 Y-60
G1 X60 Y-60
G1 X60 Y60
G1 X-60 Y60
G1 X-60 Y-60
G1 X60 Y-60
G1 X60 Y60
G1 X-60 Y60
G1 X-60 Y-60
G1 X60 Y-60
G1 X60 Y60
G1 X-60 Y60
G1 X-60 Y-60
G1 X60 Y-60
G1 X60 Y60
G1 X-60 Y60
G1 X-60 Y-60
G1 X60 Y-60
G1 X60 Y60
G1 X-60 Y60
G1 X-60 Y-60
G1 X60 Y-60
G1 X60 Y60
G1 X-60 Y60
G1 X-60 Y-60
G1 X60 Y-60
G1 X60 Y60
G1 X-60 Y60
G1 X-60 Y-60
G1 X60 Y-60
G1 X60 Y60
G1 X-60 Y60
G1 X-60 Y-60
G1 X60 Y-60
G1 X60 Y60
G1 X-60 Y60
G1 X-60 Y-60
G1 X60 Y-60
G1 X60 Y60
G1 X-60 Y60
G1 X-60 Y-60
G1 X60 Y-60
G1 X60 Y60
G1 X-60 Y60
G1 X-60 Y-60
G1 X60 Y-60
G1 X60 Y60
G1 X-60 Y60
G1 X-60 Y-60
G1 X60 Y-60
G1 X60 Y60
G1 X-60 Y60
G1 X-60 Y-60
G1 X60 Y-60
G1 X60 Y60
G1 X-60 Y60
G1 X-60 Y-60
G1 X60 Y-60
G1 X60 Y60
G1 X-60 Y60
G1 X-60 Y-60
G1 X60 Y-60
G1 X60 Y60
G1 X-60 Y60
G1 X-60 Y-60
G1 X60 Y-60
G1 X60 Y60
G1 X-60 Y60
G1 X-60 Y-60
G1 X60 Y-60
G1 X60 Y60
G1 X-60 Y60
G1 X-60 Y-60
G1 X60 Y-60
G1 X60 Y60
G1 X-60 Y60
G1 X-60 Y-60
G1 X60 Y-60
