;PYCAM-META-DATA: Filename: /run/media/andrea/homefs/Programmi/git/RAM/note/quadrato_10cm.svg
;PYCAM-META-DATA: Timestamp: 2015-06-08 21:17:08.278269
;PYCAM-META-DATA: Version: 0.5.1
;Estimated machine time: 18 minutes
G40 (disable tool radius compensation)
G49 (disable tool length compensation)
G80 (cancel modal motion)
G54 (select coordinate system 1)
G90 (disable incremental moves)
G21 (metric)
G61 (exact path mode)
F200.00000
S1000.00000
;PYCAM_TOOLPATH_SETTINGS: START
;[Bounds]
;maxz = 0.0
;maxx = 58.49978
;maxy = 58.50011
;minx = -58.49998
;miny = -58.50001
;minz = 0.0
;
;[Tool]
;torus_radius = 0.25
;speed = 1000.0
;shape = CylindricalCutter
;tool_radius = 1.5
;feedrate = 200.0
;
;[Process]
;engrave_offset = 0.0
;step_down = 1.0
;generator = EngraveCutter
;postprocessor = SimpleCutter
;overlap_percent = 0
;milling_style = conventional
;material_allowance = 0.0
;pocketing_type = none
;path_direction = x
;
;PYCAM_TOOLPATH_SETTINGS: END
T1 M6
G0 Z25.0000
M3 (start spindle)
G04 P3 (wait for 3 seconds)
 X24.9108 Y24.7291
G1 Z0.0000
 X25.2318 Y24.7151
 X25.5348 Y24.6751
 X25.8208 Y24.6071
 X26.0888 Y24.5141
 X26.3388 Y24.3941
 X26.5718 Y24.2471
 X26.7878 Y24.0741
 X26.9848 Y23.8721
 X27.1598 Y23.6461
 X27.3128 Y23.4001
 X27.4418 Y23.1351
 X27.5488 Y22.8491
 X27.6308 Y22.5421
 X27.6908 Y22.2141
 X27.7248 Y21.8671
 X27.7378 Y21.4971
 X27.7248 Y21.1301
 X27.6888 Y20.7831
 X27.6308 Y20.4561
 X27.5468 Y20.1491
 X27.4418 Y19.8621
 X27.3138 Y19.5971
 X27.1608 Y19.3511
 X26.9848 Y19.1261
 X26.7858 Y18.9241
 X26.5708 Y18.7501
 X26.3388 Y18.6011
 X26.0888 Y18.4811
 X25.8208 Y18.3861
 X25.5358 Y18.3191
 X25.2318 Y18.2791
 X24.9108 Y18.2671
 X24.5888 Y18.2791
 X24.2848 Y18.3191
 X23.9968 Y18.3861
 X23.7288 Y18.4811
 X23.4788 Y18.6011
 X23.2468 Y18.7501
 X23.0318 Y18.9251
 X22.8358 Y19.1261
 X22.6588 Y19.3511
 X22.5058 Y19.5961
 X22.3768 Y19.8621
 X22.2708 Y20.1491
 X22.1898 Y20.4561
 X22.1318 Y20.7821
 X22.0968 Y21.1301
 X22.0848 Y21.4971
 X22.0958 Y21.8671
 X22.1308 Y22.2151
 X22.1888 Y22.5431
 X22.2718 Y22.8501
 X22.3778 Y23.1361
 X22.5068 Y23.4031
 X22.6598 Y23.6471
 X22.8358 Y23.8721
 X23.0308 Y24.0721
 X23.2458 Y24.2461
 X23.4778 Y24.3931
 X23.7278 Y24.5141
 X23.9968 Y24.6081
 X24.2848 Y24.6751
 X24.5888 Y24.7151
 X24.9108 Y24.7291
G0 Z25.0000
 X19.1198 Y26.3531
G1 Z0.0000
 Y24.5941
 X21.2018
 Y23.8101
 X19.1198
 Y20.4541
 X19.1308 Y20.1081
 X19.1698 Y19.8311
 X19.2348 Y19.6221
 X19.3258 Y19.4821
 X19.4538 Y19.3861
 X19.6368 Y19.3191
 X19.8738 Y19.2791
 X20.1638 Y19.2671
 X21.2018
 Y18.4281
 X20.1638
 X19.8808 Y18.4351
 X19.6208 Y18.4561
 X19.3828 Y18.4901
 X19.1688 Y18.5371
 X18.9768 Y18.5991
 X18.8088 Y18.6741
 X18.6628 Y18.7621
 X18.5388 Y18.8641
 X18.4338 Y18.9851
 X18.3428 Y19.1261
 X18.2658 Y19.2921
 X18.2038 Y19.4791
 X18.1548 Y19.6891
 X18.1198 Y19.9221
 X18.0988 Y20.1761
 X18.0918 Y20.4541
 Y23.8101
 X17.3618
 Y24.5941
 X18.0918
 Y26.3531
 X19.1198
G0 Z25.0000
 X15.9878 Y21.9531
G1 Z0.0000
 Y18.4281
 X14.9868
 Y19.3471
 X14.8018 Y19.0891
 X14.5968 Y18.8651
 X14.3708 Y18.6791
 X14.1238 Y18.5291
 X13.8498 Y18.4141
 X13.5478 Y18.3321
 X13.2178 Y18.2821
 X12.8588 Y18.2671
 X12.6278 Y18.2741
 X12.4088 Y18.2991
 X12.2028 Y18.3401
 X12.0088 Y18.3991
 X11.8268 Y18.4741
 X11.6568 Y18.5651
 X11.4998 Y18.6741
 X11.3538 Y18.7971
 X11.2218 Y18.9361
 X11.1078 Y19.0851
 X11.0118 Y19.2461
 X10.9338 Y19.4191
 X10.8728 Y19.6031
 X10.8298 Y19.7991
 X10.8038 Y20.0051
 X10.7958 Y20.2221
 X10.8048 Y20.4751
 X10.8378 Y20.7111
 X10.8918 Y20.9321
 X10.9678 Y21.1361
 X11.0658 Y21.3251
 X11.1858 Y21.4971
 X11.3268 Y21.6531
 X11.4898 Y21.7931
 X11.6728 Y21.9171
 X11.8788 Y22.0251
 X12.1058 Y22.1151
 X12.3538 Y22.1901
 X12.6248 Y22.2471
 X12.9158 Y22.2891
 X13.2288 Y22.3141
 X13.5628 Y22.3221
 X14.9868
 Y22.4191
 X14.9578 Y22.7441
 X14.8718 Y23.0301
 X14.7288 Y23.2781
 X14.5288 Y23.4861
 X14.2758 Y23.6511
 X13.9768 Y23.7691
 X13.6328 Y23.8401
 X13.2418 Y23.8641
 X12.7208 Y23.8321
 X12.2158 Y23.7361
 X11.7238 Y23.5751
 X11.2548 Y23.3501
 Y24.2971
 X11.7988 Y24.4851
 X12.3288 Y24.6211
 X12.8418 Y24.7011
 X13.3418 Y24.7291
 X13.6648 Y24.7181
 X13.9658 Y24.6851
 X14.2458 Y24.6321
 X14.5048 Y24.5561
 X14.7428 Y24.4601
 X14.9598 Y24.3421
 X15.1558 Y24.2011
 X15.3308 Y24.0401
 X15.4838 Y23.8571
 X15.6178 Y23.6511
 X15.7308 Y23.4241
 X15.8228 Y23.1741
 X15.8948 Y22.9011
 X15.9468 Y22.6081
 X15.9778 Y22.2921
 X15.9878 Y21.9531
G0 Z25.0000
 X8.0378 Y26.9751
G1 Z0.0000
 X9.0378
 Y18.4281
 X8.0378
 Y26.9751
G0 Z25.0000
 X20.1328 Y-15.8989
G1 Z0.0000
 X20.1148 Y-16.2599
 X20.0608 Y-16.6099
 X19.9738 Y-16.9479
 X19.8558 Y-17.2719
 X19.7068 Y-17.5809
 X19.5298 Y-17.8719
 X19.3268 Y-18.1429
 X19.0998 Y-18.3939
 X18.8488 Y-18.6209
 X18.5768 Y-18.8239
 X18.2868 Y-19.0009
 X17.9778 Y-19.1499
 X17.6538 Y-19.2679
 X17.3158 Y-19.3549
 X16.9658 Y-19.4089
 X16.6048 Y-19.4269
 X16.2438 Y-19.4089
 X15.8938 Y-19.3549
 X15.5558 Y-19.2679
 X15.2318 Y-19.1499
 X14.9228 Y-19.0009
 X14.6318 Y-18.8239
 X14.3608 Y-18.6209
 X14.1098 Y-18.3939
 X13.8828 Y-18.1429
 X13.6798 Y-17.8719
 X13.5028 Y-17.5809
 X13.3538 Y-17.2719
 X13.2358 Y-16.9479
 X13.1488 Y-16.6099
 X13.0948 Y-16.2599
 X13.0768 Y-15.8989
 X13.0948 Y-15.5379
 X13.1488 Y-15.1879
 X13.2358 Y-14.8499
 X13.3538 Y-14.5259
 X13.5028 Y-14.2169
 X13.6798 Y-13.9259
 X13.8828 Y-13.6549
 X14.1098 Y-13.4039
 X14.3608 Y-13.1769
 X14.6318 Y-12.9739
 X14.9228 Y-12.7969
 X15.2318 Y-12.6489
 X15.5558 Y-12.5299
 X15.8938 Y-12.4429
 X16.2438 Y-12.3889
 X16.6048 Y-12.3709
 X16.9658 Y-12.3889
 X17.3158 Y-12.4429
 X17.6538 Y-12.5299
 X17.9778 Y-12.6489
 X18.2868 Y-12.7969
 X18.5768 Y-12.9739
 X18.8488 Y-13.1769
 X19.0998 Y-13.4039
 X19.3268 Y-13.6549
 X19.5298 Y-13.9259
 X19.7068 Y-14.2169
 X19.8558 Y-14.5259
 X19.9738 Y-14.8499
 X20.0608 Y-15.1879
 X20.1148 Y-15.5379
 X20.1328 Y-15.8989
G0 Z25.0000
 X33.3958 Y-11.8059
G1 Z0.0000
 X33.3768 Y-12.1809
 X33.3208 Y-12.5459
 X33.2308 Y-12.8979
 X33.1088 Y-13.2349
 X32.9528 Y-13.5549
 X32.7698 Y-13.8579
 X32.5588 Y-14.1409
 X32.3208 Y-14.4009
 X32.0608 Y-14.6379
 X31.7788 Y-14.8489
 X31.4768 Y-15.0329
 X31.1558 Y-15.1869
 X30.8178 Y-15.3109
 X30.4668 Y-15.4009
 X30.1028 Y-15.4569
 X29.7278 Y-15.4759
 X29.3528 Y-15.4569
 X28.9888 Y-15.4009
 X28.6378 Y-15.3109
 X28.2998 Y-15.1869
 X27.9788 Y-15.0329
 X27.6768 Y-14.8489
 X27.3948 Y-14.6379
 X27.1348 Y-14.4009
 X26.8968 Y-14.1409
 X26.6858 Y-13.8579
 X26.5028 Y-13.5549
 X26.3468 Y-13.2349
 X26.2248 Y-12.8979
 X26.1348 Y-12.5459
 X26.0788 Y-12.1809
 X26.0598 Y-11.8059
 X26.0788 Y-11.4309
 X26.1348 Y-11.0669
 X26.2248 Y-10.7149
 X26.3468 Y-10.3779
 X26.5028 Y-10.0579
 X26.6858 Y-9.7549
 X26.8968 Y-9.4729
 X27.1348 Y-9.2119
 X27.3948 Y-8.9759
 X27.6768 Y-8.7639
 X27.9788 Y-8.5809
 X28.2998 Y-8.4259
 X28.6378 Y-8.3029
 X28.9888 Y-8.2119
 X29.3528 Y-8.1569
 X29.7278 Y-8.1379
 X30.1028 Y-8.1569
 X30.4668 Y-8.2119
 X30.8178 Y-8.3029
 X31.1558 Y-8.4259
 X31.4768 Y-8.5809
 X31.7788 Y-8.7639
 X32.0608 Y-8.9759
 X32.3208 Y-9.2119
 X32.5588 Y-9.4729
 X32.7698 Y-9.7549
 X32.9528 Y-10.0579
 X33.1088 Y-10.3779
 X33.2308 Y-10.7149
 X33.3208 Y-11.0669
 X33.3768 Y-11.4309
 X33.3958 Y-11.8059
G0 Z25.0000
 X39.8878 Y-23.5179
G1 Z0.0000
 X39.8668 Y-23.9359
 X39.8058 Y-24.3429
 X39.7038 Y-24.7349
 X39.5668 Y-25.1109
 X39.3948 Y-25.4689
 X39.1888 Y-25.8059
 X38.9528 Y-26.1209
 X38.6888 Y-26.4119
 X38.3988 Y-26.6759
 X38.0838 Y-26.9119
 X37.7458 Y-27.1169
 X37.3878 Y-27.2889
 X37.0128 Y-27.4269
 X36.6198 Y-27.5279
 X36.2138 Y-27.5899
 X35.7958 Y-27.6109
 X35.3768 Y-27.5899
 X34.9708 Y-27.5279
 X34.5778 Y-27.4269
 X34.2028 Y-27.2889
 X33.8448 Y-27.1169
 X33.5068 Y-26.9119
 X33.1928 Y-26.6759
 X32.9028 Y-26.4119
 X32.6378 Y-26.1209
 X32.4028 Y-25.8059
 X32.1968 Y-25.4689
 X32.0248 Y-25.1109
 X31.8878 Y-24.7349
 X31.7878 Y-24.3429
 X31.7248 Y-23.9359
 X31.7038 Y-23.5179
 X31.7248 Y-23.0999
 X31.7878 Y-22.6929
 X31.8878 Y-22.3009
 X32.0248 Y-21.9249
 X32.1968 Y-21.5679
 X32.4028 Y-21.2299
 X32.6378 Y-20.9149
 X32.9028 Y-20.6249
 X33.1928 Y-20.3609
 X33.5068 Y-20.1249
 X33.8448 Y-19.9199
 X34.2028 Y-19.7479
 X34.5778 Y-19.6109
 X34.9708 Y-19.5099
 X35.3768 Y-19.4479
 X35.7958 Y-19.4269
 X36.2138 Y-19.4479
 X36.6198 Y-19.5099
 X37.0128 Y-19.6109
 X37.3878 Y-19.7479
 X37.7458 Y-19.9199
 X38.0838 Y-20.1249
 X38.3988 Y-20.3609
 X38.6888 Y-20.6249
 X38.9528 Y-20.9149
 X39.1888 Y-21.2299
 X39.3948 Y-21.5679
 X39.5668 Y-21.9249
 X39.7038 Y-22.3009
 X39.8058 Y-22.6929
 X39.8668 Y-23.0999
 X39.8878 Y-23.5179
G0 Z25.0000
 X21.5438 Y-34.5257
G1 Z0.0000
 X21.5358 Y-34.8233
 X21.5138 Y-35.1170
 X21.4768 Y-35.4065
 X21.4258 Y-35.6913
 X21.3618 Y-35.9712
 X21.2838 Y-36.2458
 X21.1928 Y-36.5145
 X21.0888 Y-36.7772
 X20.9728 Y-37.0334
 X20.8448 Y-37.2829
 X20.7058 Y-37.5252
 X20.5558 Y-37.7600
 X20.3938 Y-37.9868
 X20.2218 Y-38.2054
 X20.0408 Y-38.4152
 X19.8488 Y-38.6162
 X19.6478 Y-38.8077
 X19.4378 Y-38.9895
 X19.2188 Y-39.1613
 X18.9928 Y-39.3227
 X18.7578 Y-39.4731
 X18.5148 Y-39.6125
 X18.2658 Y-39.7402
 X18.0098 Y-39.8562
 X17.7468 Y-39.9598
 X17.4778 Y-40.0506
 X17.2028 Y-40.1287
 X16.9238 Y-40.1933
 X16.6388 Y-40.2443
 X16.3488 Y-40.2811
 X16.0548 Y-40.3034
 X15.7568 Y-40.3109
 X15.4598 Y-40.3034
 X15.1658 Y-40.2811
 X14.8758 Y-40.2443
 X14.5918 Y-40.1933
 X14.3118 Y-40.1287
 X14.0368 Y-40.0506
 X13.7688 Y-39.9598
 X13.5058 Y-39.8562
 X13.2498 Y-39.7402
 X12.9998 Y-39.6125
 X12.7578 Y-39.4731
 X12.5228 Y-39.3227
 X12.2958 Y-39.1613
 X12.0778 Y-38.9895
 X11.8678 Y-38.8077
 X11.6668 Y-38.6162
 X11.4748 Y-38.4152
 X11.2938 Y-38.2054
 X11.1218 Y-37.9868
 X10.9608 Y-37.7600
 X10.8098 Y-37.5252
 X10.6708 Y-37.2829
 X10.5428 Y-37.0334
 X10.4268 Y-36.7772
 X10.3238 Y-36.5145
 X10.2328 Y-36.2458
 X10.1548 Y-35.9712
 X10.0898 Y-35.6913
 X10.0388 Y-35.4065
 X10.0018 Y-35.1170
 X9.9798 Y-34.8233
 X9.9718 Y-34.5257
 X9.9798 Y-34.2279
 X10.0018 Y-33.9340
 X10.0388 Y-33.6444
 X10.0898 Y-33.3595
 X10.1548 Y-33.0797
 X10.2328 Y-32.8051
 X10.3238 Y-32.5362
 X10.4268 Y-32.2734
 X10.5428 Y-32.0170
 X10.6708 Y-31.7676
 X10.8098 Y-31.5252
 X10.9608 Y-31.2905
 X11.1218 Y-31.0637
 X11.2938 Y-30.8451
 X11.4748 Y-30.6352
 X11.6668 Y-30.4343
 X11.8678 Y-30.2426
 X12.0778 Y-30.0608
 X12.2958 Y-29.8890
 X12.5228 Y-29.7276
 X12.7578 Y-29.5772
 X12.9998 Y-29.4379
 X13.2498 Y-29.3100
 X13.5058 Y-29.1941
 X13.7688 Y-29.0905
 X14.0368 Y-28.9995
 X14.3118 Y-28.9215
 X14.5918 Y-28.8569
 X14.8758 Y-28.8061
 X15.1658 Y-28.7693
 X15.4598 Y-28.7469
 X15.7568 Y-28.7394
 X16.0548 Y-28.7469
 X16.3488 Y-28.7693
 X16.6388 Y-28.8061
 X16.9238 Y-28.8569
 X17.2028 Y-28.9215
 X17.4778 Y-28.9995
 X17.7468 Y-29.0905
 X18.0098 Y-29.1941
 X18.2658 Y-29.3100
 X18.5148 Y-29.4379
 X18.7578 Y-29.5772
 X18.9928 Y-29.7276
 X19.2188 Y-29.8890
 X19.4378 Y-30.0608
 X19.6478 Y-30.2426
 X19.8488 Y-30.4343
 X20.0408 Y-30.6352
 X20.2218 Y-30.8451
 X20.3938 Y-31.0637
 X20.5558 Y-31.2905
 X20.7058 Y-31.5252
 X20.8448 Y-31.7676
 X20.9728 Y-32.0170
 X21.0888 Y-32.2734
 X21.1928 Y-32.5362
 X21.2838 Y-32.8051
 X21.3618 Y-33.0797
 X21.4258 Y-33.3595
 X21.4768 Y-33.6444
 X21.5138 Y-33.9340
 X21.5358 Y-34.2279
 X21.5438 Y-34.5257
G0 Z25.0000
 X2.2108 Y-35.3720
G1 Z0.0000
 X2.1868 Y-35.8480
 X2.1168 Y-36.3104
 X2.0018 Y-36.7566
 X1.8448 Y-37.1843
 X1.6488 Y-37.5913
 X1.4158 Y-37.9752
 X1.1478 Y-38.3337
 X0.8468 Y-38.6644
 X0.5168 Y-38.9650
 X0.1578 Y-39.2330
 X-0.2262 Y-39.4662
 X-0.6332 Y-39.6623
 X-1.0602 Y-39.8190
 X-1.5072 Y-39.9337
 X-1.9692 Y-40.0043
 X-2.4452 Y-40.0283
 X-2.9212 Y-40.0043
 X-3.3832 Y-39.9337
 X-3.8302 Y-39.8190
 X-4.2572 Y-39.6623
 X-4.6642 Y-39.4662
 X-5.0482 Y-39.2330
 X-5.4072 Y-38.9650
 X-5.7372 Y-38.6644
 X-6.0382 Y-38.3337
 X-6.3062 Y-37.9752
 X-6.5392 Y-37.5913
 X-6.7352 Y-37.1843
 X-6.8922 Y-36.7566
 X-7.0072 Y-36.3104
 X-7.0772 Y-35.8480
 X-7.1012 Y-35.3720
 X-7.0772 Y-34.8959
 X-7.0072 Y-34.4336
 X-6.8922 Y-33.9875
 X-6.7352 Y-33.5597
 X-6.5392 Y-33.1526
 X-6.3062 Y-32.7687
 X-6.0382 Y-32.4102
 X-5.7372 Y-32.0795
 X-5.4072 Y-31.7790
 X-5.0482 Y-31.5109
 X-4.6642 Y-31.2777
 X-4.2572 Y-31.0816
 X-3.8302 Y-30.9250
 X-3.3832 Y-30.8102
 X-2.9212 Y-30.7397
 X-2.4452 Y-30.7156
 X-1.9692 Y-30.7397
 X-1.5072 Y-30.8102
 X-1.0602 Y-30.9250
 X-0.6332 Y-31.0816
 X-0.2262 Y-31.2777
 X0.1578 Y-31.5109
 X0.5168 Y-31.7790
 X0.8468 Y-32.0795
 X1.1478 Y-32.4102
 X1.4158 Y-32.7687
 X1.6488 Y-33.1526
 X1.8448 Y-33.5597
 X2.0018 Y-33.9875
 X2.1168 Y-34.4336
 X2.1868 Y-34.8959
 X2.2108 Y-35.3720
G0 Z25.0000
 X2.4938 Y-21.9669
G1 Z0.0000
 X2.4778 Y-22.2839
 X2.4308 Y-22.5919
 X2.3538 Y-22.8899
 X2.2498 Y-23.1749
 X2.1188 Y-23.4459
 X1.9628 Y-23.7019
 X1.7848 Y-23.9409
 X1.5838 Y-24.1619
 X1.3638 Y-24.3619
 X1.1248 Y-24.5409
 X0.8688 Y-24.6959
 X0.5968 Y-24.8269
 X0.3118 Y-24.9319
 X0.0148 Y-25.0079
 X-0.2942 Y-25.0549
 X-0.6112 Y-25.0709
 X-0.9282 Y-25.0549
 X-1.2362 Y-25.0079
 X-1.5342 Y-24.9319
 X-1.8192 Y-24.8269
 X-2.0912 Y-24.6959
 X-2.3472 Y-24.5409
 X-2.5862 Y-24.3619
 X-2.8062 Y-24.1619
 X-3.0072 Y-23.9409
 X-3.1852 Y-23.7019
 X-3.3412 Y-23.4459
 X-3.4722 Y-23.1749
 X-3.5762 Y-22.8899
 X-3.6532 Y-22.5919
 X-3.7002 Y-22.2839
 X-3.7162 Y-21.9669
 X-3.7002 Y-21.6489
 X-3.6532 Y-21.3409
 X-3.5762 Y-21.0429
 X-3.4722 Y-20.7579
 X-3.3412 Y-20.4869
 X-3.1852 Y-20.2309
 X-3.0072 Y-19.9919
 X-2.8062 Y-19.7709
 X-2.5862 Y-19.5709
 X-2.3472 Y-19.3919
 X-2.0912 Y-19.2359
 X-1.8192 Y-19.1059
 X-1.5342 Y-19.0009
 X-1.2362 Y-18.9249
 X-0.9282 Y-18.8779
 X-0.6112 Y-18.8619
 X-0.2942 Y-18.8779
 X0.0148 Y-18.9249
 X0.3118 Y-19.0009
 X0.5968 Y-19.1059
 X0.8688 Y-19.2359
 X1.1248 Y-19.3919
 X1.3638 Y-19.5709
 X1.5838 Y-19.7709
 X1.7848 Y-19.9919
 X1.9628 Y-20.2309
 X2.1188 Y-20.4869
 X2.2498 Y-20.7579
 X2.3538 Y-21.0429
 X2.4308 Y-21.3409
 X2.4778 Y-21.6489
 X2.4938 Y-21.9669
G0 Z25.0000
 X6.1618 Y-12.0889
G1 Z0.0000
 X6.1428 Y-12.4639
 X6.0878 Y-12.8279
 X5.9968 Y-13.1789
 X5.8738 Y-13.5159
 X5.7188 Y-13.8369
 X5.5358 Y-14.1389
 X5.3238 Y-14.4219
 X5.0878 Y-14.6819
 X4.8268 Y-14.9189
 X4.5448 Y-15.1299
 X4.2418 Y-15.3139
 X3.9218 Y-15.4689
 X3.5848 Y-15.5919
 X3.2328 Y-15.6819
 X2.8688 Y-15.7379
 X2.4938 Y-15.7569
 X2.1188 Y-15.7379
 X1.7538 Y-15.6819
 X1.4018 Y-15.5919
 X1.0648 Y-15.4689
 X0.7448 Y-15.3139
 X0.4418 Y-15.1299
 X0.1588 Y-14.9189
 X-0.1012 Y-14.6819
 X-0.3382 Y-14.4219
 X-0.5492 Y-14.1389
 X-0.7332 Y-13.8369
 X-0.8882 Y-13.5159
 X-1.0112 Y-13.1789
 X-1.1012 Y-12.8279
 X-1.1572 Y-12.4639
 X-1.1762 Y-12.0889
 X-1.1572 Y-11.7139
 X-1.1012 Y-11.3489
 X-1.0112 Y-10.9979
 X-0.8882 Y-10.6609
 X-0.7332 Y-10.3399
 X-0.5492 Y-10.0379
 X-0.3382 Y-9.7549
 X-0.1012 Y-9.4949
 X0.1588 Y-9.2579
 X0.4418 Y-9.0469
 X0.7448 Y-8.8629
 X1.0648 Y-8.7089
 X1.4018 Y-8.5849
 X1.7538 Y-8.4949
 X2.1188 Y-8.4389
 X2.4938 Y-8.4199
 X2.8688 Y-8.4389
 X3.2328 Y-8.4949
 X3.5848 Y-8.5849
 X3.9218 Y-8.7089
 X4.2418 Y-8.8629
 X4.5448 Y-9.0469
 X4.8268 Y-9.2579
 X5.0878 Y-9.4949
 X5.3238 Y-9.7549
 X5.5358 Y-10.0379
 X5.7188 Y-10.3399
 X5.8738 Y-10.6609
 X5.9968 Y-10.9979
 X6.0878 Y-11.3489
 X6.1428 Y-11.7139
 X6.1618 Y-12.0889
G0 Z25.0000
 X-20.3666 Y-2.3509
G1 Z0.0000
 X-20.3864 Y-2.6829
 X-20.4440 Y-3.0059
 X-20.5380 Y-3.3169
 X-20.6661 Y-3.6149
 X-20.8266 Y-3.8989
 X-21.0175 Y-4.1659
 X-21.2368 Y-4.4159
 X-21.4828 Y-4.6469
 X-21.7533 Y-4.8569
 X-22.0466 Y-5.0429
 X-22.3608 Y-5.2059
 X-22.6939 Y-5.3429
 X-23.0440 Y-5.4519
 X-23.4091 Y-5.5319
 X-23.7875 Y-5.5809
 X-24.1771 Y-5.5979
 X-24.5666 Y-5.5809
 X-24.9450 Y-5.5319
 X-25.3101 Y-5.4519
 X-25.6601 Y-5.3429
 X-25.9932 Y-5.2059
 X-26.3073 Y-5.0429
 X-26.6007 Y-4.8569
 X-26.8714 Y-4.6469
 X-27.1172 Y-4.4159
 X-27.3366 Y-4.1659
 X-27.5275 Y-3.8989
 X-27.6879 Y-3.6149
 X-27.8161 Y-3.3169
 X-27.9100 Y-3.0059
 X-27.9678 Y-2.6829
 X-27.9873 Y-2.3509
 X-27.9678 Y-2.0199
 X-27.9100 Y-1.6979
 X-27.8161 Y-1.3869
 X-27.6879 Y-1.0889
 X-27.5275 Y-0.8049
 X-27.3366 Y-0.5369
 X-27.1172 Y-0.2869
 X-26.8714 Y-0.0569
 X-26.6007 Y0.1531
 X-26.3073 Y0.3391
 X-25.9932 Y0.5021
 X-25.6601 Y0.6391
 X-25.3101 Y0.7481
 X-24.9450 Y0.8281
 X-24.5666 Y0.8771
 X-24.1771 Y0.8941
 X-23.7875 Y0.8771
 X-23.4091 Y0.8281
 X-23.0440 Y0.7481
 X-22.6939 Y0.6391
 X-22.3608 Y0.5021
 X-22.0466 Y0.3391
 X-21.7533 Y0.1531
 X-21.4828 Y-0.0569
 X-21.2368 Y-0.2869
 X-21.0175 Y-0.5369
 X-20.8266 Y-0.8049
 X-20.6661 Y-1.0889
 X-20.5380 Y-1.3869
 X-20.4440 Y-1.6979
 X-20.3864 Y-2.0199
 X-20.3666 Y-2.3509
G0 Z25.0000
 X-11.3972 Y-21.8049
G1 Z0.0000
 X-11.9262 Y-22.2309
 X-12.4692 Y-22.6329
 X-13.0252 Y-23.0089
 X-13.5922 Y-23.3599
 X-14.1702 Y-23.6859
 X-14.7592 Y-23.9869
 X-15.3562 Y-24.2629
 X-15.9632 Y-24.5139
 X-16.5768 Y-24.7399
 X-17.1979 Y-24.9399
 X-17.8253 Y-25.1159
 X-18.4579 Y-25.2659
 X-19.0951 Y-25.3899
 X-19.7361 Y-25.4889
 X-20.3801 Y-25.5629
 X-21.0264 Y-25.6109
 X-21.6740 Y-25.6339
 X-22.3222 Y-25.6299
 X-22.9703 Y-25.6019
 X-23.6173 Y-25.5479
 X-24.2625 Y-25.4679
 X-24.9051 Y-25.3619
 X-25.5444 Y-25.2299
 X-26.1794 Y-25.0729
 X-26.8096 Y-24.8889
 X-27.4339 Y-24.6799
 X-28.0515 Y-24.4449
 X-28.6619 Y-24.1839
 X-29.2640 Y-23.8959
 X-29.8572 Y-23.5829
 X-30.4407 Y-23.2429
 X-31.0134 Y-22.8769
 X-31.5707 Y-22.4879
 X-32.1076 Y-22.0789
 X-32.6243 Y-21.6509
 X-33.1201 Y-21.2049
 X-33.5951 Y-20.7409
 X-34.0489 Y-20.2599
 X-34.4811 Y-19.7639
 X-34.8915 Y-19.2519
 X-35.2800 Y-18.7249
 X-35.6462 Y-18.1849
 X-35.9900 Y-17.6319
 X-36.3108 Y-17.0659
 X-36.6086 Y-16.4889
 X-36.8830 Y-15.9019
 X-37.1340 Y-15.3039
 X-37.3609 Y-14.6969
 X-37.5637 Y-14.0819
 X-37.7422 Y-13.4579
 X-37.8960 Y-12.8279
 X-38.0248 Y-12.1919
 X-38.1284 Y-11.5499
 X-38.2068 Y-10.9029
 X-38.2591 Y-10.2529
 X-38.2857 Y-9.5989
 X-38.2860 Y-8.9429
 X-38.2597 Y-8.2849
 X-38.2065 Y-7.6259
 X-38.1264 Y-6.9669
 X-38.0189 Y-6.3089
 X-37.8839 Y-5.6519
 X-37.7209 Y-4.9959
 X-37.5300 Y-4.3439
 X-37.3123 Y-3.6999
 X-37.0700 Y-3.0699
 X-36.8036 Y-2.4549
 X-36.5140 Y-1.8539
 X-36.2016 Y-1.2679
 X-35.8672 Y-0.6979
 X-35.5114 Y-0.1439
 X-35.1347 Y0.3941
 X-34.7382 Y0.9141
 X-34.3219 Y1.4171
 X-33.8871 Y1.9021
 X-33.4340 Y2.3681
 X-32.9634 Y2.8161
 X-32.4759 Y3.2431
 X-31.9723 Y3.6521
 X-31.4532 Y4.0391
 X-30.9191 Y4.4061
 X-30.3708 Y4.7521
 X-29.8089 Y5.0761
 X-29.2339 Y5.3781
 X-28.6468 Y5.6571
 X-28.0479 Y5.9131
 X-27.4380 Y6.1451
 X-26.8179 Y6.3541
 X-26.1880 Y6.5381
 X-25.5490 Y6.6971
 X-24.9016 Y6.8301
 X-24.2465 Y6.9381
 X-23.5843 Y7.0191
 X-22.9157 Y7.0731
 X-22.2412 Y7.1001
 X-21.5615 Y7.0991
 X-20.8825 Y7.0701
 X-20.2098 Y7.0141
 X-19.5441 Y6.9301
 X-18.8861 Y6.8211
 X-18.2364 Y6.6841
 X-17.5954 Y6.5231
 X-16.9640 Y6.3361
 X-16.3426 Y6.1251
 X-15.7322 Y5.8901
 X-15.1332 Y5.6311
 X-14.5462 Y5.3491
 X-13.9712 Y5.0451
 X-13.4102 Y4.7181
 X-12.8632 Y4.3701
 X-12.3302 Y4.0011
 X-11.8132 Y3.6111
 X-11.3112 Y3.2001
 X-10.8252 Y2.7711
 X-10.3572 Y2.3221
 X-9.9072 Y1.8551
 X-9.4742 Y1.3691
 X-9.0612 Y0.8661
 X-8.6672 Y0.3451
 X-8.2942 Y-0.1919
 X-7.9412 Y-0.7449
 X-7.6102 Y-1.3139
 X-7.3002 Y-1.8989
 X-7.0142 Y-2.4969
 X-6.7512 Y-3.1109
 X-6.5122 Y-3.7369
 X-6.2972 Y-4.3779
 X-6.1082 Y-5.0299
 X-21.9182 Y-9.2669
 X-11.3972 Y-21.8049
G0 Z25.0000
 X-1.7962 Y23.6471
G1 Z0.0000
 Y26.9751
 X-0.7952
 Y18.4281
 X-1.7962
 Y19.3471
 X-1.9662 Y19.0901
 X-2.1572 Y18.8691
 X-2.3682 Y18.6831
 X-2.6012 Y18.5321
 X-2.8572 Y18.4151
 X-3.1362 Y18.3321
 X-3.4402 Y18.2821
 X-3.7692 Y18.2671
 X-4.0412 Y18.2791
 X-4.3002 Y18.3211
 X-4.5472 Y18.3901
 X-4.7802 Y18.4871
 X-5.0012 Y18.6141
 X-5.2092 Y18.7671
 X-5.4032 Y18.9471
 X-5.5852 Y19.1571
 X-5.7492 Y19.3871
 X-5.8922 Y19.6361
 X-6.0122 Y19.9031
 X-6.1112 Y20.1861
 X-6.1872 Y20.4871
 X-6.2422 Y20.8071
 X-6.2752 Y21.1431
 X-6.2852 Y21.4971
 X-6.2762 Y21.8511
 X-6.2432 Y22.1891
 X-6.1892 Y22.5071
 X-6.1122 Y22.8081
 X-6.0132 Y23.0931
 X-5.8922 Y23.3581
 X-5.7492 Y23.6081
 X-5.5852 Y23.8391
 X-5.4042 Y24.0471
 X-5.2092 Y24.2281
 X-5.0012 Y24.3801
 X-4.7812 Y24.5051
 X-4.5472 Y24.6041
 X-4.3012 Y24.6741
 X-4.0412 Y24.7151
 X-3.7692 Y24.7291
 X-3.4402 Y24.7111
 X-3.1362 Y24.6611
 X-2.8572 Y24.5791
 X-2.6012 Y24.4621
 X-2.3692 Y24.3111
 X-2.1572 Y24.1251
 X-1.9662 Y23.9041
 X-1.7962 Y23.6471
G0 Z25.0000
 X1.3128 Y24.5941
G1 Z0.0000
 X2.3138
 Y18.4281
 X1.3128
 Y24.5941
 Y26.9751
 X2.3138
 Y25.7031
 X1.3128
 Y26.9751
G0 Z25.0000
 X7.4928 Y38.8401
G1 Z0.0000
 X7.8138 Y38.8261
 X8.1168 Y38.7861
 X8.4028 Y38.7181
 X8.6708 Y38.6251
 X8.9208 Y38.5051
 X9.1538 Y38.3581
 X9.3688 Y38.1851
 X9.5658 Y37.9831
 X9.7418 Y37.7571
 X9.8948 Y37.5111
 X10.0238 Y37.2461
 X10.1298 Y36.9601
 X10.2128 Y36.6531
 X10.2718 Y36.3251
 X10.3078 Y35.9781
 X10.3198 Y35.6081
 X10.3068 Y35.2421
 X10.2708 Y34.8941
 X10.2118 Y34.5671
 X10.1298 Y34.2601
 X10.0238 Y33.9741
 X9.8948 Y33.7081
 X9.7428 Y33.4621
 X9.5658 Y33.2371
 X9.3678 Y33.0351
 X9.1528 Y32.8611
 X8.9208 Y32.7121
 X8.6708 Y32.5921
 X8.4028 Y32.4971
 X8.1168 Y32.4311
 X7.8138 Y32.3901
 X7.4928 Y32.3781
 X7.1708 Y32.3901
 X6.8658 Y32.4311
 X6.5798 Y32.4971
 X6.3108 Y32.5921
 X6.0608 Y32.7121
 X5.8288 Y32.8611
 X5.6138 Y33.0361
 X5.4178 Y33.2371
 X5.2408 Y33.4621
 X5.0878 Y33.7071
 X4.9588 Y33.9741
 X4.8528 Y34.2601
 X4.7718 Y34.5671
 X4.7128 Y34.8931
 X4.6788 Y35.2421
 X4.6668 Y35.6081
 X4.6778 Y35.9781
 X4.7118 Y36.3261
 X4.7708 Y36.6541
 X4.8528 Y36.9611
 X4.9588 Y37.2471
 X5.0888 Y37.5141
 X5.2408 Y37.7581
 X5.4178 Y37.9831
 X5.6128 Y38.1831
 X5.8268 Y38.3571
 X6.0598 Y38.5041
 X6.3098 Y38.6251
 X6.5788 Y38.7191
 X6.8658 Y38.7861
 X7.1708 Y38.8261
 X7.4928 Y38.8401
G0 Z25.0000
 X1.7008 Y40.4641
G1 Z0.0000
 Y38.7061
 X3.7838
 Y37.9211
 X1.7008
 Y34.5651
 X1.7118 Y34.2191
 X1.7508 Y33.9421
 X1.8168 Y33.7331
 X1.9068 Y33.5931
 X2.0358 Y33.4971
 X2.2188 Y33.4311
 X2.4558 Y33.3901
 X2.7458 Y33.3781
 X3.7838
 Y32.5391
 X2.7458
 X2.4618 Y32.5461
 X2.2018 Y32.5671
 X1.9648 Y32.6011
 X1.7508 Y32.6491
 X1.5588 Y32.7101
 X1.3898 Y32.7851
 X1.2438 Y32.8741
 X1.1208 Y32.9751
 X1.0158 Y33.0961
 X0.9248 Y33.2371
 X0.8478 Y33.4031
 X0.7848 Y33.5901
 X0.7358 Y33.8001
 X0.7008 Y34.0331
 X0.6808 Y34.2871
 X0.6738 Y34.5651
 Y37.9211
 X-0.0572
 Y38.7061
 X0.6738
 Y40.4641
 X1.7008
G0 Z25.0000
 X-1.4642 Y36.0641
G1 Z0.0000
 Y32.5391
 X-2.4652
 Y33.4581
 X-2.6502 Y33.2001
 X-2.8552 Y32.9761
 X-3.0812 Y32.7901
 X-3.3282 Y32.6401
 X-3.6022 Y32.5251
 X-3.9042 Y32.4431
 X-4.2342 Y32.3931
 X-4.5932 Y32.3781
 X-4.8242 Y32.3851
 X-5.0432 Y32.4101
 X-5.2492 Y32.4511
 X-5.4432 Y32.5101
 X-5.6252 Y32.5851
 X-5.7952 Y32.6761
 X-5.9532 Y32.7851
 X-6.0982 Y32.9081
 X-6.2302 Y33.0471
 X-6.3442 Y33.1961
 X-6.4402 Y33.3571
 X-6.5192 Y33.5301
 X-6.5792 Y33.7141
 X-6.6222 Y33.9101
 X-6.6482 Y34.1171
 X-6.6572 Y34.3331
 X-6.6472 Y34.5861
 X-6.6142 Y34.8221
 X-6.5602 Y35.0431
 X-6.4842 Y35.2471
 X-6.3862 Y35.4361
 X-6.2662 Y35.6081
 X-6.1252 Y35.7641
 X-5.9622 Y35.9041
 X-5.7792 Y36.0281
 X-5.5732 Y36.1361
 X-5.3462 Y36.2261
 X-5.0982 Y36.3011
 X-4.8282 Y36.3581
 X-4.5362 Y36.4001
 X-4.2232 Y36.4251
 X-3.8892 Y36.4331
 X-2.4652
 Y36.5301
 X-2.4942 Y36.8561
 X-2.5802 Y37.1421
 X-2.7232 Y37.3891
 X-2.9232 Y37.5971
 X-3.1762 Y37.7621
 X-3.4752 Y37.8801
 X-3.8192 Y37.9511
 X-4.2102 Y37.9751
 X-4.7312 Y37.9431
 X-5.2362 Y37.8471
 X-5.7282 Y37.6861
 X-6.1972 Y37.4611
 Y38.4081
 X-5.6532 Y38.5961
 X-5.1232 Y38.7321
 X-4.6102 Y38.8121
 X-4.1102 Y38.8401
 X-3.7882 Y38.8291
 X-3.4862 Y38.7961
 X-3.2062 Y38.7431
 X-2.9472 Y38.6671
 X-2.7092 Y38.5711
 X-2.4922 Y38.4531
 X-2.2962 Y38.3121
 X-2.1212 Y38.1511
 X-1.9682 Y37.9681
 X-1.8342 Y37.7621
 X-1.7212 Y37.5351
 X-1.6292 Y37.2851
 X-1.5572 Y37.0121
 X-1.5052 Y36.7191
 X-1.4752 Y36.4031
 X-1.4642 Y36.0641
G0 Z25.0000
 X-7.3492 Y37.7581
G1 Z0.0000
 X-7.5282 Y37.8421
 X-7.7182 Y37.9011
 X-7.9282 Y37.9361
 X-8.1562 Y37.9491
 X-8.3642 Y37.9391
 X-8.5592 Y37.9121
 X-8.7412 Y37.8681
 X-8.9102 Y37.8071
 X-9.0672 Y37.7291
 X-9.2112 Y37.6331
 X-9.3432 Y37.5191
 X-9.4632 Y37.3871
 X-9.5712 Y37.2401
 X-9.6642 Y37.0761
 X-9.7422 Y36.8991
 X-9.8062 Y36.7061
 X-9.8552 Y36.4961
 X-9.8902 Y36.2721
 X-9.9122 Y36.0321
 X-9.9192 Y35.7781
 Y32.5391
 X-10.9462
 Y38.7061
 X-9.9192
 Y37.7321
 X-9.7502 Y37.9931
 X-9.5562 Y38.2211
 X-9.3372 Y38.4121
 X-9.0952 Y38.5681
 X-8.8282 Y38.6871
 X-8.5332 Y38.7721
 X-8.2112 Y38.8241
 X-7.8622 Y38.8401
 X-7.6332 Y38.8281
 X-7.5012 Y38.8101
 X-7.3552 Y38.7861
 X-7.3492 Y37.7581
G0 Z25.0000
 X-14.0282
G1 Z0.0000
 Y41.0861
 X-13.0282
 Y32.5391
 X-14.0282
 Y33.4581
 X-14.1982 Y33.2011
 X-14.3892 Y32.9811
 X-14.6012 Y32.7941
 X-14.8332 Y32.6431
 X-15.0892 Y32.5261
 X-15.3682 Y32.4431
 X-15.6722 Y32.3931
 X-16.0012 Y32.3781
 X-16.2732 Y32.3901
 X-16.5328 Y32.4321
 X-16.7793 Y32.5011
 X-17.0129 Y32.5991
 X-17.2334 Y32.7251
 X-17.4409 Y32.8781
 X-17.6357 Y33.0581
 X-17.8172 Y33.2681
 X-17.9818 Y33.4991
 X-18.1243 Y33.7471
 X-18.2446 Y34.0141
 X-18.3430 Y34.2971
 X-18.4196 Y34.5991
 X-18.4741 Y34.9181
 X-18.5069 Y35.2541
 X-18.5178 Y35.6081
 X-18.5079 Y35.9621
 X-18.4755 Y36.3001
 X-18.4209 Y36.6181
 X-18.3440 Y36.9191
 X-18.2451 Y37.2041
 X-18.1243 Y37.4691
 X-17.9816 Y37.7191
 X-17.8172 Y37.9501
 X-17.6359 Y38.1581
 X-17.4414 Y38.3391
 X-17.2339 Y38.4921
 X-17.0132 Y38.6171
 X-16.7796 Y38.7151
 X-16.5329 Y38.7851
 X-16.2732 Y38.8261
 X-16.0012 Y38.8401
 X-15.6722 Y38.8221
 X-15.3682 Y38.7721
 X-15.0892 Y38.6901
 X-14.8332 Y38.5741
 X-14.6012 Y38.4221
 X-14.3892 Y38.2361
 X-14.1982 Y38.0151
 X-14.0282 Y37.7581
G0 Z25.0000
 X-20.1890 Y36.0641
G1 Z0.0000
 Y32.5391
 X-21.1896
 Y33.4581
 X-21.3744 Y33.2001
 X-21.5796 Y32.9761
 X-21.8057 Y32.7901
 X-22.0533 Y32.6401
 X-22.3269 Y32.5251
 X-22.6287 Y32.4431
 X-22.9590 Y32.3931
 X-23.3183 Y32.3781
 X-23.5491 Y32.3851
 X-23.7676 Y32.4101
 X-23.9739 Y32.4511
 X-24.1680 Y32.5101
 X-24.3500 Y32.5851
 X-24.5197 Y32.6761
 X-24.6775 Y32.7851
 X-24.8230 Y32.9081
 X-24.9551 Y33.0471
 X-25.0691 Y33.1961
 X-25.1651 Y33.3571
 X-25.2433 Y33.5301
 X-25.3040 Y33.7141
 X-25.3472 Y33.9101
 X-25.3729 Y34.1171
 X-25.3815 Y34.3331
 X-25.3715 Y34.5861
 X-25.3394 Y34.8221
 X-25.2853 Y35.0431
 X-25.2090 Y35.2471
 X-25.1111 Y35.4361
 X-24.9914 Y35.6081
 X-24.8500 Y35.7641
 X-24.6871 Y35.9041
 X-24.5036 Y36.0281
 X-24.2983 Y36.1361
 X-24.0712 Y36.2261
 X-23.8226 Y36.3011
 X-23.5525 Y36.3581
 X-23.2608 Y36.4001
 X-22.9479 Y36.4251
 X-22.6139 Y36.4331
 X-21.1896
 Y36.5301
 X-21.2193 Y36.8561
 X-21.3051 Y37.1421
 X-21.4478 Y37.3891
 X-21.6479 Y37.5971
 X-21.9011 Y37.7621
 X-22.1996 Y37.8801
 X-22.5439 Y37.9511
 X-22.9346 Y37.9751
 X-23.4564 Y37.9431
 X-23.9614 Y37.8471
 X-24.4526 Y37.6861
 X-24.9216 Y37.4611
 Y38.4081
 X-24.3780 Y38.5961
 X-23.8480 Y38.7321
 X-23.3347 Y38.8121
 X-22.8346 Y38.8401
 X-22.5125 Y38.8291
 X-22.2112 Y38.7961
 X-21.9311 Y38.7431
 X-21.6721 Y38.6671
 X-21.4340 Y38.5711
 X-21.2171 Y38.4531
 X-21.0211 Y38.3121
 X-20.8462 Y38.1511
 X-20.6925 Y37.9681
 X-20.5591 Y37.7621
 X-20.4462 Y37.5351
 X-20.3537 Y37.2851
 X-20.2816 Y37.0121
 X-20.2301 Y36.7191
 X-20.1993 Y36.4031
 X-20.1890 Y36.0641
G0 Z25.0000
 X-15.6682 Y23.3961
G1 Z0.0000
 X-15.4712 Y23.7141
 X-15.2542 Y23.9891
 X-15.0172 Y24.2191
 X-14.7632 Y24.4041
 X-14.4902 Y24.5461
 X-14.1912 Y24.6471
 X-13.8682 Y24.7101
 X-13.5232 Y24.7291
 X-13.2902 Y24.7181
 X-13.0712 Y24.6861
 X-12.8652 Y24.6331
 X-12.6732 Y24.5601
 X-12.4942 Y24.4651
 X-12.3302 Y24.3501
 X-12.1792 Y24.2141
 X-12.0412 Y24.0561
 X-11.9202 Y23.8781
 X-11.8152 Y23.6831
 X-11.7252 Y23.4691
 X-11.6522 Y23.2391
 X-11.5952 Y22.9921
 X-11.5532 Y22.7251
 X-11.5282 Y22.4401
 X-11.5202 Y22.1391
 Y18.4281
 X-12.5482
 Y22.1061
 X-12.5682 Y22.5151
 X-12.6262 Y22.8711
 X-12.7232 Y23.1691
 X-12.8592 Y23.4111
 X-13.0352 Y23.5961
 X-13.2522 Y23.7291
 X-13.5102 Y23.8101
 X-13.8092 Y23.8371
 X-14.1802 Y23.8041
 X-14.5092 Y23.7071
 X-14.7962 Y23.5441
 X-15.0432 Y23.3181
 X-15.2422 Y23.0351
 X-15.3842 Y22.7041
 X-15.4682 Y22.3281
 X-15.4952 Y21.9031
 Y18.4281
 X-16.5233
 Y22.1061
 X-16.5432 Y22.5181
 X-16.6015 Y22.8741
 X-16.6986 Y23.1741
 X-16.8347 Y23.4141
 X-17.0130 Y23.5971
 X-17.2319 Y23.7291
 X-17.4922 Y23.8101
 X-17.7951 Y23.8371
 X-18.1616 Y23.8041
 X-18.4871 Y23.7061
 X-18.7723 Y23.5431
 X-19.0183 Y23.3151
 X-19.2176 Y23.0291
 X-19.3590 Y22.7001
 X-19.4433 Y22.3251
 X-19.4712 Y21.9031
 Y18.4281
 X-20.4987
 Y24.5941
 X-19.4712
 Y23.6211
 X-19.2919 Y23.8851
 X-19.0934 Y24.1121
 X-18.8771 Y24.3061
 X-18.6439 Y24.4601
 X-18.3926 Y24.5781
 X-18.1173 Y24.6611
 X-17.8190 Y24.7121
 X-17.4983 Y24.7291
 X-17.1766 Y24.7071
 X-16.8798 Y24.6431
 X-16.6082 Y24.5371
 X-16.3614 Y24.3871
 X-16.1442 Y24.1971
 X-15.9552 Y23.9681
 X-15.7962 Y23.7011
 X-15.6682 Y23.3961
G0 Z25.0000
 X-22.2432 Y24.3511
G1 Z0.0000
 Y23.4041
 X-22.6743 Y23.6061
 X-23.1058 Y23.7491
 X-23.5407 Y23.8351
 X-23.9790 Y23.8641
 X-24.2191 Y23.8541
 X-24.4453 Y23.8251
 X-24.6575 Y23.7761
 X-24.8557 Y23.7081
 X-25.0401 Y23.6211
 X-25.2108 Y23.5141
 X-25.3678 Y23.3871
 X-25.5109 Y23.2421
 X-25.6389 Y23.0781
 X-25.7497 Y22.8991
 X-25.8434 Y22.7041
 X-25.9201 Y22.4941
 X-25.9798 Y22.2681
 X-26.0225 Y22.0281
 X-26.0480 Y21.7711
 X-26.0565 Y21.4971
 X-26.0490 Y21.2251
 X-26.0239 Y20.9681
 X-25.9814 Y20.7261
 X-25.9214 Y20.5001
 X-25.8443 Y20.2901
 X-25.7501 Y20.0961
 X-25.6390 Y19.9171
 X-25.5109 Y19.7531
 X-25.3678 Y19.6071
 X-25.2107 Y19.4811
 X-25.0398 Y19.3741
 X-24.8551 Y19.2861
 X-24.6568 Y19.2181
 X-24.4447 Y19.1691
 X-24.2187 Y19.1421
 X-23.9790 Y19.1321
 X-23.5409 Y19.1601
 X-23.1058 Y19.2461
 X-22.6741 Y19.3891
 X-22.2432 Y19.5921
 Y18.6441
 X-22.6743 Y18.4781
 X-23.1197 Y18.3611
 X-23.5878 Y18.2891
 X-24.0839 Y18.2671
 X-24.4234 Y18.2791
 X-24.7446 Y18.3191
 X-25.0475 Y18.3891
 X-25.3322 Y18.4831
 X-25.5990 Y18.6071
 X-25.8479 Y18.7571
 X-26.0790 Y18.9351
 X-26.2925 Y19.1401
 X-26.4854 Y19.3681
 X-26.6521 Y19.6141
 X-26.7929 Y19.8801
 X-26.9078 Y20.1651
 X-26.9971 Y20.4711
 X-27.0605 Y20.7941
 X-27.0986 Y21.1361
 X-27.1112 Y21.4971
 X-27.0994 Y21.8641
 X-27.0611 Y22.2111
 X-26.9965 Y22.5371
 X-26.9059 Y22.8431
 X-26.7891 Y23.1291
 X-26.6466 Y23.3941
 X-26.4783 Y23.6401
 X-26.2844 Y23.8671
 X-26.0684 Y24.0681
 X-25.8332 Y24.2431
 X-25.5786 Y24.3921
 X-25.3048 Y24.5121
 X-25.0118 Y24.6071
 X-24.6996 Y24.6751
 X-24.3683 Y24.7151
 X-24.0179 Y24.7291
 X-23.5575 Y24.7041
 X-23.1060 Y24.6351
 X-22.6679 Y24.5151
 X-22.2432 Y24.3511
G0 Z25.0000
 X-31.3455 Y26.7851
G1 Z0.0000
 X-31.0105 Y26.7671
 X-30.6958 Y26.7151
 X-30.4014 Y26.6301
 X-30.1275 Y26.5111
 X-29.8737 Y26.3571
 X-29.6405 Y26.1711
 X-29.4276 Y25.9491
 X-29.2351 Y25.6931
 X-29.0655 Y25.4041
 X-28.9180 Y25.0861
 X-28.7928 Y24.7351
 X-28.6900 Y24.3541
 X-28.6097 Y23.9431
 X-28.5522 Y23.5001
 X-28.5176 Y23.0261
 X-28.5059 Y22.5221
 X-28.5180 Y22.0181
 X-28.5525 Y21.5461
 X-28.6096 Y21.1041
 X-28.6891 Y20.6931
 X-28.7915 Y20.3141
 X-28.9165 Y19.9641
 X-29.0643 Y19.6461
 X-29.2351 Y19.3571
 X-29.4289 Y19.1001
 X-29.6423 Y18.8781
 X-29.8758 Y18.6901
 X-30.1290 Y18.5371
 X-30.4026 Y18.4181
 X-30.6964 Y18.3331
 X-31.0107 Y18.2831
 X-31.3455 Y18.2671
 X-31.6808 Y18.2831
 X-31.9957 Y18.3331
 X-32.2901 Y18.4191
 X-32.5641 Y18.5391
 X-32.8178 Y18.6921
 X-33.0510 Y18.8791
 X-33.2639 Y19.1011
 X-33.4562 Y19.3571
 X-33.6272 Y19.6441
 X-33.7753 Y19.9621
 X-33.9007 Y20.3121
 X-34.0032 Y20.6931
 X-34.0829 Y21.1041
 X-34.1397 Y21.5471
 X-34.1739 Y22.0191
 X-34.1853 Y22.5221
 X-34.1746 Y23.0261
 X-34.1408 Y23.4991
 X-34.0839 Y23.9421
 X-34.0040 Y24.3531
 X-33.9012 Y24.7351
 X-33.7755 Y25.0851
 X-33.6272 Y25.4041
 X-33.4562 Y25.6931
 X-33.2639 Y25.9491
 X-33.0511 Y26.1711
 X-32.8178 Y26.3581
 X-32.5641 Y26.5121
 X-32.2901 Y26.6321
 X-31.9957 Y26.7171
 X-31.6808 Y26.7681
 X-31.3455 Y26.7851
G0 Z25.0000
 X-32.2655 Y34.9721
G1 Z0.0000
 Y38.7061
 X-31.2648
 Y35.0111
 X-31.2439 Y34.6011
 X-31.1793 Y34.2471
 X-31.0715 Y33.9501
 X-30.9207 Y33.7061
 X-30.7291 Y33.5121
 X-30.4923 Y33.3761
 X-30.2116 Y33.2961
 X-29.8884 Y33.2691
 X-29.4972 Y33.3011
 X-29.1486 Y33.3991
 X-28.8432 Y33.5621
 X-28.5811 Y33.7901
 X-28.3718 Y34.0741
 X-28.2216 Y34.4051
 X-28.1312 Y34.7831
 X-28.1008 Y35.2101
 Y38.7061
 X-27.1003
 Y32.5391
 X-28.1008
 Y33.4861
 X-28.2935 Y33.2221
 X-28.5008 Y32.9961
 X-28.7229 Y32.8041
 X-28.9598 Y32.6501
 X-29.2143 Y32.5291
 X-29.4883 Y32.4431
 X-29.7818 Y32.3931
 X-30.0950 Y32.3781
 X-30.3540 Y32.3871
 X-30.5968 Y32.4181
 X-30.8232 Y32.4691
 X-31.0333 Y32.5421
 X-31.2273 Y32.6351
 X-31.4053 Y32.7491
 X-31.5672 Y32.8831
 X-31.7133 Y33.0391
 X-31.8440 Y33.2121
 X-31.9568 Y33.4051
 X-32.0518 Y33.6181
 X-32.1291 Y33.8511
 X-32.1890 Y34.1031
 X-32.2316 Y34.3741
 X-32.2572 Y34.6641
 X-32.2655 Y34.9721
G0 Z25.0000
 X-36.1097 Y32.6821
G1 Z0.0000
 X-34.6464 Y31.0791
 X-35.9901
 X-37.2069 Y32.4001
 X-37.3676 Y32.3891
 X-37.4848 Y32.3831
 X-37.5794 Y32.3781
 X-37.6694
 X-38.0928 Y32.3941
 X-38.4939 Y32.4491
 X-38.8726 Y32.5391
 X-39.2294 Y32.6671
 X-39.5643 Y32.8291
 X-39.8775 Y33.0281
 X-40.1689 Y33.2641
 X-40.4389 Y33.5351
 X-40.6826 Y33.8361
 X-40.8934 Y34.1611
 X-41.0716 Y34.5121
 X-41.2173 Y34.8871
 X-41.3305 Y35.2871
 X-41.4112 Y35.7111
 X-41.4597 Y36.1611
 X-41.4758 Y36.6331
 X-41.4607 Y37.1071
 X-41.4126 Y37.5571
 X-41.3316 Y37.9821
 X-41.2180 Y38.3821
 X-41.0719 Y38.7581
 X-40.8933 Y39.1101
 X-40.6825 Y39.4361
 X-40.4393 Y39.7391
 X-40.1698 Y40.0101
 X-39.8783 Y40.2441
 X-39.5648 Y40.4431
 X-39.2296 Y40.6061
 X-38.8723 Y40.7331
 X-38.4933 Y40.8241
 X-38.0928 Y40.8781
 X-37.6704 Y40.8961
 X-37.2507 Y40.8761
 X-36.8521 Y40.8221
 X-36.4746 Y40.7321
 X-36.1185 Y40.6061
 X-35.7839 Y40.4431
 X-35.4709 Y40.2441
 X-35.1797 Y40.0101
 X-34.9103 Y39.7371
 X-34.6687 Y39.4361
 X-34.4590 Y39.1101
 X-34.2812 Y38.7581
 X-34.1358 Y38.3821
 X-34.0225 Y37.9821
 X-33.9414 Y37.5571
 X-33.8926 Y37.1071
 X-33.8764 Y36.6321
 X-33.8866 Y36.2801
 X-33.9141 Y35.9421
 X-33.9590 Y35.6151
 X-34.0214 Y35.3041
 X-34.1015 Y35.0041
 X-34.1996 Y34.7181
 X-34.3155 Y34.4441
 X-34.4497 Y34.1831
 X-34.6021 Y33.9371
 X-34.7698 Y33.7071
 X-34.9533 Y33.4941
 X-35.1526 Y33.2991
 X-35.3678 Y33.1191
 X-35.5990 Y32.9571
 X-35.8462 Y32.8111
 X-36.1097 Y32.6821
G0 Z25.0000
 X-40.6915 Y19.3751
G1 Z0.0000
 X-38.8794
 Y25.6221
 X-40.8539 Y25.2171
 Y26.2171
 X-38.8847 Y26.6221
 X-37.7707
 Y19.3751
 X-35.9586
 Y18.4281
 X-40.6915
 Y19.3751
G0 Z25.0000
 X-50.0000 Y50.0001
G1 Z0.0000
 X49.9998
 Y-50.0000
 X-50.0000
 Y50.0001
G0 Z25.0000
 X-37.6704 Y40.0041
G1 Z0.0000
 X-37.9671 Y39.9891
 X-38.2476 Y39.9461
 X-38.5122 Y39.8751
 X-38.7607 Y39.7761
 X-38.9936 Y39.6501
 X-39.2108 Y39.4941
 X-39.4125 Y39.3111
 X-39.5986 Y39.0991
 X-39.7673 Y38.8621
 X-39.9129 Y38.6061
 X-40.0357 Y38.3281
 X-40.1359 Y38.0301
 X-40.2136 Y37.7111
 X-40.2689 Y37.3741
 X-40.3019 Y37.0141
 X-40.3128 Y36.6331
 X-40.3023 Y36.2541
 X-40.2691 Y35.8961
 X-40.2134 Y35.5571
 X-40.1353 Y35.2401
 X-40.0346 Y34.9431
 X-39.9115 Y34.6671
 X-39.7661 Y34.4101
 X-39.5986 Y34.1741
 X-39.4134 Y33.9611
 X-39.2121 Y33.7781
 X-38.9946 Y33.6221
 X-38.7611 Y33.4941
 X-38.5118 Y33.3961
 X-38.2468 Y33.3261
 X-37.9662 Y33.2831
 X-37.6704 Y33.2691
 X-37.3760 Y33.2831
 X-37.0968 Y33.3251
 X-36.8329 Y33.3961
 X-36.5844 Y33.4941
 X-36.3516 Y33.6221
 X-36.1347 Y33.7781
 X-35.9334 Y33.9621
 X-35.7482 Y34.1741
 X-35.5822 Y34.4101
 X-35.4383 Y34.6651
 X-35.3165 Y34.9431
 X-35.2168 Y35.2401
 X-35.1391 Y35.5581
 X-35.0836 Y35.8961
 X-35.0503 Y36.2551
 X-35.0391 Y36.6331
 X-35.0505 Y37.0121
 X-35.0839 Y37.3721
 X-35.1394 Y37.7111
 X-35.2168 Y38.0291
 X-35.3164 Y38.3281
 X-35.4382 Y38.6061
 X-35.5821 Y38.8621
 X-35.7482 Y39.0991
 X-35.9334 Y39.3111
 X-36.1344 Y39.4941
 X-36.3511 Y39.6501
 X-36.5835 Y39.7761
 X-36.8315 Y39.8761
 X-37.0954 Y39.9471
 X-37.3750 Y39.9891
 X-37.6704 Y40.0041
G0 Z25.0000
 X-31.3486 Y25.8931
G1 Z0.0000
 X-31.5583 Y25.8791
 X-31.7540 Y25.8391
 X-31.9361 Y25.7741
 X-32.1043 Y25.6821
 X-32.2590 Y25.5641
 X-32.4003 Y25.4191
 X-32.5283 Y25.2491
 X-32.6432 Y25.0511
 X-32.7455 Y24.8261
 X-32.8339 Y24.5761
 X-32.9084 Y24.3001
 X-32.9693 Y23.9971
 X-33.0164 Y23.6681
 X-33.0498 Y23.3121
 X-33.0698 Y22.9321
 X-33.0765 Y22.5241
 X-33.0703 Y22.1141
 X-33.0503 Y21.7331
 X-33.0164 Y21.3781
 X-32.9689 Y21.0501
 X-32.9078 Y20.7471
 X-32.8330 Y20.4721
 X-32.7448 Y20.2221
 X-32.6432 Y20.0001
 X-32.5289 Y19.8031
 X-32.4009 Y19.6321
 X-32.2591 Y19.4861
 X-32.1039 Y19.3681
 X-31.9351 Y19.2761
 X-31.7529 Y19.2111
 X-31.5573 Y19.1721
 X-31.3486 Y19.1581
 X-31.1397 Y19.1711
 X-30.9437 Y19.2101
 X-30.7609 Y19.2751
 X-30.5914 Y19.3681
 X-30.4353 Y19.4861
 X-30.2925 Y19.6301
 X-30.1634 Y19.8031
 X-30.0483 Y20.0001
 X-29.9473 Y20.2221
 X-29.8596 Y20.4721
 X-29.7851 Y20.7491
 X-29.7240 Y21.0511
 X-29.6764 Y21.3791
 X-29.6423 Y21.7351
 X-29.6218 Y22.1151
 X-29.6148 Y22.5241
 X-29.6225 Y22.9311
 X-29.6433 Y23.3121
 X-29.6772 Y23.6681
 X-29.7244 Y23.9971
 X-29.7850 Y24.3001
 X-29.8591 Y24.5781
 X-29.9469 Y24.8281
 X-30.0483 Y25.0511
 X-30.1640 Y25.2471
 X-30.2929 Y25.4181
 X-30.4351 Y25.5621
 X-30.5907 Y25.6811
 X-30.7598 Y25.7741
 X-30.9425 Y25.8391
 X-31.1387 Y25.8791
 X-31.3486 Y25.8931
G0 Z25.0000
 X-22.1998 Y35.6501
G1 Z0.0000
 X-22.4968 Y35.6441
 X-22.7697 Y35.6301
 X-23.0184 Y35.6081
 X-23.2433 Y35.5761
 X-23.4444 Y35.5371
 X-23.6218 Y35.4891
 X-23.7757 Y35.4321
 X-23.9059 Y35.3671
 X-24.0184 Y35.2891
 X-24.1155 Y35.1991
 X-24.1972 Y35.0961
 X-24.2637 Y34.9821
 X-24.3151 Y34.8561
 X-24.3516 Y34.7151
 X-24.3736 Y34.5641
 X-24.3808 Y34.3991
 X-24.3600 Y34.1391
 X-24.2932 Y33.9101
 X-24.1811 Y33.7081
 X-24.0248 Y33.5351
 X-23.8315 Y33.3941
 X-23.6051 Y33.2941
 X-23.3462 Y33.2351
 X-23.0555 Y33.2151
 X-22.8497 Y33.2241
 X-22.6544 Y33.2511
 X-22.4693 Y33.2991
 X-22.2947 Y33.3651
 X-22.1304 Y33.4501
 X-21.9765 Y33.5541
 X-21.8332 Y33.6761
 X-21.7003 Y33.8181
 X-21.5815 Y33.9751
 X-21.4783 Y34.1441
 X-21.3905 Y34.3261
 X-21.3186 Y34.5211
 X-21.2623 Y34.7261
 X-21.2221 Y34.9461
 X-21.1978 Y35.1781
 X-21.1896 Y35.4211
 Y35.6501
 X-22.1998
G0 Z25.0000
 X-17.4630 Y35.6081
G1 Z0.0000
 X-17.4569 Y35.3361
 X-17.4359 Y35.0791
 X-17.4003 Y34.8371
 X-17.3500 Y34.6101
 X-17.2853 Y34.3991
 X-17.2062 Y34.2011
 X-17.1130 Y34.0191
 X-17.0057 Y33.8531
 X-16.8868 Y33.7031
 X-16.7568 Y33.5721
 X-16.6158 Y33.4641
 X-16.4637 Y33.3741
 X-16.3012 Y33.3041
 X-16.1272 Y33.2551
 X-15.9432 Y33.2251
 X-15.7482 Y33.2151
 X-15.5542 Y33.2251
 X-15.3702 Y33.2541
 X-15.1972 Y33.3041
 X-15.0342 Y33.3741
 X-14.8822 Y33.4641
 X-14.7402 Y33.5741
 X-14.6092 Y33.7031
 X-14.4892 Y33.8531
 X-14.3822 Y34.0181
 X-14.2892 Y34.2001
 X-14.2102 Y34.3971
 X-14.1452 Y34.6101
 X-14.0942 Y34.8361
 X-14.0582 Y35.0791
 X-14.0362 Y35.3361
 X-14.0282 Y35.6081
 X-14.0352 Y35.8801
 X-14.0572 Y36.1391
 X-14.0932 Y36.3801
 X-14.1432 Y36.6071
 X-14.2082 Y36.8191
 X-14.2872 Y37.0171
 X-14.3812 Y37.1991
 X-14.4892 Y37.3651
 X-14.6102 Y37.5141
 X-14.7412 Y37.6431
 X-14.8832 Y37.7531
 X-15.0352 Y37.8421
 X-15.1972 Y37.9121
 X-15.3702 Y37.9621
 X-15.5542 Y37.9921
 X-15.7482 Y38.0031
 X-15.9432 Y37.9921
 X-16.1272 Y37.9621
 X-16.3002 Y37.9121
 X-16.4629 Y37.8431
 X-16.6146 Y37.7531
 X-16.7557 Y37.6431
 X-16.8859 Y37.5141
 X-17.0057 Y37.3651
 X-17.1137 Y37.1971
 X-17.2071 Y37.0151
 X-17.2858 Y36.8181
 X-17.3500 Y36.6071
 X-17.3996 Y36.3801
 X-17.4350 Y36.1371
 X-17.4561 Y35.8801
 X-17.4630 Y35.6081
G0 Z25.0000
 X-5.2312 Y21.4971
G1 Z0.0000
 X-5.2252 Y21.2251
 X-5.2042 Y20.9681
 X-5.1682 Y20.7261
 X-5.1182 Y20.4991
 X-5.0532 Y20.2871
 X-4.9742 Y20.0901
 X-4.8812 Y19.9081
 X-4.7732 Y19.7421
 X-4.6542 Y19.5921
 X-4.5252 Y19.4611
 X-4.3832 Y19.3531
 X-4.2312 Y19.2621
 X-4.0692 Y19.1931
 X-3.8952 Y19.1441
 X-3.7112 Y19.1141
 X-3.5162 Y19.1041
 X-3.3222 Y19.1141
 X-3.1382 Y19.1431
 X-2.9642 Y19.1931
 X-2.8022 Y19.2621
 X-2.6492 Y19.3531
 X-2.5082 Y19.4621
 X-2.3772 Y19.5921
 X-2.2562 Y19.7421
 X-2.1502 Y19.9071
 X-2.0572 Y20.0891
 X-1.9782 Y20.2861
 X-1.9132 Y20.4991
 X-1.8622 Y20.7251
 X-1.8252 Y20.9681
 X-1.8032 Y21.2251
 X-1.7962 Y21.4971
 X-1.8032 Y21.7691
 X-1.8252 Y22.0281
 X-1.8612 Y22.2691
 X-1.9112 Y22.4961
 X-1.9762 Y22.7081
 X-2.0552 Y22.9051
 X-2.1492 Y23.0871
 X-2.2562 Y23.2541
 X-2.3782 Y23.4031
 X-2.5092 Y23.5321
 X-2.6512 Y23.6421
 X-2.8032 Y23.7311
 X-2.9652 Y23.8011
 X-3.1382 Y23.8511
 X-3.3212 Y23.8801
 X-3.5162 Y23.8921
 X-3.7112 Y23.8801
 X-3.8952 Y23.8511
 X-4.0682 Y23.8011
 X-4.2312 Y23.7321
 X-4.3822 Y23.6421
 X-4.5232 Y23.5321
 X-4.6542 Y23.4031
 X-4.7732 Y23.2541
 X-4.8812 Y23.0861
 X-4.9752 Y22.9041
 X-5.0532 Y22.7071
 X-5.1182 Y22.4961
 X-5.1672 Y22.2691
 X-5.2032 Y22.0261
 X-5.2242 Y21.7691
 X-5.2312 Y21.4971
G0 Z25.0000
 X-3.4752 Y35.6501
G1 Z0.0000
 X-3.7722 Y35.6441
 X-4.0452 Y35.6301
 X-4.2942 Y35.6081
 X-4.5192 Y35.5761
 X-4.7202 Y35.5371
 X-4.8972 Y35.4891
 X-5.0512 Y35.4321
 X-5.1812 Y35.3671
 X-5.2942 Y35.2891
 X-5.3912 Y35.1991
 X-5.4722 Y35.0961
 X-5.5392 Y34.9821
 X-5.5902 Y34.8561
 X-5.6272 Y34.7151
 X-5.6492 Y34.5641
 X-5.6562 Y34.3991
 X-5.6352 Y34.1391
 X-5.5682 Y33.9101
 X-5.4562 Y33.7081
 X-5.3002 Y33.5351
 X-5.1072 Y33.3941
 X-4.8802 Y33.2941
 X-4.6212 Y33.2351
 X-4.3312 Y33.2151
 X-4.1252 Y33.2241
 X-3.9302 Y33.2511
 X-3.7442 Y33.2991
 X-3.5702 Y33.3651
 X-3.4062 Y33.4501
 X-3.2522 Y33.5541
 X-3.1082 Y33.6761
 X-2.9752 Y33.8181
 X-2.8572 Y33.9751
 X-2.7532 Y34.1441
 X-2.6662 Y34.3261
 X-2.5942 Y34.5211
 X-2.5372 Y34.7261
 X-2.4972 Y34.9461
 X-2.4732 Y35.1781
 X-2.4652 Y35.4211
 Y35.6501
 X-3.4752
G0 Z25.0000
 X7.4828 Y37.9751
G1 Z0.0000
 X7.2838 Y37.9651
 X7.0958 Y37.9351
 X6.9188 Y37.8861
 X6.7518 Y37.8171
 X6.5968 Y37.7281
 X6.4518 Y37.6191
 X6.3178 Y37.4901
 X6.1948 Y37.3431
 X6.0828 Y37.1761
 X5.9858 Y36.9961
 X5.9048 Y36.8011
 X5.8388 Y36.5921
 X5.7868 Y36.3681
 X5.7508 Y36.1291
 X5.7288 Y35.8761
 X5.7218 Y35.6081
 X5.7278 Y35.3401
 X5.7498 Y35.0871
 X5.7858 Y34.8491
 X5.8378 Y34.6251
 X5.9048 Y34.4151
 X5.9858 Y34.2211
 X6.0818 Y34.0401
 X6.1918 Y33.8751
 X6.3138 Y33.7261
 X6.4478 Y33.5991
 X6.5928 Y33.4891
 X6.7488 Y33.4001
 X6.9158 Y33.3321
 X7.0938 Y33.2821
 X7.2828 Y33.2531
 X7.4828 Y33.2431
 X7.6788 Y33.2511
 X7.8648 Y33.2801
 X8.0408 Y33.3311
 X8.2058 Y33.4001
 X8.3618 Y33.4901
 X8.5058 Y33.6001
 X8.6408 Y33.7291
 X8.7638 Y33.8781
 X8.8738 Y34.0431
 X8.9698 Y34.2241
 X9.0508 Y34.4181
 X9.1178 Y34.6281
 X9.1698 Y34.8511
 X9.2078 Y35.0891
 X9.2298 Y35.3421
 X9.2378 Y35.6081
 X9.2288 Y35.8751
 X9.2058 Y36.1261
 X9.1688 Y36.3621
 X9.1178 Y36.5861
 X9.0518 Y36.7941
 X8.9708 Y36.9901
 X8.8748 Y37.1711
 X8.7638 Y37.3371
 X8.6398 Y37.4861
 X8.5048 Y37.6151
 X8.3608 Y37.7251
 X8.2058 Y37.8151
 X8.0408 Y37.8851
 X7.8648 Y37.9351
 X7.6788 Y37.9651
 X7.4828 Y37.9751
G0 Z25.0000
 X13.9768 Y21.5391
G1 Z0.0000
 X13.6798 Y21.5331
 X13.4068 Y21.5191
 X13.1578 Y21.4971
 X12.9338 Y21.4651
 X12.7328 Y21.4261
 X12.5548 Y21.3781
 X12.4008 Y21.3211
 X12.2708 Y21.2551
 X12.1578 Y21.1781
 X12.0608 Y21.0871
 X11.9798 Y20.9851
 X11.9128 Y20.8711
 X11.8618 Y20.7441
 X11.8248 Y20.6041
 X11.8028 Y20.4531
 X11.7958 Y20.2871
 X11.8168 Y20.0281
 X11.8838 Y19.7991
 X11.9958 Y19.5971
 X12.1518 Y19.4241
 X12.3448 Y19.2831
 X12.5718 Y19.1831
 X12.8308 Y19.1241
 X13.1208 Y19.1041
 X13.3268 Y19.1121
 X13.5228 Y19.1401
 X13.7078 Y19.1871
 X13.8818 Y19.2541
 X14.0468 Y19.3391
 X14.1998 Y19.4431
 X14.3438 Y19.5651
 X14.4768 Y19.7071
 X14.5948 Y19.8641
 X14.6988 Y20.0331
 X14.7858 Y20.2151
 X14.8578 Y20.4101
 X14.9148 Y20.6151
 X14.9548 Y20.8351
 X14.9788 Y21.0671
 X14.9868 Y21.3101
 Y21.5391
 X13.9768
G0 Z25.0000
 X24.9018 Y23.8641
G1 Z0.0000
 X24.7018 Y23.8541
 X24.5138 Y23.8241
 X24.3358 Y23.7751
 X24.1708 Y23.7061
 X24.0148 Y23.6171
 X23.8708 Y23.5081
 X23.7358 Y23.3791
 X23.6128 Y23.2321
 X23.5018 Y23.0651
 X23.4038 Y22.8851
 X23.3238 Y22.6901
 X23.2568 Y22.4811
 X23.2058 Y22.2571
 X23.1698 Y22.0181
 X23.1468 Y21.7651
 X23.1398 Y21.4971
 X23.1458 Y21.2291
 X23.1678 Y20.9761
 X23.2038 Y20.7371
 X23.2558 Y20.5141
 X23.3218 Y20.3041
 X23.4038 Y20.1101
 X23.4998 Y19.9291
 X23.6098 Y19.7641
 X23.7318 Y19.6151
 X23.8668 Y19.4871
 X24.0108 Y19.3781
 X24.1668 Y19.2891
 X24.3348 Y19.2211
 X24.5128 Y19.1711
 X24.7018 Y19.1421
 X24.9018 Y19.1321
 X25.0968 Y19.1401
 X25.2838 Y19.1691
 X25.4588 Y19.2191
 X25.6248 Y19.2891
 X25.7788 Y19.3791
 X25.9248 Y19.4891
 X26.0588 Y19.6181
 X26.1818 Y19.7671
 X26.2918 Y19.9321
 X26.3878 Y20.1121
 X26.4698 Y20.3071
 X26.5358 Y20.5171
 X26.5878 Y20.7401
 X26.6248 Y20.9781
 X26.6488 Y21.2311
 X26.6558 Y21.4971
 X26.6468 Y21.7641
 X26.6248 Y22.0151
 X26.5878 Y22.2511
 X26.5358 Y22.4751
 X26.4698 Y22.6831
 X26.3888 Y22.8791
 X26.2928 Y23.0601
 X26.1818 Y23.2261
 X26.0588 Y23.3751
 X25.9238 Y23.5041
 X25.7788 Y23.6141
 X25.6238 Y23.7041
 X25.4588 Y23.7741
 X25.2838 Y23.8241
 X25.0968 Y23.8541
 X24.9018 Y23.8641
G0 Z25.0000
M5 (stop spindle)
G04 P3 (wait for 3 seconds)
G0 Z25.0000
M2 (end program)
